/* XPM */
static char * matrix_xpm[] = {
"64 64 9 1",
"A	c #70DD99",
"B	c #000000",
"C	c #141323",
"D	c #D6DAEF",
"E	c #261BF2",
"F	c #4137FF",
"G	c #E7E8FD",
"H	c #D8D7F8",
"I	c #F6F5FF",
"AAAAAAAAAAAAAAAAAAAAAAAAAAAAAAAAAAAAAAAAAAAAAAAAAAAAAAAAAAAAAAAA",
"ABBBBBBBBBBBBBBBBBBBBBBBBBBBBBBBBBBBBBBBBBBBBBBBBBBBBBBBBBBBBBBA",
"ABBBBBBBBBBBBBBBBBBBBBBBBBBBBBBBBBBBBBBBBBBBBBBBBBBBBBBBBBBBBBBA",
"ABBBBBBBBBBBBBBBBBBBBBBBBBBBBBBBBBBBBBBBBBBBBBBBBBBBBBBBBBBBBBBA",
"ABBBBBBBBBBBBBBBBBBBBBBBBBBBBBBBBBBBBBBBBBBBBBBBBBBBBBBBBBBBBBBA",
"ABBBBBBBBBBBBBBBBBBBBBBBBBBBBBBBBBBBBBBBBBBBBBBBBBBBBBBBBBBBBBBA",
"ABBBBBBBBBBBBBBBBBBBBBBBBBBBBBBBBBBBBBBBBBBBBBBBBBBBBBBBBBBBBBBA",
"ABBBBBBBBBBBBBBBBBBBBBBBBBBBBBBBBBBBBBBBBBBBBBBBBBBBBBBBBBBBBBBA",
"ABBBBBBBBBBBBBBBBBBBBBBBBBBBBBBBBBBBBBBBBBBBBBBBBBBBBBBBBBBBBBBA",
"ABBBBBBBBBBBBBBBBBBBBBBBBBBBBBBBBBBBBBBBBBBBBBBBBBBBBBBBBBBBBBBA",
"ABBBBBBBBBBBBBBBBBBBBBBBBBBBBBBBBBBBBBBBBBBBBBBBBBBBBBBBBBBBBBBA",
"ABBBBBBBBBBBBBBBBBBBBBBBBBBBBBBBBBBBBBBBBBBBBBBBBBBBBBBBBBBBBBBA",
"ABBBBBBBBBBBBBBBBBBBBBBBBBBBBBBBBBBBBBBBBBBBBBBBBBBBBBBBBBBBBBBA",
"ABBBBBBBBBBBBBBBBBBBBBBBBBBBBBBBBBBBBBBBBBBBBBBBBBBBBBBBBBBBBBBA",
"ABBBBBBBBBBBBBBBBBBBBBBBBBBBBBBBBBBBBBBBBBBBBBBBBBBBBBBBBBBBBBBA",
"ABBBBBBBBBBBBBBBBBBBBBBBBBBBBBBBBBBBBBBBBBBBBBBBBBBBBBBBBBBBBBBA",
"ABBBBBBBBBBBBBBBBBBBBBBBBBBBBBBBBBBBBBBBBBBBBBBBBBBBBBBBBBBBBBBA",
"ABBBBBBBBBBBBBBBBBBBBBBBBBBBBBBBBBBBBBBBBBBBBBBBBBBBBBBBBBBBBBBA",
"ABBBBBBBBBBBBBBBBBBBBBBBBBBBBBBBBBBBBBBBBBBBBBBBBBBBBBBBBBBBBBBA",
"ABBBBBBBBBBBBBBBBBBBBBBBBBBBBBBBBBBBBBBBBBBBBBBBBBBBBBBBBBBBBBBA",
"ABBBBBBBBBBBBBBBBBBBBBBBBBBBBBBBBBBBBBBBBBBBBBBBBBBBBBBBBBBBBBBA",
"ABBBBBBBBBBBBBBBBBBBBBBBBBBBBBBBBBBBBBBBBBBBBBBBBBBBBBBBBBBBBBBA",
"ABBBBBBBBBBBBBBBBBBBBBBCCBBBBBBBBBBBBBBBCBBBBBBBBBBBBBBBBBBBBBBA",
"ABBBBBBBBBBBBBBBBBBBBBBBBCBBBBBBBBBBBBCCBBBBBBBBBBBBBBBBBBBBBBBA",
"ABBBBBBBBBBBBBBBBBBBBBBBBCBBBBBBBBBBBBCCBBBBBBBBBBBBBBBBBBBBBBBA",
"ABBBBBBBBBBBBBBBBBBBBBBBBBBBBBBBBBBBBBBBBBBBBBBBBBBBBBBBBBBBBBBA",
"ABBBBBBBBBBBBBBBBBBBDDEEEDBBCBBBBBBCCBDDEEEDBBBBBBBBBBBBBBBBBBBA",
"ABBBBBBBBBBBBBBBBBBBDDEEEDBBCBBBBBBCCBDDEEEDBBBBBBBBBBBBBBBBBBBA",
"ABBBBBBBBBBBBBCCBBBDFFEEEEDDBBBBBBBBBDEEEEEFDDBBBCBBBBBBBBBBBBBA",
"ABBBBBBBBBBBBBBBBGGGEEEEEEGGDBBBBBBDDGEEEEEEGGGBBBBBBBBBBBBBBBBA",
"ABBBBBBBBBBBBBBBBGGGEEEEEEGGDBBBBBBDDGEEEEEEGGGBBBBBBBBBBBBBBBBA",
"ABBBBBBBBBBBBBBBBHHHDDEEEDDDDCCBBBCDDDDDEEEDHHHBBBBBBBBBBBBBBBBA",
"ABBBBBBBBBBBBBBBBHHGHHDHHGGGHBBBBBBHHGGGHDDHGGHBBBBBBBBBBBBBBBBA",
"ABBBBBBBBBBBBBBBBHHGHHDHHGGGHBBBBBBHHGGGHDDHGGHBBBBBBBBBBBBBBBBA",
"ABBBBBBBBBBBBBBBCHHDGGGGGHHHDCCBBBCDDHHHGGGGDDHCCBBBBBBBBBBBBBBA",
"ABBBBBBBBBBBBBBBBDDDHHDHHIHHDBBBBBBDDHIIHDDHDDDBBBBBBBBBBBBBBBBA",
"ABBBBBBBBBBBBBBBBDDDHHDHHIHHDBBBBBBDDHIIHDDHDDDBBBBBBBBBBBBBBBBA",
"ABBBBBBBBBBBBBBBBIIDHHHIIHDDIBBBBBBIIDHHIHHHDDIBBBBBBBBBBBBBBBBA",
"ABBBBBBBBBBBBBCCBBBGIIHDDGIIBBBBBBBBBIGGDHHIGGBBBCBBBBBBBBBBBBBA",
"ABBBBBBBBBBBBBCCBBBGIIHDDGIIBBBBBBBBBIGGDHHIGGBBBCBBBBBBBBBBBBBA",
"ABBBBBBBBBBBBBBBBBBBDDGDDGBBBBBBBBBBBBGGDGGDBBBBBBBBBBBBBBBBBBBA",
"ABBBBBBBBBBBBBBBBBBBBBBBBBBBBCCBBBCBBBBBBBBBBBBBBBBBBBBBBBBBBBBA",
"ABBBBBBBBBBBBBBBBBBBBBBBBBBBBCCBBBCBBBBBBBBBBBBBBBBBBBBBBBBBBBBA",
"ABBBBBBBBBBBBBBBBBBBBBBBBBBBBBBBBBBBBBBBBBBBBBBBBBBBBBBBBBBBBBBA",
"ABBBBBBBBBBBBBBBBBBBBBBBBBBBBBBBBBBBBBBBBBBBBBBBBBBBBBBBBBBBBBBA",
"ABBBBBBBBBBBBBBBBBBBBBBBBBBBBBBBBBBBBBBBBBBBBBBBBBBBBBBBBBBBBBBA",
"ABBBBBBBBBBBBBBBBBBBBBBBBBBBBBBBBBBBBBBBBBBBBBBBBBBBBBBBBBBBBBBA",
"ABBBBBBBBBBBBBBBBBBBBBBBBBBBBBBBBBBBBBBBBBBBBBBBBBBBBBBBBBBBBBBA",
"ABBBBBBBBBBBBBBBBBBBBBBBBBBBBBBBBBBBBBBBBBBBBBBBBBBBBBBBBBBBBBBA",
"ABBBBBBBBBBBBBBBBBBBBBBBBBBBBBBBBBBBBBBBBBBBBBBBBBBBBBBBBBBBBBBA",
"ABBBBBBBBBBBBBBBBBBBBBBBBBBBBBBBBBBBBBBBBBBBBBBBBBBBBBBBBBBBBBBA",
"ABBBBBBBBBBBBBBBBBBBBBBBBBBBBBBBBBBBBBBBBBBBBBBBBBBBBBBBBBBBBBBA",
"ABBBBBBBBBBBBBBBBBBBBBBBBBBBBBBBBBBBBBBBBBBBBBBBBBBBBBBBBBBBBBBA",
"ABBBBBBBBBBBBBBBBBBBBBBBBBBBBBBBBBBBBBBBBBBBBBBBBBBBBBBBBBBBBBBA",
"ABBBBBBBBBBBBBBBBBBBBBBBBBBBBBBBBBBBBBBBBBBBBBBBBBBBBBBBBBBBBBBA",
"ABBBBBBBBBBBBBBBBBBBBBBBBBBBBBBBBBBBBBBBBBBBBBBBBBBBBBBBBBBBBBBA",
"ABBBBBBBBBBBBBBBBBBBBBBBBBBBBBBBBBBBBBBBBBBBBBBBBBBBBBBBBBBBBBBA",
"ABBBBBBBBBBBBBBBBBBBBBBBBBBBBBBBBBBBBBBBBBBBBBBBBBBBBBBBBBBBBBBA",
"ABBBBBBBBBBBBBBBBBBBBBBBBBBBBBBBBBBBBBBBBBBBBBBBBBBBBBBBBBBBBBBA",
"ABBBBBBBBBBBBBBBBBBBBBBBBBBBBBBBBBBBBBBBBBBBBBBBBBBBBBBBBBBBBBBA",
"ABBBBBBBBBBBBBBBBBBBBBBBBBBBBBBBBBBBBBBBBBBBBBBBBBBBBBBBBBBBBBBA",
"ABBBBBBBBBBBBBBBBBBBBBBBBBBBBBBBBBBBBBBBBBBBBBBBBBBBBBBBBBBBBBBA",
"ABBBBBBBBBBBBBBBBBBBBBBBBBBBBBBBBBBBBBBBBBBBBBBBBBBBBBBBBBBBBBBA",
"AAAAAAAAAAAAAAAAAAAAAAAAAAAAAAAAAAAAAAAAAAAAAAAAAAAAAAAAAAAAAAAA"
};
