/* XPM */
static char * matrix_xpm[] = {
"64 64 9 1",
"A	c #70DD99",
"B	c #000000",
"C	c #14141B",
"D	c #DCDDF5",
"E	c #E5E6FC",
"F	c #F2050A",
"G	c #ECBAF7",
"H	c #B6EAE3",
"I	c #F10041",
"AAAAAAAAAAAAAAAAAAAAAAAAAAAAAAAAAAAAAAAAAAAAAAAAAAAAAAAAAAAAAAAA",
"ABBBBBBBBBBBBBBBBBBBBBBBBBBBBBBBBBBBBBBBBBBBBBBBBBBBBBBBBBBBBBBA",
"ABBBBBBBBBBBBBBBBBBBBBBBBBBBBBBBBBBBBBBBBBBBBBBBBBBBBBBBBBBBBBBA",
"ABBBBBBBBBBBBBBBBBBBBBBBBBBBBBBBBBBBBBBBBBBBBBBBBBBBBBBBBBBBBBBA",
"ABBBBBBBBBBBBBBBBBBBBBBBBBBBBBBBBBBBBBBBBBBBBBBBBBBBBBBBBBBBBBBA",
"ABBBBBBBBBBBBBBBBBBBBBBBBBBBBBBBBBBBBBBBBBBBBBBBBBBBBBBBBBBBBBBA",
"ABBBBBBBBBBBBBBBBBBBBBBBBBBBBBBBBBBBBBBBBBBBBBBBBBBBBBBBBBBBBBBA",
"ABBBBBBBBBBBBBBBBBBBBBBBBBBBBBBBBBBBBBBBBBBBBBBBBBBBBBBBBBBBBBBA",
"ABBBBBBBBBBBBBBBBBBBBBBBBBBBBBBBBBBBBBBBBBBBBBBBBBBBBBBBBBBBBBBA",
"ABBBBBBBBBBBBBBBBBBBBBBBBBBBBBBBBBBBBBBBBBBBBBBBBBBBBBBBBBBBBBBA",
"ABBBBBBBBBBBBBBBBBBBBBBBBBBBBCCBBBCBBBBBBBBBBBBBBBBBBBBBBBBBBBBA",
"ABBBBBBBBBBBBBBBBBBBBBBBBBDDEDDDDDDEEDBBBBBBBBBBBBBBBBBBBBBBBBBA",
"ABBBBBBBBBBBBBBBBBBBBBBBBBDDEDDDDDDEEDBBBBBBBBBBBBBBBBBBBBBBBBBA",
"ABBBBBBBBBBBBBBBBBBBBBBDDEEEDDDDDDDDDEEEDBBBBBBBBBBBBBBBBBBBBBBA",
"ABBBBBBBBBBBBCBBBBBBDDDDDDDDEDDDDDDEEDDDDDDDBBBBBBCCBBBBBBBBBBBA",
"ABBBBBBBBBBBBCBBBBBBDDDDDDDDEDDDDDDEEDDDDDDDBBBBBBCCBBBBBBBBBBBA",
"ABBBBBBBBBBBBBBBBBBDEEEDDDEEDDDDDDDDDEDDDEEEDDBBBBBBBBBBBBBBBBBA",
"ABBBBBBBBBBBBBBBBDDDDDDEEEDDEDDDDDDEEDEEEDDDDDDBBBBBBBBBBBBBBBBA",
"ABBBBBBBBBBBBBBBBDDDDDDEEEDDEDDDDDDEEDEEEDDDDDDBBBBBBBBBBBBBBBBA",
"ABBBBBBBBBBBBBBBDDDDEEDDDDDDDEEDDDEDDDDDDDDEDDDDDBBBBBBBBBBBBBBA",
"ABBBBBBBBBBBBBEEDEEDDDDEEDDDEDDDDDDEEDDDEDDDDDEDDEBBBBBBBBBBBBBA",
"ABBBBBBBBBBBBBEEDEEDDDDEEDDDEDDDDDDEEDDDEDDDDDEDDEBBBBBBBBBBBBBA",
"ABBBBBBBBBBBBBDDDDDDDDDDDDDDDDDDDDDDDDDDDDDDDDDDDDBBBBBBBBBBBBBA",
"ABBBBBBBBBBBBDDDEDDDDDDDDDDDDDDDDDDDDDDDDDDDDDDEEDDDBBBBBBBBBBBA",
"ABBBBBBBBBBBBDDDEDDDDDDDDDDDDDDDDDDDDDDDDDDDDDDEEDDDBBBBBBBBBBBA",
"ABBBBBBBBBBBBDDDDEEDDDDDDDDDDDDDDDDDDDDDDDDDDDEDDDDDBBBBBBBBBBBA",
"ABBBBBBBBBBEEDDDDEEEDDDDDFFFDDDDDDDDDFFFDDDDEEEDDDDDEBBBBBBBBBBA",
"ABBBBBBBBBBEEDDDDEEEDDDDDFFFDDDDDDDDDFFFDDDDEEEDDDDDEBBBBBBBBBBA",
"ABBBBBBBBBBDDDEEEEEDDDDFFFFFFDDDDDDFFFFFFDDDDDEEEEDDDBBBBBBBBBBA",
"ABBBBBBBBBBDDEDDDDDEDDDFFFFFFDDDDDDFFFFFFDDDEEDDDDEEDBBBBBBBBBBA",
"ABBBBBBBBBBDDEDDDDDEDDDFFFFFFDDDDDDFFFFFFDDDEEDDDDEEDBBBBBBBBBBA",
"ABBBBBBBBBBDDDEEEDDDDDDDDFFFDDDDDDDDDFFFDDDDDDDEEEDDDBBBBBBBBBBA",
"ABBBBBBBBBCEEDDDDDDDDDGEEDDDEGGDDDGEEDDDEGGDDDDDDDDDECCBBBBBBBBA",
"ABBBBBBBBBCEEDDDDDDDDDGEEDDDEGGDDDGEEDDDEGGDDDDDDDDDECCBBBBBBBBA",
"ABBBBBBBBBCDDDDDDDDDDDDDDDDDDDDDDDDDDDDDDDDDDDDDDDDDDCCBBBBBBBBA",
"ABBBBBBBBBBDDDDDDDDDEEDEEDDDEDDEEEDEEDDDEDDEDDDDDDDDDBBBBBBBBBBA",
"ABBBBBBBBBBDDDDDDDDDEEDEEDDDEDDEEEDEEDDDEDDEDDDDDDDDDBBBBBBBBBBA",
"ABBBBBBBBBBGGDDDDDDDDDDDDDDDDDDDDDDDDDDDDDDDDDDDDDDDGBBBBBBBBBBA",
"ABBBBBBBBBCDDDEEDDDHDDDDDDDDDDDDDDDDDDDDDDDDHHDDDEDDDCCBBBBBBBBA",
"ABBBBBBBBBCDDDEEDDDHDDDDDDDDDDDDDDDDDDDDDDDDHHDDDEDDDCCBBBBBBBBA",
"ABBBBBBBCCBEEDDDDFFFFFFDDDDDDFFFFFFDDDDDDFFFFFFDDDDDEBBCBBBBBBBA",
"ABBBBBBBBBBDDEHHFDDDEEDFFDDDFDDEEEDFFDDDFDDEDDDFFHEEDBBBBBBBBBBA",
"ABBBBBBBBBBDDEHHFDDDEEDFFDDDFDDEEEDFFDDDFDDEDDDFFHEEDBBBBBBBBBBA",
"ABBBBBBBBBBDDDIIDDDDDDDEEFFFEDDDDDDEEFFFEDDDDDDDDIDDDBBBBBBBBBBA",
"ABBBBBBBBBBEEEDDDEEEDDDDDDDDDEEDDDEDDDDDDDDDEEEDDDEEEBBBBBBBBBBA",
"ABBBBBBBBBBEEEDDDEEEDDDDDDDDDEEDDDEDDDDDDDDDEEEDDDEEEBBBBBBBBBBA",
"ABBBBBBBBBBDDEEEEDDDDDEEEDDDEHHEEEHEEDDDEEEDDDDEEEEEDBBBBBBBBBBA",
"ABBBBBBBBBBDDEDDEBBBDDEDDEEEDBBBBBBDDEEEDEEDBBBEEDEEDBBBBBBBBBBA",
"ABBBBBBBBBBDDEDDEBBBDDEDDEEEDBBBBBBDDEEEDEEDBBBEEDEEDBBBBBBBBBBA",
"ABBBBBBBBBBDDDEEBBBBBBDDDDDDDBBBBBBDDDDDDDDBBBBBBEDDDBBBBBBBBBBA",
"ABBBBBBBBBCDDEBBBBBBBBBEEDDDEBBBBBBEEDDDEBBBBBBBBBEEDCCBBBBBBBBA",
"ABBBBBBBBBCDDEBBBBBBBBBEEDDDEBBBBBBEEDDDEBBBBBBBBBEEDCCBBBBBBBBA",
"ABBBBBBBBBBDDBBBBBBBBBBBBEDDEBBBBBBEEDEEBBBBBBBBBBBBDBBBBBBBBBBA",
"ABBBBBBBBBBBBBBBBBBBBBBBBBBBBBBBBBBBBBBBBBBBBBBBBBBBBBBBBBBBBBBA",
"ABBBBBBBBBBBBBBBBBBBBBBBBBBBBBBBBBBBBBBBBBBBBBBBBBBBBBBBBBBBBBBA",
"ABBBBBBBBBBBBBBBBBBBBBBBBBBBBBBBBBBBBBBBBBBBBBBBBBBBBBBBBBBBBBBA",
"ABBBBBBBBBBBBBBBBBBBBBBBBBBBBBBBBBBBBBBBBBBBBBBBBBBBBBBBBBBBBBBA",
"ABBBBBBBBBBBBBBBBBBBBBBBBBBBBBBBBBBBBBBBBBBBBBBBBBBBBBBBBBBBBBBA",
"ABBBBBBBBBBBBBBBBBBBBBBBBBBBBBBBBBBBBBBBBBBBBBBBBBBBBBBBBBBBBBBA",
"ABBBBBBBBBBBBBBBBBBBBBBBBBBBBBBBBBBBBBBBBBBBBBBBBBBBBBBBBBBBBBBA",
"ABBBBBBBBBBBBBBBBBBBBBBBBBBBBBBBBBBBBBBBBBBBBBBBBBBBBBBBBBBBBBBA",
"ABBBBBBBBBBBBBBBBBBBBBBBBBBBBBBBBBBBBBBBBBBBBBBBBBBBBBBBBBBBBBBA",
"ABBBBBBBBBBBBBBBBBBBBBBBBBBBBBBBBBBBBBBBBBBBBBBBBBBBBBBBBBBBBBBA",
"AAAAAAAAAAAAAAAAAAAAAAAAAAAAAAAAAAAAAAAAAAAAAAAAAAAAAAAAAAAAAAAA"
};
