/* XPM */
static char * matrix_xpm[] = {
"64 64 9 1",
"A	c #70DD99",
"B	c #000000",
"C	c #16161C",
"D	c #DEDFF7",
"E	c #F2050A",
"F	c #ECBAF7",
"G	c #B3FFE8",
"H	c #F10041",
"I	c #B9BAD8",
"AAAAAAAAAAAAAAAAAAAAAAAAAAAAAAAAAAAAAAAAAAAAAAAAAAAAAAAAAAAAAAAA",
"ABBBBBBBBBBBBBBBBBBBBBBBBBBBBBBBBBBBBBBBBBBBBBBBBBBBBBBBBBBBBBBA",
"ABBBBBBBBBBBBBBBBBBBBBBBBBBBBBBBBBBBBBBBBBBBBBBBBBBBBBBBBBBBBBBA",
"ABBBBBBBBBBBBBBBBBBBBBBBBBBBBBBBBBBBBBBBBBBBBBBBBBBBBBBBBBBBBBBA",
"ABBBBBBBBBBBBBBBBBBBBBBBBBBBBBBBBBBBBBBBBBBBBBBBBBBBBBBBBBBBBBBA",
"ABBBBBBBBBBBBBBBBBBBBBBBBBBBBBBBBBBBBBBBBBBBBBBBBBBBBBBBBBBBBBBA",
"ABBBBBBBBBBBBBBBBBBBBBBBBBBBBBBBBBBBBBBBBBBBBBBBBBBBBBBBBBBBBBBA",
"ABBBBBBBBBBBBBBBBBBBBBBBBBBBBBBBBBBBBBBBBBBBBBBBBBBBBBBBBBBBBBBA",
"ABBBBBBBBBBBBBBBBBBBBBBBBBBBBBBBBBBBBBBBBBBBBBBBBBBBBBBBBBBBBBBA",
"ABBBBBBBBBBBBBBBBBBBBBBBBBBBBBBBBBBBBBBBBBBBBBBBBBBBBBBBBBBBBBBA",
"ABBBBBBBBBBBBBBBBBBBBBBBBBBBBCCBBBCBBBBBBBBBBBBBBBBBBBBBBBBBBBBA",
"ABBBBBBBBBBBBBBBBBBBBBBBBBDDDDDDDDDDDDBBBBBBBBBBBBBBBBBBBBBBBBBA",
"ABBBBBBBBBBBBBBBBBBBBBBBBBDDDDDDDDDDDDBBBBBBBBBBBBBBBBBBBBBBBBBA",
"ABBBBBBBBBBBBBBBBBBBBBBDDDDDDDDDDDDDDDDDDBBBBBBBBBBBBBBBBBBBBBBA",
"ABBBBBBBBBBBBCBBBBBBDDDDDDDDDDDDDDDDDDDDDDDDBBBBBBCCBBBBBBBBBBBA",
"ABBBBBBBBBBBBCBBBBBBDDDDDDDDDDDDDDDDDDDDDDDDBBBBBBCCBBBBBBBBBBBA",
"ABBBBBBBBBBBBBBBBBBDDDDDDDDDDDDDDDDDDDDDDDDDDDBBBBBBBBBBBBBBBBBA",
"ABBBBBBBBBBBBBBBBDDDDDDDDDDDDDDDDDDDDDDDDDDDDDDBBBBBBBBBBBBBBBBA",
"ABBBBBBBBBBBBBBBBDDDDDDDDDDDDDDDDDDDDDDDDDDDDDDBBBBBBBBBBBBBBBBA",
"ABBBBBBBBBBBBBBBDDDDDDDDDDDDDDDDDDDDDDDDDDDDDDDDDBBBBBBBBBBBBBBA",
"ABBBBBBBBBBBBBDDDDDDDDDDDDDDDDDDDDDDDDDDDDDDDDDDDDBBBBBBBBBBBBBA",
"ABBBBBBBBBBBBBDDDDDDDDDDDDDDDDDDDDDDDDDDDDDDDDDDDDBBBBBBBBBBBBBA",
"ABBBBBBBBBBBBBDDDDDDDDDDDDDDDDDDDDDDDDDDDDDDDDDDDDBBBBBBBBBBBBBA",
"ABBBBBBBBBBBBDDDDDDDDDDDDDDDDDDDDDDDDDDDDDDDDDDDDDDDBBBBBBBBBBBA",
"ABBBBBBBBBBBBDDDDDDDDDDDDDDDDDDDDDDDDDDDDDDDDDDDDDDDBBBBBBBBBBBA",
"ABBBBBBBBBBBBDDDDDDDDDDDDDDDDDDDDDDDDDDDDDDDDDDDDDDDBBBBBBBBBBBA",
"ABBBBBBBBBBDDDDDDDDDDDDDDEEEDDDDDDDDDEEEDDDDDDDDDDDDDBBBBBBBBBBA",
"ABBBBBBBBBBDDDDDDDDDDDDDDEEEDDDDDDDDDEEEDDDDDDDDDDDDDBBBBBBBBBBA",
"ABBBBBBBBBBDDDDDDDDDDDDEEEEEEDDDDDDEEEEEEDDDDDDDDDDDDBBBBBBBBBBA",
"ABBBBBBBBBBDDDDDDDDDDDDEEEEEEDDDDDDEEEEEEDDDDDDDDDDDDBBBBBBBBBBA",
"ABBBBBBBBBBDDDDDDDDDDDDEEEEEEDDDDDDEEEEEEDDDDDDDDDDDDBBBBBBBBBBA",
"ABBBBBBBBBBDDDDDDDDDDDDDDEEEDDDDDDDDDEEEDDDDDDDDDDDDDBBBBBBBBBBA",
"ABBBBBBBBBCDDDDDDDDDDDFDDDDDDFFDDDFDDDDDDFFDDDDDDDDDDCCBBBBBBBBA",
"ABBBBBBBBBCDDDDDDDDDDDFDDDDDDFFDDDFDDDDDDFFDDDDDDDDDDCCBBBBBBBBA",
"ABBBBBBBBBCDDDDDDDDDDDDDDDDDDDDDDDDDDDDDDDDDDDDDDDDDDCCBBBBBBBBA",
"ABBBBBBBBBBDDDDDDDDDDDDDDDDDDDDDDDDDDDDDDDDDDDDDDDDDDBBBBBBBBBBA",
"ABBBBBBBBBBDDDDDDDDDDDDDDDDDDDDDDDDDDDDDDDDDDDDDDDDDDBBBBBBBBBBA",
"ABBBBBBBBBBFFDDDDDDDDDDDDDDDDDDDDDDDDDDDDDDDDDDDDDDDFBBBBBBBBBBA",
"ABBBBBBBBBCDDDDDDDDGDDDDDDDDDDDDDDDDDDDDDDDDGGDDDDDDDCCBBBBBBBBA",
"ABBBBBBBBBCDDDDDDDDGDDDDDDDDDDDDDDDDDDDDDDDDGGDDDDDDDCCBBBBBBBBA",
"ABBBBBBBCCBDDDDDDEEEEEEDDDDDDEEEEEEDDDDDDEEEEEEDDDDDDBBCBBBBBBBA",
"ABBBBBBBBBBDDDGGEDDDDDDEEDDDEDDDDDDEEDDDEDDDDDDEEGDDDBBBBBBBBBBA",
"ABBBBBBBBBBDDDGGEDDDDDDEEDDDEDDDDDDEEDDDEDDDDDDEEGDDDBBBBBBBBBBA",
"ABBBBBBBBBBDDDHHDDDDDDDDDEEEDDDDDDDDDEEEDDDDDDDDDHDDDBBBBBBBBBBA",
"ABBBBBBBBBBDDDDDDDDDDDDDDDDDDDDDDDDDDDDDDDDDDDDDDDDDDBBBBBBBBBBA",
"ABBBBBBBBBBDDDDDDDDDDDDDDDDDDDDDDDDDDDDDDDDDDDDDDDDDDBBBBBBBBBBA",
"ABBBBBBBBBCDDDDDDDDDDDDDDDDDDDDDDDDDDDDDDDDDDDDDDDDDDCCBBBBBBBBA",
"ABBBBBBBBBBDDDDDDDDDDDDDDDDDDDDDDDDDDDDDDDDDDDDDDDDDDBBBBBBBBBBA",
"ABBBBBBBBBBDDDDDDDDDDDDDDDDDDDDDDDDDDDDDDDDDDDDDDDDDDBBBBBBBBBBA",
"ABBBBBBBBBBDDDDDDDDDDDDDDDIIDDDDDDDDDIDDDDDDDDDDDDDDDBBBBBBBBBBA",
"ABBBBBBBBBBBBDDDDDDDDDDDDBDDDDDDDDDDDDBBDDDDDDDDDDDDBBBBBBBBBBBA",
"ABBBBBBBBBBBBDDDDDDDDDDDDBDDDDDDDDDDDDBBDDDDDDDDDDDDBBBBBBBBBBBA",
"ABBBBBBBBBBBBBDDDDDDDDDBBBBBDDDDDDDDDBBBBDDDDDDDDDBBBBBBBBBBBBBA",
"ABBBBBBBBBCBBBBBBBBBBBBBBBBBBBBBBBBBBBBBBBBBBBBBBBBBBCCBBBBBBBBA",
"ABBBBBBBBBCBBBBBBBBBBBBBBBBBBBBBBBBBBBBBBBBBBBBBBBBBBCCBBBBBBBBA",
"ABBBBBBBBBBBBBBBBBBBBBBBBBBBBBBBBBBBBBBBBBBBBBBBBBBBBBBBBBBBBBBA",
"ABBBBBBBBBBBBBBBBBBBBBBBBBBBBBBBBBBBBBBBBBBBBBBBBBBBBBBBBBBBBBBA",
"ABBBBBBBBBBBBBBBBBBBBBBBBBBBBBBBBBBBBBBBBBBBBBBBBBBBBBBBBBBBBBBA",
"ABBBBBBBBBBBBBBBBBBBBBBBBBBBBBBBBBBBBBBBBBBBBBBBBBBBBBBBBBBBBBBA",
"ABBBBBBBBBBBBBBBBBBBBBBBBBBBBBBBBBBBBBBBBBBBBBBBBBBBBBBBBBBBBBBA",
"ABBBBBBBBBBBBBBBBBBBBBBBBBBBBBBBBBBBBBBBBBBBBBBBBBBBBBBBBBBBBBBA",
"ABBBBBBBBBBBBBBBBBBBBBBBBBBBBBBBBBBBBBBBBBBBBBBBBBBBBBBBBBBBBBBA",
"ABBBBBBBBBBBBBBBBBBBBBBBBBBBBBBBBBBBBBBBBBBBBBBBBBBBBBBBBBBBBBBA",
"AAAAAAAAAAAAAAAAAAAAAAAAAAAAAAAAAAAAAAAAAAAAAAAAAAAAAAAAAAAAAAAA"
};
