/* XPM */
static char *tuto_07[] = {
"608 120 4 1",
"  c #000000",
"G c #70DD99",
"B c #3399FF",
"R c #FF0000",
"                                                                                                                                                                                                                                                                                                                                                                                                                                                                                                                                                                                                                                ",
"                                                                                                                                                                                                                                                                                                                                                                                                                                                                                                                                                                                                                                ",
"                                                                                                                                                                                                                                                                                                                                                                                                                                                                                                                                                                                                                                ",
"                                                                                                                                                                                                                                                                                                                                                                                                                                                                                                                                                                                                                                ",
"                                                                                                                                                                                                                                                                                                                                                                                                                                                                                                                                                                                                                                ",
"                                                                                                                                                                                                                                                                                                                                                                                                                                                                                                                                                                                                                                ",
"                                                                                                                                                                                                                                                                                                                                                                                                                                                                                                                                                                                                                                ",
"                                                                                                                                                                                                                                                                                                                                                                                                                                                                                                                                                                                                                                ",
"                                                                                                                                                                                                                                                                                                                                                                                                                                                                                                                                                                                                                                ",
"                                                                                                                                                                                                                                                                                                                                                                                                                                                                                                                                                                                                                                ",
"                                                                                                                                                                                                                                                                                                                                                                                                                                                                                                                                                                                                                                ",
"                                                                                                                                                                                                                                                                                                                                                                                                                                                                                                                                                                                                                                ",
"                                                                                                                                                                                                                                                                                                                                                                                                                                                                                                                                                                                                                                ",
"                                                                                                                                                                                                                                                                                                                                                                                                                                                                                                                                                                                                                                ",
"                                                                                                                                                                                                                                       GGG                   GGG                                                  GGG                                  GGGG                                                                                                                                                                  GGGG                                                                                               ",
"                           GGGGGGG                                                                       GGG                           GGG                                                                                             GGG                   GGG                                                  GGG                      GGG         GGGG                                                                                                                                                 GGGGGGGGGGGGG    GGGG                             GGG             GGG                                               ",
"                           GGGGGGGGG                                                                     GGG                           GGG                                                                                             GGG                   GGG                                                  GGG                      GGG         GGGG                                                                                                                                                 GGGGGGGGGGGGG    GGGG                             GGG             GGG                                               ",
"                           GGGGGGGGGG                                                                    GGG                           GGG                                                                                             GGG                   GGG                                                  GGG                      GGG         GGGG                                                                                                                                                 GGGGGGGGGGGGG    GGGG                             GGG             GGG                                               ",
"                           GGG   GGGGG                                                                   GGG                           GGG                                                                                             GGG                   GGG                                                  GGG                      GGG         GGGG                                                                                                                                                      GGG         GGGG                             GGG             GGG                                               ",
"                           GGG    GGGG       GGGGG                      GGGG GGGG         GGGGG      GGGGGGGGGGGG                  GGGGGGGGGGGG      GGG  GGGG   GGGG     GGGG                     GGGGGGG      GGGG GGGG        GGGG  GGG                   GGG  GGGG         GGGGG       GGGG GGGG        GGGG  GGG                  GGGGGGGGGGGG    GGGG GGGG         GGGGG                         GGGGGG      GGG  GGGG         GGGGG          GGGGG       GGGG GGGG                                        GGG         GGGG GGGG        GGGGGGG     GGGGGGGGGGGG        GGG           GGGGGG                              ",
"                           GGG     GGGG    GGGGGGGGG                    GGGGGGGGGG      GGGGGGGGG    GGGGGGGGGGGG                  GGGGGGGGGGGG      GGG GGGGGG  GGGG     GGGG                   GGGGGGGGGG     GGGGGGGGGG      GGGGGG GGG                   GGGGGGGGGG      GGGGGGGGG     GGGGGGGGGG      GGGGGG GGG                  GGGGGGGGGGGG    GGGGGGGGGG      GGGGGGGGG                     GGGGGGGGG     GGGGGGGGGG      GGGGGGGGG      GGGGGGGGG     GGGGGGGGGG                                       GGG         GGGGGGGGGG     GGGGGGGGGG    GGGGGGGGGGGG        GGG         GGGGGGGGG                             ",
"                           GGG     GGGG   GGGGGGGGGGG                   GGGGGGGGGGG    GGGGGGGGGGG   GGGGGGGGGGGG                  GGGGGGGGGGGG      GGGGGGGGGG   GGG     GGG                    GGGGGGGGGGG    GGGGGGGGGGG    GGGGGGGGGGG                   GGGGGGGGGGG    GGGGGGGGGGG    GGGGGGGGGGG    GGGGGGGGGGG                  GGGGGGGGGGGG    GGGGGGGGGGG    GGGGGGGGGGG                   GGGGGGGGGG     GGGGGGGGGGG    GGGGGGGGGGG    GGGGGGGGGGG    GGGGGGGGGGG                                      GGG         GGGGGGGGGGG    GGGGGGGGGGG   GGGGGGGGGGGG        GGG        GGGGGGGGGG                             ",
"                           GGG     GGGG   GGGG   GGGG                   GGGGG  GGGG    GGGG   GGGG       GGG                           GGG           GGGGG    G   GGGG   GGGG                     G     GGGG    GGGGG  GGGG    GGGG  GGGGG                   GGGGG  GGGG    GGGG    GGGG   GGGGG  GGGG    GGGG  GGGGG                      GGG         GGGGG  GGGG    GGGG    GGGG                  GGGG     G     GGGGG  GGGG    GGGG   GGGG    GGGG   GGGG    GGGGG  GGGG                                      GGG         GGGGG  GGGG     G     GGGG       GGG                        GGGG     G                             ",
"                           GGG     GGGG   GGG     GGGG                  GGGG   GGGG    GGG     GGGG      GGG                           GGG           GGGG         GGGG   GGGG                            GGG    GGGG   GGGG   GGGG    GGGG                   GGGG    GGGG  GGGG     GGGG   GGGG   GGGG   GGGG    GGGG                      GGG         GGGG   GGGG   GGGG     GGGG                  GGGG           GGGG    GGGG   GGG     GGGG   GGG     GGGG   GGGG   GGGG                                      GGG         GGGG   GGGG            GGG       GGG                        GGGG                                   ",
"                           GGG     GGGG  GGGG     GGGG                  GGGG   GGGG   GGGG     GGGG      GGG                           GGG           GGG           GGG   GGG                       GGGGGGGGG    GGGG   GGGG   GGGG    GGGG                   GGGG    GGGG  GGGGGGGGGGGGG   GGGG   GGGG   GGGG    GGGG                      GGG         GGGG   GGGG   GGGGGGGGGGGGG                  GGGGGG         GGGG    GGGG  GGGG     GGGG  GGGG     GGGG   GGGG   GGGG                                      GGG         GGGG   GGGG      GGGGGGGGG       GGG                        GGGGGG                                 ",
"                           GGG     GGGG  GGGG     GGGG                  GGGG    GGG   GGGG     GGGG      GGG                           GGG           GGG           GGGG GGGG                     GGGGGGGGGGGG   GGGG    GGG   GGGG     GGG                   GGG     GGGG  GGGGGGGGGGGGG   GGGG    GGG   GGGG     GGG                      GGG         GGGG    GGG   GGGGGGGGGGGGG                   GGGGGGGG      GGG     GGGG  GGGG     GGGG  GGGG     GGGG   GGGG    GGG                                      GGG         GGGG    GGG    GGGGGGGGGGGG      GGG                         GGGGGGGG                              ",
"                           GGG     GGGG  GGGG     GGGG                  GGGG    GGG   GGGG     GGGG      GGG                           GGG           GGG            GGG GGGG                     GGGGGGGGGGGG   GGGG    GGG   GGGG     GGG                   GGG     GGGG  GGGGGGGGGGGGG   GGGG    GGG   GGGG     GGG                      GGG         GGGG    GGG   GGGGGGGGGGGGG                    GGGGGGGG     GGG     GGGG  GGGG     GGGG  GGGG     GGGG   GGGG    GGG                                      GGG         GGGG    GGG    GGGGGGGGGGGG      GGG                          GGGGGGGG                             ",
"                           GGG     GGGG  GGGG     GGGG                  GGGG    GGG   GGGG     GGGG      GGG                           GGG           GGG            GGGGGGG                     GGGGG    GGGG   GGGG    GGG   GGGG    GGGG                   GGGG    GGGG  GGGG            GGGG    GGG   GGGG    GGGG                      GGG         GGGG    GGG   GGGG                                 GGGGG    GGGG    GGGG  GGGG     GGGG  GGGG     GGGG   GGGG    GGG                                      GGG         GGGG    GGG   GGGGG    GGGG      GGG                              GGGGG                            ",
"                           GGG    GGGG    GGG     GGGG                  GGGG    GGG    GGG     GGGG      GGG                           GGG           GGG            GGGGGGG                     GGGG     GGGG   GGGG    GGG   GGGG    GGGG                   GGGG    GGGG  GGGG            GGGG    GGG   GGGG    GGGG                      GGG         GGGG    GGG   GGGG                                   GGG    GGGG    GGGG   GGG     GGGG   GGG     GGGG   GGGG    GGG                                      GGG         GGGG    GGG   GGGG     GGGG      GGG                                GGG                            ",
"                           GGG   GGGGG    GGGG   GGGG                   GGGG    GGG    GGGG   GGGG       GGGG                          GGGG          GGG             GGGGG                      GGGG    GGGGG   GGGG    GGG    GGGG  GGGGG                   GGGGG  GGGG    GGGG      G    GGGG    GGG    GGGG  GGGGG                      GGGG        GGGG    GGG    GGGG      G                   GG     GGGG    GGGGG  GGGG    GGGG   GGGG    GGGG   GGGG    GGGG    GGG       GGGGG                          GGG         GGGG    GGG   GGGG    GGGGG      GGGG                       GG     GGGG                            ",
"                           GGGGGGGGGG     GGGGGGGGGGG                   GGGG    GGG    GGGGGGGGGGG       GGGGGGGG                      GGGGGGGG      GGG             GGGGG                       GGGGGGGGGGGG   GGGG    GGG    GGGGGGGGGGG                   GGGGGGGGGGG    GGGGGGGGGGG    GGGG    GGG    GGGGGGGGGGG                      GGGGGGGG    GGGG    GGG    GGGGGGGGGGG                   GGGGGGGGGGG    GGGGGGGGGGG    GGGGGGGGGGG    GGGGGGGGGGG    GGGG    GGG       GGGGG                          GGG         GGGG    GGG    GGGGGGGGGGGG      GGGGGGGG                   GGGGGGGGGGG                            ",
"                           GGGGGGGGG       GGGGGGGGG                    GGGG    GGG     GGGGGGGGG         GGGGGGG                       GGGGGGG      GGG              GGGG                       GGGGGGG GGGG   GGGG    GGG     GGGGGG GGG                   GGGGGGGGGG      GGGGGGGGGG    GGGG    GGG     GGGGGG GGG                       GGGGGGG    GGGG    GGG     GGGGGGGGGG                   GGGGGGGGGG     GGGGGGGGGG      GGGGGGGGG      GGGGGGGGG     GGGG    GGG       GGGGG                          GGG         GGGG    GGG    GGGGGGG GGGG       GGGGGGG                   GGGGGGGGGG                             ",
"                           GGGGGGG           GGGGG                      GGGG    GGG       GGGGG            GGGGGG                        GGGGGG      GGG              GGG                          GGGG  GGGG   GGGG    GGG      GGGG  GGG                   GGG  GGGG         GGGGGGG     GGGG    GGG      GGGG  GGG                        GGGGGG    GGGG    GGG       GGGGGGG                      GGGGGGG      GGG  GGGG         GGGGG          GGGGG       GGGG    GGG       GGGGG                          GGG         GGGG    GGG      GGGG  GGGG        GGGGGG                     GGGGGGG                              ",
"                                                                                                                                                                      GGG                                                                                                                                                                                                                                          GGG                                                                                                                                                                                                          ",
"                                                                                                                                                                     GGG                                                                                                                                                                                                                                           GGG                                                                                                                                                                                                          ",
"                                                                                                                                                                  GGGGGG                                                                                                                                                                                                                                           GGG                                                                                                                                                                                                          ",
"                                                                                                                                                                  GGGGG                                                                                                                                                                                                                                            GGG                                                                                                                                                                                                          ",
"                                                                                                                                                                  GGGG                                                                                                                                                                                                                                             GGG                                                                                                                                                                                                          ",
"                                                                                                                                                                                                                                                                                                                                                                                                                                                                                                                                                                                                                                ",
"                                                                                                                                                                                                                                                                                                                                                                                                                                                                                                                                                                                                                                ",
"                                                                                                                                                                                                                                                                                                                                                                                                                                                                                                                                                                                                                                ",
"                                                                                                                                                                                                                                                                                                                                                                                                                                                                                                                                                                                                                                ",
"                                                                                                                                                                                                                                                                                                                                                                                                                                                                                                                                                                                                                                ",
"                                                                                                                                                                                                                                                                                                                                                                                                                                                                                                                                                                                                                                ",
"                                                                                                                                                                                                                                                                                                                                                                                                                                                                                                                                                                                                                                ",
"                                                                                                                                                                                                                                                                                                                                                                                                                                                                                                                                                                                                                                ",
"                                                                                                                                                                                                                                                                                                                                                                                                                                                                                                                                                                                                                                ",
"                GGGG                                                                                      GGGG                                                                                                                                                                                                                                                                                                                                                                                                                                                                GGGG                                              ",
"                GGGG                                                                                      GGGG       GGG           GGGGGGG                                                                                                                                                         GGG                                                GGGGGGG                                                                                                                                                                                             GGGGGGG             GGGG                                              ",
"                GGGG                                                                                      GGGG       GGG           GGGGGGG                                                       GGGGGGGGGGG                                     GGG                                               GGG                                                GGGGGGG                                          GGG                                                         GGG                                                                                    GGGGGGG             GGGG                                              ",
"                GGGG                                                                                      GGGG       GGG           GGGGGGG                                                       GGGGGGGGGGG                                     GGG                                               GGG                                                GGGGGGG                                          GGG                                                         GGG                                                                                    GGGGGGG             GGGG                                              ",
"                                                                                                                     GGG               GGG                                                       GGGGGGGGGGG                                     GGG                                               GGG                                                    GGG                                          GGG                                                         GGG                                                                                        GGG                                                               ",
"                                                                                                                     GGG               GGG                                                           GGG                                         GGG                                               GGG                                                    GGG                                          GGG                                                         GGG                                                                                        GGG                                                               ",
"             GGGGGGG      GGG GG  GGGG    GGG  GGGG         GGGGG          GGGGGG         GGGGGG       GGGGGGG       GGG  GGGG         GGG            GGGGG                                          GGG        GGGG GGGG         GGGGGG     GGGGGGGGGGGG       GGGGG         GGGGGGG        GGGG  GGG                      GGGGG       GGGG GGGG         GGG        GGGG     GGGG                 GGGGGGGGGGGG      GGG  GGGG   GGGG     GGGG                 GGGGGGGGGGGG       GGGGG                         GGG  GGGG       GGGGG         GGGGGGG         GGG          GGGGGGG       GGGGGGGGGGG       GGGGG                ",
"             GGGGGGG      GGGGGGGGGGGG    GGGGGGGGGG      GGGGGGGGG      GGGGGGGGG      GGGGGGGGG      GGGGGGG       GGGGGGGGGG        GGG          GGGGGGGGG                                        GGG        GGGGGGGGGG      GGGGGGGGG    GGGGGGGGGGGG     GGGGGGGGG     GGGGGGGGGG      GGGGGG GGG                    GGGGGGGGG     GGGGGGGGGG        GGG        GGGG     GGGG                 GGGGGGGGGGGG      GGG GGGGGG  GGGG     GGGG                 GGGGGGGGGGGG     GGGGGGGGG                       GGG GGGGGG    GGGGGGGGG     GGGGGGGGGG        GGG          GGGGGGG       GGGGGGGGGGG     GGGGGGGGG              ",
"             GGGGGGG      GGGGGGGGGGGGG   GGGGGGGGGGG    GGGGGGGGGGG    GGGGGGGGGG     GGGGGGGGGG      GGGGGGG       GGGGGGGGGGG       GGG         GGGGGGGGGGG                                       GGG        GGGGGGGGGGG    GGGGGGGGGG    GGGGGGGGGGGG    GGGGGGGGGGG    GGGGGGGGGGG    GGGGGGGGGGG                   GGGGGGGGGGG    GGGGGGGGGGG       GGG         GGG     GGG                  GGGGGGGGGGGG      GGGGGGGGGG   GGG     GGG                  GGGGGGGGGGGG    GGGGGGGGGGG                      GGGGGGGGGG   GGGGGGGGGGG    GGGGGGGGGGG       GGG          GGGGGGG       GGGGGGGGGGG    GGGGGGGGGGG             ",
"                GGGG      GGG  GGG  GGG   GGGGG  GGGG    GGGG   GGGG    GGGG     G     GGGG     G         GGGG       GGGGG  GGGG       GGG         GGGG    GGGG                                      GGG        GGGGG  GGGG    GGGG     G        GGG         GGGG    GGGG    G     GGGG    GGGG  GGGGG                   GGGG   GGGG    GGGGG  GGGG       GGG         GGGG   GGGG                      GGG           GGGGG    G   GGGG   GGGG                      GGG         GGGG   GGGG                      GGGGG    G   GGGG    GGGG    G     GGGG       GGG             GGGG              GGGG    GGGG    GGGG            ",
"                GGGG      GGG  GGG  GGG   GGGG    GGGG   GGG     GGGG   GGGG           GGGG               GGGG       GGGG    GGGG      GGG        GGGG     GGGG                                      GGG        GGGG   GGGG    GGGG              GGG        GGGG     GGGG           GGG   GGGG    GGGG                   GGG     GGGG   GGGG   GGGG       GGG         GGGG   GGGG                      GGG           GGGG         GGGG   GGGG                      GGG         GGG     GGGG                     GGGG        GGGG     GGGG           GGG       GGG             GGGG             GGGG    GGGG     GGGG            ",
"                GGGG      GGG  GGG  GGG   GGGG    GGGG  GGGG     GGGG   GGGGGG         GGGGGG             GGGG       GGGG    GGGG      GGG        GGGGGGGGGGGGG                                      GGG        GGGG   GGGG    GGGGGG            GGG        GGGGGGGGGGGGG     GGGGGGGGG   GGGG    GGGG                  GGGG     GGGG   GGGG   GGGG       GGG          GGG   GGG                       GGG           GGG           GGG   GGG                       GGG        GGGG     GGGG                     GGG         GGGGGGGGGGGGG     GGGGGGGGG       GGG             GGGG            GGGG     GGGGGGGGGGGGG            ",
"                GGGG      GGG  GGG  GGG   GGG     GGGG  GGGG     GGGG    GGGGGGGG       GGGGGGGG          GGGG       GGG     GGGG      GGG        GGGGGGGGGGGGG                                      GGG        GGGG    GGG     GGGGGGGG         GGG        GGGGGGGGGGGGG   GGGGGGGGGGGG  GGGG     GGG                  GGGG     GGGG   GGGG    GGG       GGG          GGGG GGGG                       GGG           GGG           GGGG GGGG                       GGG        GGGG     GGGG                     GGG         GGGGGGGGGGGGG   GGGGGGGGGGGG      GGG             GGGG           GGGG      GGGGGGGGGGGGG            ",
"                GGGG      GGG  GGG  GGG   GGG     GGGG  GGGG     GGGG     GGGGGGGG       GGGGGGGG         GGGG       GGG     GGGG      GGG        GGGGGGGGGGGGG                                      GGG        GGGG    GGG      GGGGGGGG        GGG        GGGGGGGGGGGGG   GGGGGGGGGGGG  GGGG     GGG                  GGGG     GGGG   GGGG    GGG       GGG           GGG GGGG                       GGG           GGG            GGG GGGG                       GGG        GGGG     GGGG                     GGG         GGGGGGGGGGGGG   GGGGGGGGGGGG      GGG             GGGG          GGGG       GGGGGGGGGGGGG            ",
"                GGGG      GGG  GGG  GGG   GGGG    GGGG  GGGG     GGGG         GGGGG          GGGGG        GGGG       GGGG    GGGG      GGG        GGGG                                               GGG        GGGG    GGG          GGGGG       GGG        GGGG           GGGGG    GGGG  GGGG    GGGG                  GGGG     GGGG   GGGG    GGG       GGG           GGGGGGG                        GGG           GGG            GGGGGGG                        GGG        GGGG     GGGG                     GGG         GGGG           GGGGG    GGGG      GGG             GGGG         GGGG        GGGG                     ",
"                GGGG      GGG  GGG  GGG   GGGG    GGGG   GGG     GGGG           GGG            GGG        GGGG       GGGG    GGGG      GGG        GGGG                                               GGG        GGGG    GGG            GGG       GGG        GGGG           GGGG     GGGG  GGGG    GGGG                   GGG     GGGG   GGGG    GGG       GGG           GGGGGGG                        GGG           GGG            GGGGGGG                        GGG         GGG     GGGG                     GGG         GGGG           GGGG     GGGG      GGG             GGGG        GGGG         GGGG                     ",
"                GGGG      GGG  GGG  GGG   GGGGG  GGGG    GGGG   GGGG    GG     GGGG    GG     GGGG        GGGG       GGGGG  GGGG       GGGG        GGGG      G       GGGGG                           GGG        GGGG    GGG    GG     GGGG       GGGG        GGGG      G   GGGG    GGGGG   GGGG  GGGGG                   GGGG   GGGG    GGGG    GGG       GGGG           GGGGG                         GGGG          GGG             GGGGG                         GGGG        GGGG   GGGG                      GGG          GGGG      G   GGGG    GGGGG      GGGG            GGGG        GGG           GGGG      G             ",
"            GGGGGGGGGGGG  GGG  GGG  GGG   GGGGGGGGGGG    GGGGGGGGGGG    GGGGGGGGGGG    GGGGGGGGGGG    GGGGGGGGGGGG   GGGGGGGGGGG       GGGGGGGG    GGGGGGGGGGG       GGGGG                       GGGGGGGGGGG    GGGG    GGG    GGGGGGGGGGG       GGGGGGGG    GGGGGGGGGGG    GGGGGGGGGGGG   GGGGGGGGGGG                   GGGGGGGGGGG    GGGG    GGG       GGGGGGGG       GGGGG                         GGGGGGGG      GGG             GGGGG                         GGGGGGGG    GGGGGGGGGGG                      GGG          GGGGGGGGGGG    GGGGGGGGGGGG      GGGGGGGG    GGGGGGGGGGGG   GGGGGGGGGGG    GGGGGGGGGGG             ",
"            GGGGGGGGGGGG  GGG  GGG  GGG   GGGGGGGGGG      GGGGGGGGG     GGGGGGGGGG     GGGGGGGGGG     GGGGGGGGGGGG   GGGGGGGGGG         GGGGGGG     GGGGGGGGGG       GGGGG                       GGGGGGGGGGG    GGGG    GGG    GGGGGGGGGG         GGGGGGG     GGGGGGGGGG    GGGGGGG GGGG    GGGGGG GGG                    GGGGGGGGG     GGGG    GGG        GGGGGGG        GGGG                          GGGGGGG      GGG              GGGG                          GGGGGGG     GGGGGGGGG                       GGG           GGGGGGGGGG    GGGGGGG GGGG       GGGGGGG    GGGGGGGGGGGG   GGGGGGGGGGG     GGGGGGGGGG             ",
"            GGGGGGGGGGGG  GGG  GGG  GGG   GGG  GGGG         GGGGG         GGGGGGG        GGGGGGG      GGGGGGGGGGGG   GGG  GGGG           GGGGGG       GGGGGGG        GGGGG                       GGGGGGGGGGG    GGGG    GGG      GGGGGGG           GGGGGG       GGGGGGG       GGGG  GGGG     GGGG  GGG                      GGGGG       GGGG    GGG         GGGGGG        GGG                            GGGGGG      GGG              GGG                            GGGGGG       GGGGG                         GGG             GGGGGGG       GGGG  GGGG        GGGGGG    GGGGGGGGGGGG   GGGGGGGGGGG       GGGGGGG              ",
"                                          GGG                                                                                                                                                                                                                                                                                                                             GGG                                                         GGG                                                                                                                                                                                       ",
"                                          GGG                                                                                                                                                                                                                                                                                                                            GGG                                                         GGG                                                                                                                                                                                        ",
"                                          GGG                                                                                                                                                                                                                                                                                                                         GGGGGG                                                      GGGGGG                                                                                                                                                                                        ",
"                                          GGG                                                                                                                                                                                                                                                                                                                         GGGGG                                                       GGGGG                                                                                                                                                                                         ",
"                                          GGG                                                                                                                                                                                                                                                                                                                         GGGG                                                        GGGG                                                                                                                                                                                          ",
"                                                                                                                                                                                                                                                                                                                                                                                                                                                                                                                                                                                                                                ",
"                                                                                                                                                                                                                                                                                                                                                                                                                                                                                                                                                                                                                                ",
"                                                                                                                                                                                                                                                                                                                                                                                                                                                                                                                                                                                                                                ",
"                                                                                                                                                                                                                                                                                                                                                                                                                                                                                                                                                                                                                                ",
"                                                                                                                                                                                                                                                                                                                                                                                                                                                                                                                                                                                                                                ",
"                                                                                                                                                                                                                                                                                                                                                                                                                                                                                                                                                                                                                                ",
"                                                                                                                                                                                                                                                                                                                                                                                                                                                                                                                                                                                                                                ",
"                                                                                                                                                                                                                                                                                                                                                                                                                                                                                                                                                                                                                                ",
"                                                                                                                                                                                                                                                                                                                                                                                                                                                                                                                                                                                                                                ",
"                                                                                                                                                                                                                                                                                                                                                                                                                                                                                                                                                                                                                                ",
"                                                                                       GGGG                                                                                                     GGGG                                                                                       GGGG                                                                                                                                                                                                                                                                                                                                 ",
"                                                                           GGG         GGGG                                            GGG                                          GGG         GGGG                                                                       GGGGGGGGGGGGG   GGGG                                                            GGG                                                                                                                                                                                 GGG                                                                              ",
"                                                                           GGG         GGGG                                            GGG                                          GGG         GGGG                                                                       GGGGGGGGGGGGG   GGGG                                                            GGG                                                                                                                                                                                 GGG                                                                              ",
"                                                                           GGG         GGGG                                            GGG                                          GGG         GGGG                                                                       GGGGGGGGGGGGG   GGGG                                                            GGG                                                                                                                                                                                 GGG                                                                              ",
"                                                                           GGG         GGGG                                            GGG                                          GGG         GGGG                                                                            GGG        GGGG                                                            GGG                                                                                                                                                                                 GGG                                                                              ",
"                                                                       GGGGGGGGGGGG    GGGG GGGG         GGGGG                     GGGGGGGGGGGG      GGG  GGGG    GGGG   GGGG   GGGGGGGGGGGG    GGGG GGGG                                                                       GGG        GGGG GGGG         GGGGG         GGG  GGGG       GGGGG           GGG           GGGGGG                     GGGG GGGG         GGGGG                         GGGGGG      GGG  GGGG         GGGGG          GGGGG       GGGG GGGG                         GGG                                                                              ",
"                                                                       GGGGGGGGGGGG    GGGGGGGGGG      GGGGGGGGG                   GGGGGGGGGGGG      GGG GGGGGG   GGGG   GGGG   GGGGGGGGGGGG    GGGGGGGGGG                                                                      GGG        GGGGGGGGGG      GGGGGGGGG       GGG GGGGGG    GGGGGGGGG         GGG         GGGGGGGGG                    GGGGGGGGGG      GGGGGGGGG                     GGGGGGGGG     GGGGGGGGGG      GGGGGGGGG      GGGGGGGGG     GGGGGGGGGG                        GGG                                                                              ",
"                                                                       GGGGGGGGGGGG    GGGGGGGGGGG    GGGGGGGGGGG                  GGGGGGGGGGGG      GGGGGGGGGG   GGGG   GGGG   GGGGGGGGGGGG    GGGGGGGGGGG                                                                     GGG        GGGGGGGGGGG    GGGGGGGGGGG      GGGGGGGGGG   GGGGGGGGGGG        GGG        GGGGGGGGGG                    GGGGGGGGGGG    GGGGGGGGGGG                   GGGGGGGGGG     GGGGGGGGGGG    GGGGGGGGGGG    GGGGGGGGGGG    GGGGGGGGGGG                       GGG                                                                              ",
"                                                                           GGG         GGGGG  GGGG    GGGG    GGGG                     GGG           GGGGG    G   GGGG   GGGG       GGG         GGGGG  GGGG                                                                     GGG        GGGGG  GGGG    GGGG    GGGG     GGGGG    G   GGGG    GGGG                  GGGG     G                    GGGGG  GGGG    GGGG   GGGG                   GGGG     G     GGGGG  GGGG    GGGG   GGGG    GGGG   GGGG    GGGGG  GGGG                       GGG                                                                              ",
"                                                                           GGG         GGGG   GGGG   GGGG     GGGG                     GGG           GGGG         GGGG   GGGG       GGG         GGGG   GGGG                                                                     GGG        GGGG   GGGG   GGGG     GGGG     GGGG        GGGG     GGGG                  GGGG                          GGGG   GGGG    GGG     GGGG                  GGGG           GGGG    GGGG   GGG     GGGG   GGG     GGGG   GGGG   GGGG                       GGG                                                                              ",
"                                                                           GGG         GGGG   GGGG   GGGGGGGGGGGGG                     GGG           GGG          GGGG   GGGG       GGG         GGGG   GGGG                                                                     GGG        GGGG   GGGG   GGGGGGGGGGGGG     GGG         GGGGGGGGGGGGG                  GGGGGG                        GGGG   GGGG   GGGG     GGGG                  GGGGGG         GGGG    GGGG  GGGG     GGGG  GGGG     GGGG   GGGG   GGGG                       GGG                                                                              ",
"                                                                           GGG         GGGG    GGG   GGGGGGGGGGGGG                     GGG           GGG          GGGG   GGGG       GGG         GGGG    GGG                                                                     GGG        GGGG    GGG   GGGGGGGGGGGGG     GGG         GGGGGGGGGGGGG                   GGGGGGGG                     GGGG    GGG   GGGG     GGGG                   GGGGGGGG      GGG     GGGG  GGGG     GGGG  GGGG     GGGG   GGGG    GGG                       GGG                                                                              ",
"                                                                           GGG         GGGG    GGG   GGGGGGGGGGGGG                     GGG           GGG          GGGG   GGGG       GGG         GGGG    GGG                                                                     GGG        GGGG    GGG   GGGGGGGGGGGGG     GGG         GGGGGGGGGGGGG                    GGGGGGGG                    GGGG    GGG   GGGG     GGGG                    GGGGGGGG     GGG     GGGG  GGGG     GGGG  GGGG     GGGG   GGGG    GGG                       GGG                                                                              ",
"                                                                           GGG         GGGG    GGG   GGGG                              GGG           GGG          GGGG   GGGG       GGG         GGGG    GGG                                                                     GGG        GGGG    GGG   GGGG              GGG         GGGG                                 GGGGG                   GGGG    GGG   GGGG     GGGG                        GGGGG    GGGG    GGGG  GGGG     GGGG  GGGG     GGGG   GGGG    GGG                       GGG                                                                              ",
"                                                                           GGG         GGGG    GGG   GGGG                              GGG           GGG          GGGG   GGGG       GGG         GGGG    GGG                                                                     GGG        GGGG    GGG   GGGG              GGG         GGGG                                   GGG                   GGGG    GGG    GGG     GGGG                          GGG    GGGG    GGGG   GGG     GGGG   GGG     GGGG   GGGG    GGG                                                                                                        ",
"                                                                           GGGG        GGGG    GGG    GGGG      G                      GGGG          GGG          GGGG  GGGGG       GGGG        GGGG    GGG       GGGGG          GGGGG           GGGGG                          GGG        GGGG    GGG    GGGG      G      GGG          GGGG      G                   GG     GGGG                   GGGG    GGG    GGGG   GGGG                   GG     GGGG    GGGGG  GGGG    GGGG   GGGG    GGGG   GGGG    GGGG    GGG                                                                                                        ",
"                                                                           GGGGGGGG    GGGG    GGG    GGGGGGGGGGG                      GGGGGGGG      GGG          GGGGGGGGGGG       GGGGGGGG    GGGG    GGG       GGGGG          GGGGG           GGGGG                          GGG        GGGG    GGG    GGGGGGGGGGG      GGG          GGGGGGGGGGG                   GGGGGGGGGGG                   GGGG    GGG    GGGGGGGGGGG                   GGGGGGGGGGG    GGGGGGGGGGG    GGGGGGGGGGG    GGGGGGGGGGG    GGGG    GGG                       GGG                                                                              ",
"                                                                            GGGGGGG    GGGG    GGG     GGGGGGGGGG                       GGGGGGG      GGG           GGGGGGGGGG        GGGGGGG    GGGG    GGG       GGGGG          GGGGG           GGGGG                          GGG        GGGG    GGG     GGGGGGGGGG      GGG           GGGGGGGGGG                   GGGGGGGGGG                    GGGG    GGG     GGGGGGGGG                    GGGGGGGGGG     GGGGGGGGGG      GGGGGGGGG      GGGGGGGGG     GGGG    GGG                       GGG                                                                              ",
"                                                                             GGGGGG    GGGG    GGG       GGGGGGG                         GGGGGG      GGG            GGGG GGGG         GGGGGG    GGGG    GGG       GGGGG          GGGGG           GGGGG                          GGG        GGGG    GGG       GGGGGGG       GGG             GGGGGGG                      GGGGGGG                     GGGG    GGG       GGGGG                        GGGGGGG      GGG  GGGG         GGGGG          GGGGG       GGGG    GGG                       GGG                                                                              ",
"                                                                                                                                                                                                                                                                                                                                                                                                                                                                GGG                                                                                                                                                             ",
"                                                                                                                                                                                                                                                                                                                                                                                                                                                                GGG                                                                                                                                                             ",
"                                                                                                                                                                                                                                                                                                                                                                                                                                                                GGG                                                                                                                                                             ",
"                                                                                                                                                                                                                                                                                                                                                                                                                                                                GGG                                                                                                                                                             ",
"                                                                                                                                                                                                                                                                                                                                                                                                                                                                GGG                                                                                                                                                             ",
"                                                                                                                                                                                                                                                                                                                                                                                                                                                                                                                                                                                                                                ",
"                                                                                                                                                                                                                                                                                                                                                                                                                                                                                                                                                                                                                                ",
"                                                                                                                                                                                                                                                                                                                                                                                                                                                                                                                                                                                                                                ",
"                                                                                                                                                                                                                                                                                                                                                                                                                                                                                                                                                                                                                                ",
"                                                                                                                                                                                                                                                                                                                                                                                                                                                                                                                                                                                                                                ",
"                                                                                                                                                                                                                                                                                                                                                                                                                                                                                                                                                                                                                                ",
"                                                                                                                                                                                                                                                                                                                                                                                                                                                                                                                                                                                                                                ",
"                                                                                                                                                                                                                                                                                                                                                                                                                                                                                                                                                                                                                                ",
"                                                                                                                                                                                                                                                                                                                                                                                                                                                                                                                                                                                                                                ",
"                                                                                                                                                                                                                                                                                                                                                                                                                                                                                                                                                                                                                                ",
"                                                                                                                                                                                                                                                                                                                                                                                                                                                                                                                                                                                                                                ",
"                                                                                                                                                                                                                                                                                                                                                                                                                                                                                                                                                                                                                                ",
"                                                                                                                                                                                                                                                                                                                                                                                                                                                                                                                                                                                                                                ",
"                                                                                                                                                                                                                                                                                                                                                                                                                                                                                                                                                                                                                                "
};
