/* XPM */
static char *tuto_08[] = {
"608 120 4 1",
"  c #000000",
"G c #70DD99",
"B c #3399FF",
"R c #FF0000",
"                                                                                                                                                                                                                                                                                                                                                                                                                                                                                                                                                                                                                                ",
"                                                                                                                                                                                                                                                                                                                                                                                                                                                                                                                                                                                                                                ",
"                                                                                                                                                                                                                                                                                                                                                                                                                                                                                                                                                                                                                                ",
"                                                                                                                                                                                                                                                                                                                                                                                                                                                                                                                                                                                                                                ",
"                                                                                                                                                                                                                                                                                                                                                                                                                                                                                                                                                                                                                                ",
"                                                                                                                                                                                                                                                                                                                                                                                                                                                                                                                                                                                                                                ",
"                                                                                                                                                                                                                                                                                                                                                                                                                                                                                                                                                                                                                                ",
"                                                                                                                                                                                                                                                                                                                                                                                                                                                                                                                                                                                                                                ",
"                                                                                                                                                                                                                                                                                                                                                                                                                                                                                                                                                                                                                                ",
"                                                                                                                                                                                                                                                                                                                                                                                                                                                                                                                                                                                                                                ",
"                                                                                                                                                                                                                                                                                                                                                                                                                                                                                                                                                                                                                                ",
"                                                                                                                                                                                                                                                                                                                                                                                                                                                                                                                                                                                                                                ",
"                                                                                                                                                                                                                                                                                                                                                                                                                                                                                                                                                                                                                                ",
"                                                                                                                                                                                                                                                                                                                                                                                                                                                                                                                                                                                                                                ",
"                                                                                                                                                                                                                                                                                                                                                                                                                                                                                                                                                                                                                                ",
"                                                                                                                                                                                                                                                                                                                                                                                                                                                                                                                                                                                                                                ",
"                                                                                                                                                                                                                                                                                                                                                                                                                                                                                                                                                                                                                                ",
"                                                                                                                                                                                                                                                                                                                                                                                                                                                                                                                                                                                                                                ",
"                                                                                                                                                                                                                                                                                                                                                                                                                                                                                                                                                                                                                                ",
"                                                                                                                                                                                                                                                                                                                                                                                                                                                                                                                                                                                                                                ",
"                                                                                                                                                                                                                                                                                                                                                                                                                                                                                                                                                                                                                                ",
"                                                                                                                                                                                                                                                                                                                                                                                                                                                                                                                                                                                                                                ",
"                                                                                                                                                                                                                                                                                                                                                                                                                                                                                                                                                                                                                                ",
"                                                                                                                                                                                                                                                                                                                                                                                                                                                                                                                                                                                                                                ",
"                                                                                                                                                                                                                                                                                                                                                                                                                                                                                                                                                                                                                                ",
"                                                                                                                                                                                                                                                                                                                                                                                                                                                                                                                                                                                                                                ",
"                                                                                                                                                                                                                                                                                                                                                                                                                                                                                                                                                                                                                                ",
"                                                                                                                                                                                                                                                                                                                                                                                                                                                                                                                                                                                                                                ",
"                                                                                                                                                                                                                                                                                                                                                                                                                                                                                                                                                                                                                                ",
"                                                                                                                                                                                                                                                                                                                                                                                                                                                                                                                                                                                                                                ",
"                                                                                                                                                                                                                                                                                                                                                                                                                                                                                                                                                                                                                                ",
"                                                                                                                                                                                                                                                                                                                                                                                                                                                                                                                                                                                                                                ",
"                                                                                                                                                                                                                                                                                                                                                                                                                                                                                                                                                                                                                                ",
"                                                                                                                                                                                                                                                                                                                                                                                                                                                                                                                                                                                                                                ",
"                                                                                                                                                                                                                                                                                                                                                                                                                                                                                                                                                                                                                                ",
"                                                                                                                                                                                                                                                                                                                                                                                                                                                                                                                                                                                                                                ",
"                                                                                                                                                                                                                                                                                                                                                                                                                                                                                                                                                                                                                                ",
"                                                                                                                                                                                                                                                                                                                                                                                                                                                                                                                                                                                                                                ",
"                                                                                                                                                                                                                                                                                                                                                                                                                                                                                                                                                                                                                                ",
"                                                                                                                                                                                                                                                                                                                                                                                                                                                                                                                                                                                                                                ",
"                                                                                                                                                                                                                                                                                                                                                                                                                                                                                                                                                                                                                                ",
"                                                                                                                                                                                                                                                                                                                                                                                                                                                                                                                                                                                                                                ",
"                                                                                                                                                                                                                                                                                                                                                                                                                                                                                                                                                                                                                                ",
"                                                                                                                                                                                                                                                                                                                                                                                                                                                                                                                                                                                                                                ",
"                                                                                                                                                                                                                                                                                                                                                                                                                                                                                                                                                                                                                                ",
"                                                                                                                                                                                                                                                                                                                                                                                                                                                                                                                                                                                                                                ",
"                                                                                                                  GGGG                                                                                                                                                                        GGGG                                                                                                                         GGGG                                                                                                                                                                                                 ",
"                                                                                                                  GGGG                                       GGGG                                                          GGGG                                                               GGGG                                                                                                     GGGG                GGGG                                                                                                                                                                                                 ",
"                                                                                              GGGGGGGGG           GGGG                                       GGGG                                                          GGGG                                                               GGGG                                                                                                     GGGG                GGGG                                                                                                                                                                                                 ",
"                                                                                              GGGGGGGGGGG         GGGG                                       GGGG                                              GGGG        GGGG                                                               GGGG                                                                         GGGG                        GGGG                GGGG                                                                                                                                                                                                 ",
"                                                                                              GGGGGGGGGGGG                                                   GGGG                                              GGGG        GGGG                                                                                                                                            GGGG                        GGGG                                                                                                                                                                                                                     ",
"                                                                                              GGG     GGGG                                                   GGGG                                              GGGG        GGGG                                                                                                                                            GGGG                        GGGG                                                                                                                                                                                                                     ",
"                                                                                              GGG     GGGG                                                   GGGG                                              GGGG        GGGG                                                                                                                                            GGGG                        GGGG                                                                                                                                                                                                                     ",
"                                                                                              GGG     GGGG     GGGGGGG         GGGGG GGGG                    GGGG GGGGG       GGG  GGGGG       GGGGGG      GGGGGGGGGGGGG   GGGG  GGGG         GGGGGG         GGG  GGGGG                    GGGGGGG           GGGGGG                    GGG         GGGG    GGGGGGG     GGGGGGGGGGGGG        GGGGGG     GGGG  GGGG       GGGGGGG        GGGG  GGGG       GGGGG GGGG                   GGGG      GGGG     GGGGGG       GGGG    GGG                                                                                                ",
"                                                                                              GGG     GGGG     GGGGGGG        GGGGGGGGGGG                    GGGGGGGGGGG      GGG GGGGGGG    GGGGGGGGG     GGGGGGGGGGGGG   GGGGGGGGGGG      GGGGGGGGG        GGG GGGGGGG                   GGGGGGG         GGGGGGGGGG                  GGG         GGG    GGGGGGGGGG   GGGGGGGGGGGGG      GGGGGGGGG    GGGGGGGGGGG      GGGGGGG        GGGGGGGGGGG     GGGGGGGGGGG                   GGGG     GGGG    GGGGGGGGG      GGGG    GGG                                                                                                ",
"                                                                                              GGGGGGGGGGG      GGGGGGG       GGGGGGGGGGGG                    GGGGGGGGGGGG     GGGGGGGGGGG    GGGGGGGGGG    GGGGGGGGGGGGG   GGGGGGGGGGG      GGGGGGGGGG       GGGGGGGGGGG                   GGGGGGG         GGGGGGGGGG                  GGG         GGG    GGGGGGGGGG   GGGGGGGGGGGGG     GGGGGGGGGG    GGGGGGGGGGG      GGGGGGG        GGGGGGGGGGG    GGGGGGGGGGGG                    GGGG    GGGG    GGGGGGGGGG     GGGG    GGG                                                                                                ",
"                                                                                              GGGGGGGGG           GGGG       GGGG   GGGGG                    GGGGG   GGGG     GGGGG    GG   GGGG   GGGGG       GGGG        GGGGG  GGGG     GGGG    GGGG      GGGGG    GG                      GGGG        GGGG     GG                   GGG        GGG    G      GGGG      GGGG          GGGGG    G    GGGGG  GGGG         GGGG        GGGGG  GGGG    GGGG   GGGGG                    GGGG    GGGG   GGGG   GGGGG    GGGG    GGG                                                                                                ",
"                                                                                              GGGGGGGGGGG         GGGG       GGGG    GGGG                    GGGG    GGGG     GGGG          GGGG    GGGG       GGGG        GGGG    GGGG    GGG     GGGG      GGGG                             GGGG        GGGG                          GGG  GGG   GGG           GGGG      GGGG         GGGGG          GGGG    GGGG        GGGG        GGGG    GGGG   GGGG    GGGG                     GGG   GGGG    GGGG    GGGG    GGGG    GGG                                                                                                ",
"                                                                                              GGG     GGGG        GGGG      GGGG     GGGG                    GGGG     GGG     GGGG         GGGG     GGGG       GGGG        GGGG    GGGG   GGGG      GGG      GGGG                             GGGG        GGGGGG                        GGG  GGGG  GGG     GGGGGGGGGG      GGGG         GGGG           GGGG    GGGG        GGGG        GGGG    GGGG  GGGG     GGGG                     GGGG  GGGG   GGGG     GGGG    GGGG    GGG                                                                                                ",
"                                                                                              GGG      GGG        GGGG      GGGG     GGGG                    GGGG     GGG     GGG          GGGG      GGG       GGGG        GGGG    GGGG   GGGGGGGGGGGGGG     GGG                              GGGG         GGGGGGGGG                    GGG  GGGG  GG    GGGGGGGGGGGG      GGGG         GGGG           GGGG    GGGG        GGGG        GGGG    GGGG  GGGG     GGGG                     GGGG  GGG    GGGG      GGG    GGGG    GGG                                                                                                ",
"                                                                                              GGG      GGGG       GGGG      GGGG     GGGG                    GGGG     GGG     GGG          GGGG      GGG       GGGG        GGGG    GGGG   GGGGGGGGGGGGGG     GGG                              GGGG           GGGGGGGG                   GGG  GGGG GGG    GGGGGGGGGGGG      GGGG         GGGG           GGGG    GGGG        GGGG        GGGG    GGGG  GGGG     GGGG                      GGG GGGG    GGGG      GGG    GGGG    GGG                                                                                                ",
"                                                                                              GGG      GGGG       GGGG      GGGG     GGGG                    GGGG     GGG     GGG          GGGG     GGGG       GGGG        GGGG    GGGG   GGGGGGGGGGGGGG     GGG                              GGGG              GGGGG                    GG GG GG GGG   GGGGG    GGGG      GGGG         GGGG           GGGG    GGGG        GGGG        GGGG    GGGG  GGGG     GGGG                      GGGGGGGG    GGGG     GGGG    GGGG    GGG                                                                                                ",
"                                                                                              GGG      GGGG       GGGG       GGGG    GGGG                    GGGG    GGGG     GGG           GGGG    GGGG       GGGG        GGGG    GGGG    GGG               GGG                              GGGG                GGG                    GGGGG GGGGGG   GGGG     GGGG      GGGG         GGGGG          GGGG    GGGG        GGGG        GGGG    GGGG   GGGG    GGGG                       GGGGGG      GGGG    GGGG    GGGG   GGGG                                                                                                ",
"                                                                                              GGG     GGGG        GGGG       GGGG   GGGGG                    GGGGG   GGGG     GGG           GGGG   GGGGG       GGGG        GGGG    GGGG    GGGG      GG      GGG                              GGGG        GG      GGG                    GGGGG  GGGGG   GGGGG   GGGGG      GGGG          GGGGG    G    GGGG    GGGG        GGGG        GGGG    GGGG   GGGG   GGGGG                       GGGGGG      GGGG   GGGGG    GGGG   GGGG                                                                                                ",
"                                                                                              GGGGGGGGGGGG    GGGGGGGGGGGGG  GGGGGGGGGGGG                    GGGGGGGGGGGG     GGG            GGGGGGGGGG        GGGGGGGGG   GGGG    GGGG    GGGGGGGGGGGG      GGG                          GGGGGGGGGGGGG   GGGGGGGGGGG                    GGGGG  GGGGG    GGGGGGGGGGGG      GGGGGGGGG     GGGGGGGGGG    GGGG    GGGG    GGGGGGGGGGGGG   GGGG    GGGG   GGGGGGGGGGGG                       GGGGG        GGGGGGGGGG     GGGGGGGGGGG                                                                                                ",
"                                                                                              GGGGGGGGGGG     GGGGGGGGGGGGG   GGGGGGGGGGG                    GGGGGGGGGGG      GGG            GGGGGGGGG          GGGGGGGG   GGGG    GGGG     GGGGGGGGGGG      GGG                          GGGGGGGGGGGGG   GGGGGGGGGGG                    GGGG   GGGG     GGGGGGGGGGGG       GGGGGGGG      GGGGGGGGG    GGGG    GGGG    GGGGGGGGGGGGG   GGGG    GGGG    GGGGGGGGGGG                        GGGG        GGGGGGGGG       GGGGGGGGGG                                                                                                ",
"                                                                                              GGGGGGGGG       GGGGGGGGGGGGG    GGGGG GGGG                    GGGG GGGGG       GGG              GGGGGG            GGGGGGG   GGGG    GGGG       GGGGGGG        GGG                          GGGGGGGGGGGGG     GGGGGGG                      GGGG   GGGG       GGGG  GGGG        GGGGGGG        GGGGGG     GGGG    GGGG    GGGGGGGGGGGGG   GGGG    GGGG     GGGGG GGGG                        GGGG          GGGGGG         GGGG  GGG                                                                                                ",
"                                                                                                                                     GGGG                                                                                                                                                                                                                                                                                                                     GGGG                        GGG                                                                                                                                   ",
"                                                                                                                              G     GGGGG                                                                                                                                                                                                                                                                                                              G     GGGGG                       GGGG                                                                                                                                   ",
"                                                                                                                              GGGGGGGGGG                                                                                                                                                                                                                                                                                                               GGGGGGGGGG                     GGGGGG                                                                                                                                    ",
"                                                                                                                              GGGGGGGGG                                                                                                                                                                                                                                                                                                                GGGGGGGGG                      GGGGGG                                                                                                                                    ",
"                                                                                                                               GGGGGGG                                                                                                                                                                                                                                                                                                                  GGGGGGG                       GGGG                                                                                                                                      ",
"                                                                                                                                                                                                                                                                                                                                                                                                                                                                                                                                                                                                                                ",
"                                                                                                                                                                                                                                                                                                                                                                                                                                                                                                                                                                                                                                ",
"                                                                                                                                                                                                                                                                                                                                                                                                                                                                                                                                                                                                                                ",
"                                                                                                                                                                                                                                                                                                                                                                                                                                                                                                                                                                                                                                ",
"                                                                                                                                                                                                                                                                                                                                                                                                                                                                                                                                                                                                                                ",
"                                                                                                                                                                                                                                                                                                                                                                                                                                                                                                                                                                                                                                ",
"                                                                                                                                                                                                                                                                                                                                                                                                                                                                                                                                                                                                                                ",
"                                                                                                                                                                                                                                                                                                                                                                                                                                                                                                                                                                                                                                ",
"                                                                                                                                                                                                                                                                                                                                                                                                                                                                                                                                                                                                                                ",
"                                                                                                                                                                                                                                                                                                                                                                                                                                                                                                                                                                                                                                ",
"                                                                                                                                                                                                                                                                                                                                                                                                                                                                                                                                                                                                                                ",
"                                                                                                                                                                                                                                                                                                                                                                                                                                                                                                                                                                                                                                ",
"                                                                                                                                                                                                                                                                                                                                                                                                                                                                                                                                                                                                                                ",
"                                                                                                                                                                                                                                                                                                                                                                                                                                                                                                                                                                                                                                ",
"                                                                                                                                                                                                                                                                                                                                                                                                                                                                                                                                                                                                                                ",
"                                                                                                                                                                                                                                                                                                                                                                                                                                                                                                                                                                                                                                ",
"                                                                                                                                                                                                                                                                                                                                                                                                                                                                                                                                                                                                                                ",
"                                                                                                                                                                                                                                                                                                                                                                                                                                                                                                                                                                                                                                ",
"                                                                                                                                                                                                                                                                                                                                                                                                                                                                                                                                                                                                                                ",
"                                                                                                                                                                                                                                                                                                                                                                                                                                                                                                                                                                                                                                ",
"                                                                                                                                                                                                                                                                                                                                                                                                                                                                                                                                                                                                                                ",
"                                                                                                                                                                                                                                                                                                                                                                                                                                                                                                                                                                                                                                ",
"                                                                                                                                                                                                                                                                                                                                                                                                                                                                                                                                                                                                                                ",
"                                                                                                                                                                                                                                                                                                                                                                                                                                                                                                                                                                                                                                ",
"                                                                                                                                                                                                                                                                                                                                                                                                                                                                                                                                                                                                                                ",
"                                                                                                                                                                                                                                                                                                                                                                                                                                                                                                                                                                                                                                ",
"                                                                                                                                                                                                                                                                                                                                                                                                                                                                                                                                                                                                                                ",
"                                                                                                                                                                                                                                                                                                                                                                                                                                                                                                                                                                                                                                ",
"                                                                                                                                                                                                                                                                                                                                                                                                                                                                                                                                                                                                                                ",
"                                                                                                                                                                                                                                                                                                                                                                                                                                                                                                                                                                                                                                ",
"                                                                                                                                                                                                                                                                                                                                                                                                                                                                                                                                                                                                                                ",
"                                                                                                                                                                                                                                                                                                                                                                                                                                                                                                                                                                                                                                ",
"                                                                                                                                                                                                                                                                                                                                                                                                                                                                                                                                                                                                                                ",
"                                                                                                                                                                                                                                                                                                                                                                                                                                                                                                                                                                                                                                ",
"                                                                                                                                                                                                                                                                                                                                                                                                                                                                                                                                                                                                                                ",
"                                                                                                                                                                                                                                                                                                                                                                                                                                                                                                                                                                                                                                ",
"                                                                                                                                                                                                                                                                                                                                                                                                                                                                                                                                                                                                                                ",
"                                                                                                                                                                                                                                                                                                                                                                                                                                                                                                                                                                                                                                ",
"                                                                                                                                                                                                                                                                                                                                                                                                                                                                                                                                                                                                                                ",
"                                                                                                                                                                                                                                                                                                                                                                                                                                                                                                                                                                                                                                ",
"                                                                                                                                                                                                                                                                                                                                                                                                                                                                                                                                                                                                                                ",
"                                                                                                                                                                                                                                                                                                                                                                                                                                                                                                                                                                                                                                ",
"                                                                                                                                                                                                                                                                                                                                                                                                                                                                                                                                                                                                                                ",
"                                                                                                                                                                                                                                                                                                                                                                                                                                                                                                                                                                                                                                ",
"                                                                                                                                                                                                                                                                                                                                                                                                                                                                                                                                                                                                                                ",
"                                                                                                                                                                                                                                                                                                                                                                                                                                                                                                                                                                                                                                ",
"                                                                                                                                                                                                                                                                                                                                                                                                                                                                                                                                                                                                                                ",
"                                                                                                                                                                                                                                                                                                                                                                                                                                                                                                                                                                                                                                "
};
