/* XPM */
static char *tuto_09[] = {
"608 120 4 1",
"  c #000000",
"G c #70DD99",
"B c #3399FF",
"R c #FF0000",
"                                                                                                                                                                                                                                                                                                                                                                                                                                                                                                                                                                                                                                ",
"                                                                                                                                                                                                                                                                                                                                                                                                                                                                                                                                                                                                                                ",
"                                                                                                                                                                                                                                                                                                                                                                                                                                                                                                                                                                                                                                ",
"                                                                                                                                                                                                                                                                                                                                                                                                                                                                                                                                                                                                                                ",
"                                                                                                                                                                                                                                                                                                                                                                                                                                                                                                                                                                                                                                ",
"                                                                                                                                                                                                                                                                                                                                                                                                                                                                                                                                                                                                                                ",
"                                                                                                                                                                                                                                                                                                                                                                                                                                                                                                                                                                                                                                ",
"                                                                                                                                                                                                                                                                                                                                                                                                                                                                                                                                                                                                                                ",
"                                                                                                                                                                                                                                                                                                                                                                                                                                                                                                                                                                                                                                ",
"                                                                                                                                                                                                                                                                                                                                                                                                                                                                                                                                                                                                                                ",
"                                                                                                                                                                                                                                                                                                                                                                                                                                                                                                                                                                                                                                ",
"                                                                                                                                                                                                                                                                                                                                                                                                                                                                                                                                                                                                                                ",
"                                                                                                                                                                                                                                                                                                                                                                                                                                                                                                                                                                                                                                ",
"                                                                                                                                                                                                                                                                                                                                                                                                                                                                                                                                                                                                                                ",
"                                                                                                                                                                                                                                                                                                                                                                                                                                                                                                                                                                                                                                ",
"                                                                                                                                                                                                                                                                                                                                                                                                                                                                                                                                                                                                                                ",
"                                                                                                                                                                                                                                                                                                                                                                                                                                                                                                                                                                                                                                ",
"                                                                                                                                                                                                                                                                                                                                                                                                                                                                                                                                                                                                                                ",
"                                                                                                                                                                                                                                                                                                                                                                                                                                                                                                                                                                                                                                ",
"                                                                                                                                                                                                                                                                                                                                                                                                                                                                                                                                                                                                                                ",
"                                                                                                                                                                                                                                                                                                                                                                                                                                                                                                                                                                                                                                ",
"                                                                                                                                                                                                                                                                                                                                                                                                                                                                                                                                                                                                                                ",
"                                                                                                                                                                                                                                                                                                                                                                                                                                                                                                                                                                                                                                ",
"                                                                                                                                                                                                                                                                                                                                                                                                                                                                                                                                                                                                                                ",
"                                                                                                                                                                                                                                                                                                                                                                                                                                                                                                                                                                                                                                ",
"                                                                                                                                                                                                                                                                                                                                                                                                                                                                                                                                                                                                                                ",
"                                                                                                                                                                                                                                                                                                                                                                                                                                                                                                                                                                                                                                ",
"                                                                                                                                                                                                                                                                                                                                                                                                                                                                                                                                                                                                                                ",
"                                                                                                   GGGG                                                          GGGG                                                                                                                                         GGGG                                                                                                                                                                                                                                                                                                              ",
"                                                                              GGGGGGGG             GGGG                                                          GGGG                                                       GGGG                                                           GGGG               GGGG                       GGGG                                                           GGGG                                                                                                                                                                                                                    ",
"                                GGGGGGGGG                                     GGGGGGGG             GGGG                                                          GGGG                                                       GGGG                                                           GGGG               GGGG                       GGGG                                                           GGGG                                                                                                                                                                                                                    ",
"                                GGGGGGGGGGG                                   GGGGGGGG             GGGG          GGGG                                            GGGG                                          GGGG         GGGG                                                           GGGG               GGGG                       GGGG                                                           GGGG                                                                                                                                            GGGG                                                                    ",
"                                GGGGGGGGGGG                                       GGGG                           GGGG                                                                                          GGGG         GGGG                                                           GGGG                                          GGGG                                                           GGGG                                                                                                                                            GGGG                                                                    ",
"                                GGG    GGGGG                                      GGGG                           GGGG                                                                                          GGGG         GGGG                                                           GGGG                                          GGGG                                                           GGGG                                                                                                                                            GGGG                                                                    ",
"                                GGG     GGGG                                      GGGG                           GGGG                                                                                          GGGG         GGGG                                                           GGGG                                          GGGG                                                           GGGG                                                                                                                                            GGGG                                                                    ",
"                                GGG     GGGG       GGGGGG        GGGGGGG          GGGG          GGGGGGG      GGGGGGGGGGGGG   GGGG      GGGG                   GGGGGGG           GGGGGG                     GGGGGGGGGGGGG    GGGG  GGGG         GGGGGG                    GGG         GGGG  GGGG  GGGG      GGGGGGG            GGGGGG     GGGG  GGGG                                   GGG         GGGG  GGGG  GGGG         GGGGGG      GGGG  GGGG                     GGGG      GGGG     GGGGGG       GGGG    GGG                       GGGGGG      GGGGGGGGGGGGG       GGGGGG      GGGG GGGGG                                  ",
"                                GGG     GGGG     GGGGGGGGG      GGGGGGGGGG        GGGG          GGGGGGG      GGGGGGGGGGGGG   GGGG     GGGG                    GGGGGGG         GGGGGGGGGG                   GGGGGGGGGGGGG    GGGGGGGGGGG      GGGGGGGGG                   GGG         GGG   GGGGGGGGGGG     GGGGGGG          GGGGGGGGG    GGGGGGGGGGG                                  GGG         GGG   GGGGGGGGGGG      GGGGGGGGG     GGGGGGGGGGG                    GGGG     GGGG    GGGGGGGGG      GGGG    GGG                     GGGGGGGGGG    GGGGGGGGGGGGG     GGGGGGGGG     GGGGGGGGGGG                                 ",
"                                GGG    GGGG      GGGGGGGGGG     GGGGGGGGGG        GGGG          GGGGGGG      GGGGGGGGGGGGG    GGGG    GGGG                    GGGGGGG         GGGGGGGGGG                   GGGGGGGGGGGGG    GGGGGGGGGGG      GGGGGGGGGG                  GGG         GGG   GGGGGGGGGGG     GGGGGGG         GGGGGGGGGG    GGGGGGGGGGG                                  GGG         GGG   GGGGGGGGGGG      GGGGGGGGGG    GGGGGGGGGGG                     GGGG    GGGG    GGGGGGGGGG     GGGG    GGG                     GGGGGGGGGG    GGGGGGGGGGGGG     GGGGGGGGGG    GGGGGGGGGGGG                                ",
"                                GGGGGGGGGGG     GGGG    GGGG    G      GGGG       GGGG             GGGG          GGGG         GGGG    GGGG                       GGGG        GGGG     GG                       GGGG         GGGGG  GGGG     GGGG    GGGG                  GGG        GGG   GGGGG  GGGG        GGGG         GGGGG    G    GGGGG  GGGG                                   GGG        GGG   GGGGG  GGGG     GGGG    GGGG   GGGGG  GGGG                     GGGG    GGGG   GGGG   GGGGG    GGGG    GGG                    GGGG     GG        GGGG         GGGG   GGGGG   GGGGG   GGGG                                ",
"                                GGGGGGGGG       GGG     GGGG           GGGG       GGGG             GGGG          GGGG          GGG   GGGG                        GGGG        GGGG                              GGGG         GGGG    GGGG    GGG     GGGG                  GGG  GGG   GGG   GGGG    GGGG       GGGG        GGGGG          GGGG    GGGG                                  GGG  GGG   GGG   GGGG    GGGG    GGG     GGGG   GGGG    GGGG                     GGG   GGGG    GGGG    GGGG    GGGG    GGG                    GGGG               GGGG         GGGG    GGGG   GGGG    GGGG                                ",
"                                GGGGGGGGG      GGGG      GGG     GGGGGGGGGG       GGGG             GGGG          GGGG          GGGG  GGGG                        GGGG        GGGGGG                            GGGG         GGGG    GGGG   GGGG      GGG                  GGG  GGGG  GGG   GGGG    GGGG       GGGG        GGGG           GGGG    GGGG                                  GGG  GGGG  GGG   GGGG    GGGG   GGGG      GGG   GGGG    GGGG                     GGGG  GGGG   GGGG     GGGG    GGGG    GGG                    GGGGGG             GGGG        GGGG     GGGG   GGGG     GGG                                ",
"                                GGG   GGGG     GGGGGGGGGGGGGG  GGGGGGGGGGGG       GGGG             GGGG          GGGG          GGGG  GGG                         GGGG         GGGGGGGGG                        GGGG         GGGG    GGGG   GGGGGGGGGGGGGG                 GGG  GGGG  GG    GGGG    GGGG       GGGG        GGGG           GGGG    GGGG                                  GGG  GGGG  GG    GGGG    GGGG   GGGGGGGGGGGGGG  GGGG    GGGG                     GGGG  GGG    GGGG      GGG    GGGG    GGG                     GGGGGGGGG         GGGG        GGGG      GGG   GGGG     GGG                                ",
"                                GGG    GGGG    GGGGGGGGGGGGGG  GGGGGGGGGGGG       GGGG             GGGG          GGGG           GGG GGGG                         GGGG           GGGGGGGG                       GGGG         GGGG    GGGG   GGGGGGGGGGGGGG                 GGG  GGGG GGG    GGGG    GGGG       GGGG        GGGG           GGGG    GGGG                                  GGG  GGGG GGG    GGGG    GGGG   GGGGGGGGGGGGGG  GGGG    GGGG                      GGG GGGG    GGGG      GGG    GGGG    GGG                       GGGGGGGG        GGGG        GGGG      GGG   GGGG     GGG                                ",
"                                GGG    GGGG    GGGGGGGGGGGGGG GGGGG    GGGG       GGGG             GGGG          GGGG           GGGGGGGG                         GGGG              GGGGG                       GGGG         GGGG    GGGG   GGGGGGGGGGGGGG                  GG GG GG GGG    GGGG    GGGG       GGGG        GGGG           GGGG    GGGG                                   GG GG GG GGG    GGGG    GGGG   GGGGGGGGGGGGGG  GGGG    GGGG                      GGGGGGGG    GGGG     GGGG    GGGG    GGG                          GGGGG        GGGG        GGGG     GGGG   GGGG     GGG                                ",
"                                GGG     GGGG    GGG           GGGG     GGGG       GGGG             GGGG          GGGG            GGGGGG                          GGGG                GGG                       GGGG         GGGG    GGGG    GGG                            GGGGG GGGGGG    GGGG    GGGG       GGGG        GGGGG          GGGG    GGGG        GGGG                       GGGGG GGGGGG    GGGG    GGGG    GGG            GGGG    GGGG                       GGGGGG      GGGG    GGGG    GGGG   GGGG                            GGG        GGGG         GGGG    GGGG   GGGG    GGGG                                ",
"                                GGG     GGGG    GGGG      GG  GGGGG   GGGGG       GGGG             GGGG          GGGG            GGGGGG                          GGGG        GG      GGG                       GGGG         GGGG    GGGG    GGGG      GG                   GGGGG  GGGGG    GGGG    GGGG       GGGG         GGGGG    G    GGGG    GGGG        GGGG                       GGGGG  GGGGG    GGGG    GGGG    GGGG      GG   GGGG    GGGG                       GGGGGG      GGGG   GGGGG    GGGG   GGGG                    GG      GGG        GGGG         GGGG   GGGGG   GGGGG   GGGG                                ",
"                                GGG     GGGG    GGGGGGGGGGGG   GGGGGGGGGGGG       GGGGGGGGG    GGGGGGGGGGGGG     GGGGGGGGG       GGGGG                       GGGGGGGGGGGGG   GGGGGGGGGGG                       GGGGGGGGG    GGGG    GGGG    GGGGGGGGGGGG                   GGGGG  GGGGG    GGGG    GGGG   GGGGGGGGGGGGG    GGGGGGGGGG    GGGG    GGGG        GGGG                       GGGGG  GGGGG    GGGG    GGGG    GGGGGGGGGGGG   GGGG    GGGG                       GGGGG        GGGGGGGGGG     GGGGGGGGGGG                    GGGGGGGGGGG        GGGGGGGGG     GGGGGGGGGG    GGGGGGGGGGGG                                ",
"                                GGG      GGGG    GGGGGGGGGGG   GGGGGGGGGGGG        GGGGGGGG    GGGGGGGGGGGGG      GGGGGGGG        GGGG                       GGGGGGGGGGGGG   GGGGGGGGGGG                        GGGGGGGG    GGGG    GGGG     GGGGGGGGGGG                   GGGG   GGGG     GGGG    GGGG   GGGGGGGGGGGGG     GGGGGGGGG    GGGG    GGGG        GGGG                       GGGG   GGGG     GGGG    GGGG     GGGGGGGGGGG   GGGG    GGGG                        GGGG        GGGGGGGGG       GGGGGGGGGG                    GGGGGGGGGGG         GGGGGGGG     GGGGGGGGG     GGGGGGGGGGG                                 ",
"                                GGG      GGGG      GGGGGGG       GGGG  GGGG         GGGGGGG    GGGGGGGGGGGGG       GGGGGGG        GGGG                       GGGGGGGGGGGGG     GGGGGGG                           GGGGGGG    GGGG    GGGG       GGGGGGG                     GGGG   GGGG     GGGG    GGGG   GGGGGGGGGGGGG       GGGGGG     GGGG    GGGG        GGG                        GGGG   GGGG     GGGG    GGGG       GGGGGGG     GGGG    GGGG                        GGGG          GGGGGG         GGGG  GGG                      GGGGGGG            GGGGGGG       GGGGGG      GGGG GGGGG                                  ",
"                                                                                                                                  GGG                                                                                                                                                                                                                       GGGG                                                                                                           GGG                                                                                                      GGGG                                        ",
"                                                                                                                                 GGGG                                                                                                                                                                                                                       GGG                                                                                                           GGGG                                                                                                      GGGG                                        ",
"                                                                                                                              GGGGGG                                                                                                                                                                                                                        GGG                                                                                                        GGGGGG                                                                                                       GGGG                                        ",
"                                                                                                                              GGGGGG                                                                                                                                                                                                                                                                                                                                   GGGGGG                                                                                                       GGGG                                        ",
"                                                                                                                              GGGG                                                                                                                                                                                                                                                                                                                                     GGGG                                                                                                         GGGG                                        ",
"                                                                                                                                                                                                                                                                                                                                                                                                                                                                                                                                                                                                                                ",
"                                                                                                                                                                                                                                                                                                                                                                                                                                                                                                                                                                                                                                ",
"                                                                                                                                                                                                                                                                                                                                                                                                                                                                                                                                                                                                                                ",
"                                                                                                                                                                                                                                                                                                                                                                                                                                                                                                                                                                                                                                ",
"                                                                                                                                                                                                                                                                                                                                                                                                                                                                                                                                                                                                                                ",
"                                                                                                                                                                                                                                                                                                                                                                                                                                                                                                                                                                                                                                ",
"                                                                                                                                                                                                                                                                                                                                                                                                                                                                                                                                                                                                                                ",
"                                                                                                                                                                                                                                                                                                                                                                                                                                                                                                                                                                                                                                ",
"                                                                                                                                                                                                                                                                                                                                                                                                                                                                                                                                                                                                                                ",
"                                                                                                                                                                                                                                                                                                                                                                                                                                                                                                                                                                                                                                ",
"                                                                                                                                         GGGG                           GGGG                                                           GGGG                                                                                                                                                                                                                                                                                                                                                                                     ",
"                                                                                      GGGG                          GGGGGGGG             GGGG                           GGGG                                                           GGGG                                                               GGGG                                                                                                                                                                                                                                                                                                                  ",
"                                                                                      GGGG                          GGGGGGGG             GGGG                           GGGG                                                           GGGG                                                               GGGG                                                                      GGG                                                                                                                                                                                                                                         ",
"                                                                                      GGGG                          GGGGGGGG             GGGG                           GGGG                                                           GGGG           GGGG                                                GGGG                                                                      GGG           GGGG                                                                                                                                                                                                                          ",
"                                                                                      GGGG                              GGGG                                                                                                                          GGGG                                                GGGG                                                                      GGG           GGGG                                                                                                                                                                                                                          ",
"                                                                                      GGGG                              GGGG                                                                                                                          GGGG                                                GGGG                                                                      GGG           GGGG                                                                                                                                                                                                                          ",
"                                                                                      GGGG                              GGGG                                                                                                                          GGGG                                                GGGG                                                                      GGG           GGGG                                                                                                                                                                                                                          ",
"                                                                                      GGGG GGGGG         GGGGGG         GGGG          GGGGGGG       GGGG      GGG    GGGGGGG        GGGG  GGGG        GGGGG GGGG                    GGGGGGG       GGGGGGGGGGGGG                                     GGGG  GGGG      GGGGGG          GGGGGG          GGGGGG      GGGG  GGGG          GGG       GGGGGGGGGGGGG                      GGGGG GGGG      GGGGGG                         GGGGGGG    GGG         GGGG    GGGGGGG      GGGG      GGGG                                                                                      ",
"                                                                                      GGGGGGGGGGG      GGGGGGGGG        GGGG          GGGGGGG       GGGG     GGGG    GGGGGGG        GGGGGGGGGGG      GGGGGGGGGGG                    GGGGGGG       GGGGGGGGGGGGG                                    GGGGGG GGGG    GGGGGGGGG       GGGGGGGGG       GGGGGGGGGG    GGGGGGGGGGG         GGG       GGGGGGGGGGGGG                     GGGGGGGGGGG    GGGGGGGGG                       GGGGGGGGGG  GGG         GGG    GGGGGGGGGG    GGGG     GGGG                                                                                       ",
"                                                                                      GGGGGGGGGGGG     GGGGGGGGGG       GGGG          GGGGGGG        GGG     GGGG    GGGGGGG        GGGGGGGGGGG     GGGGGGGGGGGG                    GGGGGGG       GGGGGGGGGGGGG                                   GGGGGGGGGGGG    GGGGGGGGGG      GGGGGGGGGG      GGGGGGGGGG    GGGGGGGGGGG                   GGGGGGGGGGGGG                    GGGGGGGGGGGG    GGGGGGGGGG                      GGGGGGGGGG  GGG         GGG    GGGGGGGGGG     GGGG    GGGG                                                                                       ",
"                                                                                      GGGGG   GGGG    GGGG    GGGG      GGGG             GGGG        GGGG    GGGG       GGGG        GGGGG  GGGG     GGGG   GGGGG                       GGGG           GGGG                                        GGGG   GGGGG   GGGG   GGGGG    GGGG    GGGG    GGGG     GG    GGGGG  GGGG                       GGGG                         GGGG   GGGGG   GGGG   GGGGG                     G      GGGG  GGG        GGG    G      GGGG    GGGG    GGGG                                                                                       ",
"                                                                                      GGGG    GGGG    GGG     GGGG      GGGG             GGGG        GGGG    GGG        GGGG        GGGG    GGGG    GGGG    GGGG                       GGGG           GGGG                                       GGGG     GGGG   GGGG    GGGG    GGG     GGGG    GGGG           GGGG    GGGG                      GGGG                         GGGG    GGGG   GGGG    GGGG                            GGGG  GGG  GGG   GGG           GGGG     GGG   GGGG                                                                                        ",
"                                                                                      GGGG     GGG   GGGG      GGG      GGGG             GGGG         GGG   GGGG        GGGG        GGGG    GGGG   GGGG     GGGG                       GGGG           GGGG                                       GGGG     GGGG  GGGG     GGGG   GGGG      GGG    GGGGGG         GGGG    GGGG                      GGGG                        GGGG     GGGG  GGGG     GGGG                      GGGGGGGGGG  GGG  GGGG  GGG     GGGGGGGGGG     GGGG  GGGG                                                                                        ",
"                                                                                      GGGG     GGG   GGGGGGGGGGGGGG     GGGG             GGGG         GGGG  GGGG        GGGG        GGGG    GGGG   GGGG     GGGG                       GGGG           GGGG                                       GGGG     GGGG  GGGG      GGG   GGGGGGGGGGGGGG    GGGGGGGGG     GGGG    GGGG                      GGGG                        GGGG     GGGG  GGGG      GGG                    GGGGGGGGGGGG  GGG  GGGG  GG    GGGGGGGGGGGG     GGGG  GGG                                                                                         ",
"                                                                                      GGGG     GGG   GGGGGGGGGGGGGG     GGGG             GGGG         GGGG  GGG         GGGG        GGGG    GGGG   GGGG     GGGG                       GGGG           GGGG                                       GGGG     GGGG  GGGG      GGG   GGGGGGGGGGGGGG      GGGGGGGG    GGGG    GGGG                      GGGG                        GGGG     GGGG  GGGG      GGG                    GGGGGGGGGGGG  GGG  GGGG GGG    GGGGGGGGGGGG      GGG GGGG                                                                                         ",
"                                                                                      GGGG     GGG   GGGGGGGGGGGGGG     GGGG             GGGG          GGG  GGG         GGGG        GGGG    GGGG   GGGG     GGGG                       GGGG           GGGG                                       GGGG     GGGG  GGGG     GGGG   GGGGGGGGGGGGGG         GGGGG    GGGG    GGGG                      GGGG                        GGGG     GGGG  GGGG     GGGG                   GGGGG    GGGG   GG GG GG GGG   GGGGG    GGGG      GGGGGGGG                                                                                         ",
"                                                                                      GGGG    GGGG    GGG               GGGG             GGGG          GGG GGGG         GGGG        GGGG    GGGG    GGGG    GGGG                       GGGG           GGGG            GGGG                       GGGG     GGGG   GGGG    GGGG    GGG                     GGG    GGGG    GGGG                      GGGG                         GGGG    GGGG   GGGG    GGGG                   GGGG     GGGG   GGGGG GGGGGG   GGGG     GGGG       GGGGGG                                                                                          ",
"                                                                                      GGGGG   GGGG    GGGG      GG      GGGG             GGGG          GGGGGGG          GGGG        GGGG    GGGG    GGGG   GGGGG                       GGGG           GGGG            GGGG                        GGGG   GGGGG   GGGG   GGGGG    GGGG      GG    GG      GGG    GGGG    GGGG                      GGGG                         GGGG   GGGGG   GGGG   GGGGG                   GGGGG   GGGGG   GGGGG  GGGGG   GGGGG   GGGGG       GGGGGG                                                                                          ",
"                                                                                      GGGGGGGGGGGG    GGGGGGGGGGGG      GGGGGGGGG    GGGGGGGGGGGGG      GGGGGG      GGGGGGGGGGGGG   GGGG    GGGG    GGGGGGGGGGGG                   GGGGGGGGGGGGG      GGGGGGGGG       GGGG                        GGGGGGGGGGGG    GGGGGGGGGG     GGGGGGGGGGGG    GGGGGGGGGGG    GGGG    GGGG                      GGGGGGGGG                    GGGGGGGGGGGG    GGGGGGGGGG                     GGGGGGGGGGGG   GGGGG  GGGGG    GGGGGGGGGGGG       GGGGG                                                                                           ",
"                                                                                      GGGGGGGGGGG      GGGGGGGGGGG       GGGGGGGG    GGGGGGGGGGGGG      GGGGGG      GGGGGGGGGGGGG   GGGG    GGGG     GGGGGGGGGGG                   GGGGGGGGGGGGG       GGGGGGGG       GGGG                         GGGGGG GGGG    GGGGGGGGG       GGGGGGGGGGG    GGGGGGGGGGG    GGGG    GGGG                       GGGGGGGG                     GGGGGGGGGGG    GGGGGGGGG                      GGGGGGGGGGGG   GGGG   GGGG     GGGGGGGGGGGG        GGGG                                                                                           ",
"                                                                                      GGGG GGGGG         GGGGGGG          GGGGGGG    GGGGGGGGGGGGG      GGGGG       GGGGGGGGGGGGG   GGGG    GGGG      GGGGG GGGG                   GGGGGGGGGGGGG        GGGGGGG       GGG                           GGGG  GGGG      GGGGGG          GGGGGGG        GGGGGGG      GGGG    GGGG                        GGGGGGG                      GGGGG GGGG      GGGGGG                         GGGG  GGGG   GGGG   GGGG       GGGG  GGGG        GGGG                                                                                           ",
"                                                                                                                                                                                                            GGGG                                                     GGGG                                                                                                                                                              GGGG                                                                                      GGG                                                                                            ",
"                                                                                                                                                                                                     G     GGGGG                                                     GGG                                                                                                                                                        G     GGGGG                                                                                     GGGG                                                                                            ",
"                                                                                                                                                                                                     GGGGGGGGGG                                                      GGG                                                                                                                                                        GGGGGGGGGG                                                                                   GGGGGG                                                                                             ",
"                                                                                                                                                                                                     GGGGGGGGG                                                                                                                                                                                                                  GGGGGGGGG                                                                                    GGGGGG                                                                                             ",
"                                                                                                                                                                                                      GGGGGGG                                                                                                                                                                                                                    GGGGGGG                                                                                     GGGG                                                                                               ",
"                                                                                                                                                                                                                                                                                                                                                                                                                                                                                                                                                                                                                                ",
"                                                                                                                                                                                                                                                                                                                                                                                                                                                                                                                                                                                                                                ",
"                                                                                                                                                                                                                                                                                                                                                                                                                                                                                                                                                                                                                                ",
"                                                                                                                                                                                                                                                                                                                                                                                                                                                                                                                                                                                                                                ",
"                                                                                                                                                                                                                                                                                                                                                                                                                                                                                                                                                                                                                                ",
"                                                                                                                                                                                                                                                                                                                                                                                                                                                                                                                                                                                                                                ",
"                                                                                                                                                                                                                                                                                                                                                                                                                                                                                                                                                                                                                                ",
"                                                                                                                                                                                                                                                                                                                                                                                                                                                                                                                                                                                                                                ",
"                                                                                                                                                                                                                                                                                                                                                                                                                                                                                                                                                                                                                                ",
"                                                                                                                                                                                                                                                                                                                                                                                                                                                                                                                                                                                                                                ",
"                                                                                                                                                                                                                                                                                                                                                                                                                                                                                                                                                                                                                                ",
"                                                                                                                                                                                                                                                                                                                                                                                                                                                                                                                                                                                                                                ",
"                                                                                                                                                                                                                                                                                                                                                                                                                                                                                                                                                                                                                                ",
"                                                                                                                                                                                                                                                                                                                                                                                                                                                                                                                                                                                                                                ",
"                                                                                                                                                                                                                                                                                                                                                                                                                                                                                                                                                                                                                                ",
"                                                                                                                                                                                                                                                                                                                                                                                                                                                                                                                                                                                                                                ",
"                                                                                                                                                                                                                                                                                                                                                                                                                                                                                                                                                                                                                                ",
"                                                                                                                                                                                                                                                                                                                                                                                                                                                                                                                                                                                                                                ",
"                                                                                                                                                                                                                                                                                                                                                                                                                                                                                                                                                                                                                                ",
"                                                                                                                                                                                                                                                                                                                                                                                                                                                                                                                                                                                                                                ",
"                                                                                                                                                                                                                                                                                                                                                                                                                                                                                                                                                                                                                                ",
"                                                                                                                                                                                                                                                                                                                                                                                                                                                                                                                                                                                                                                ",
"                                                                                                                                                                                                                                                                                                                                                                                                                                                                                                                                                                                                                                ",
"                                                                                                                                                                                                                                                                                                                                                                                                                                                                                                                                                                                                                                ",
"                                                                                                                                                                                                                                                                                                                                                                                                                                                                                                                                                                                                                                ",
"                                                                                                                                                                                                                                                                                                                                                                                                                                                                                                                                                                                                                                ",
"                                                                                                                                                                                                                                                                                                                                                                                                                                                                                                                                                                                                                                ",
"                                                                                                                                                                                                                                                                                                                                                                                                                                                                                                                                                                                                                                ",
"                                                                                                                                                                                                                                                                                                                                                                                                                                                                                                                                                                                                                                ",
"                                                                                                                                                                                                                                                                                                                                                                                                                                                                                                                                                                                                                                "
};
