/* XPM */
static char *tuto_10[] = {
"608 120 4 1",
"  c #000000",
"G c #70DD99",
"B c #3399FF",
"R c #FF0000",
"                                                                                                                                                                                                                                                                                                                                                                                                                                                                                                                                                                                                                                ",
"                                                                                                                                                                                                                                                                                                                                                                                                                                                                                                                                                                                                                                ",
"                                                                                                                                                                                                                                                                                                                                                                                                                                                                                                                                                                                                                                ",
"                                                                                                                                                                                                                                                                                                                                                                                                                                                                                                                                                                                                                                ",
"                                                                                                                                                                                                                                                                                                                                                                                                                                                                                                                                                                                                                                ",
"                                                                                                                                                                                                                                                                                                                                                                                                                                                                                                                                                                                                                                ",
"                                                                                                                                                                                                                                                                                                                                                                                                                                                                                                                                                                                                                                ",
"                                                                                                                                                                                                                                                                                                                                                                                                                                                                                                                                                                                                                                ",
"                                                                                                                                                                                                                                                                                                                                                                                                                                                                                                                                                                                                                                ",
"                                                                                                                                                                                                                                                                                                                                                                                                                                                                                                                                                                                                                                ",
"                                                                                                                                                                                                                                                                                                                                                                                                                                                                                                                                                                                                                                ",
"                                                                                                                                                                                                                                                                                                                                                                                                                                                                                                                                                                                                                                ",
"                                                                                                                                                                                                                                                                                                                                                                                                                                                                                                                                                                                                                                ",
"                                                                                                                                                                                                                                                                                                                                                                                                                                                                                                                                                                                                                                ",
"                                                                                                                                                                                                                                                                                                                                                                                                                                                                                                                                                                                                                                ",
"                                                                                                                                                                                                                                                                                                                                                                                                                                                                                                                                                                                                                                ",
"                                                                                                                                                                                                                                                                                                                                                                                                                                                                                                                                                                                                                                ",
"                                                                                                                                                                                                                                                                                                                                                                                                                                                                                                                                                                                                                                ",
"                                                                                                                                                                                                                                                                                                                                                                                                                                                                                                                                                                                                                                ",
"                                                                                                                                                                                                                                                                                                                                                                                                                                                                                                                                                                                                                                ",
"                                                                                                                                                                                                                                                                                                                                                                                                                                                                                                                                                                                                                                ",
"                                                                                                                                                                                                                                                                                                                                                                                                                                                                                                                                                                                                                                ",
"                                                                                                                                                                                                                                                                                                                                                                                                                                                                                                                                                                                                                                ",
"                                                                                                                                                                                                                                                                                                                                                                                                                                                                                                                                                                                                                                ",
"                                                                                                                                                                                                                                                                                                                                                                                                                                                                                                                                                                                                                                ",
"                                                                                                                                                                                                                                                                                                                                                                                                                                                                                                                                                                                                                                ",
"                                                                                                                                                                                                                                                                                                                                                                                                                                                                                                                                                                                                                                ",
"                                                                                                                                                                                                                                                                                                                                                                                                                                                                                                                                                                                                                                ",
"                                                                                                                                                         GGGG                                                                                                                                                                                                                                                                                                                                                                                                                                                                   ",
"                                                                      GGGGGGGG       GGGGGGGG                                                            GGGG                                      GGGGGGGG                                                                                                                                                                    GGGGGGGG                                                        GGGG                                                                                                                                                                             ",
"                                                          GGGGG       GGGGGGGG       GGGGGGGG                                                            GGGG                                      GGGGGGGG                                                                                                                                                                    GGGGGGGG                                                        GGGG                                                                                                                                                                             ",
"                                                          GGGGGG      GGGGGGGG       GGGGGGGG                                                            GGGG                                      GGGGGGGG                                                                                                                                                                    GGGGGGGG                                                        GGGG                              GGGG                                                                                                                                           ",
"                                                          GGGGGG          GGGG           GGGG                                                                                                          GGGG                                                                                                                                                                        GGGG                                                        GGGG                              GGGG                                                                                                                                           ",
"                                                          GGGGGG          GGGG           GGGG                                                                                                          GGGG                                                                                                                                                                        GGGG                                                        GGGG                              GGGG                                                                                                                                           ",
"                                                         GGGGGGG          GGGG           GGGG                                                                                                          GGGG                                                                                                                                                                        GGGG                                                        GGGG                              GGGG                                                                                                                                           ",
"                                                         GGG GGGG         GGGG           GGGG                           GGGGGGG      GGGG  GGGG       GGGGGGG       GGG GGG  GGG      GGGGGGG          GGGG            GGGGGG                        GGGGGGG         GGG  GGGGG      GGGGGG                          GGGGGG        GGGG  GGGG    GGGG    GGG      GGGGGGG          GGGG            GGGGGG                                      GGGG GGGGG     GGGG    GGG    GGGGGGGGGGGGG                      GGGGGG          GGGGGG      GGG GGG  GGG       GGGGGG                                                           ",
"                                                         GGG  GGG         GGGG           GGGG                          GGGGGGGGGG    GGGGGGGGGGG      GGGGGGG       GGGGGGGGGGGGG    GGGGGGGGGG        GGGG          GGGGGGGGGG                     GGGGGGGGGG       GGG GGGGGGG   GGGGGGGGG                       GGGGGGGGG      GGGGGG GGGG    GGGG    GGG     GGGGGGGGGG        GGGG          GGGGGGGGGG                                    GGGGGGGGGGG    GGGG    GGG    GGGGGGGGGGGGG                    GGGGGGGGGG      GGGGGGGGG     GGGGGGGGGGGGG    GGGGGGGGG                                                          ",
"                                                         GGG  GGG         GGGG           GGGG                          GGGGGGGGGG    GGGGGGGGGGG      GGGGGGG       GGGGGGGGGGGGG    GGGGGGGGGG        GGGG          GGGGGGGGGG                     GGGGGGGGGG       GGGGGGGGGGG   GGGGGGGGGG                      GGGGGGGGGG    GGGGGGGGGGGG    GGGG    GGG     GGGGGGGGGG        GGGG          GGGGGGGGGG                                    GGGGGGGGGGGG   GGGG    GGG    GGGGGGGGGGGGG                    GGGGGGGGGG      GGGGGGGGGG    GGGGGGGGGGGGG    GGGGGGGGGG                                                         ",
"                                                        GGGG  GGG         GGGG           GGGG                          G      GGGG   GGGGG  GGGG         GGGG       GGG  GGGG GGGG   G      GGGG       GGGG         GGGG     GG                     G      GGGG      GGGGG    GG  GGGG    GGGG                    GGGG    GGGG   GGGG   GGGGG    GGGG    GGG     G      GGGG       GGGG         GGGG     GG                                    GGGGG   GGGG   GGGG    GGG        GGGG                        GGGG     GG     GGGG   GGGGG   GGG  GGGG GGGG  GGGG    GGGG                                                        ",
"                                                        GGG   GGGG        GGGG           GGGG                                 GGGG   GGGG    GGGG        GGGG       GGG  GGG   GGG          GGGG       GGGG         GGGG                                   GGGG      GGGG         GGG     GGGG                    GGG     GGGG  GGGG     GGGG    GGGG    GGG            GGGG       GGGG         GGGG                                           GGGG    GGGG   GGGG    GGG        GGGG                        GGGG            GGGG    GGGG   GGG  GGG   GGG  GGG     GGGG                                                        ",
"                                                        GGG   GGGG        GGGG           GGGG                           GGGGGGGGGG   GGGG    GGGG        GGGG       GGG  GGG   GGG    GGGGGGGGGG       GGGG         GGGGGG                           GGGGGGGGGG      GGGG        GGGG      GGG                   GGGG      GGG  GGGG     GGGG    GGGG    GGG      GGGGGGGGGG       GGGG         GGGGGG                                         GGGG     GGG   GGGG    GGG        GGGG                        GGGGGG         GGGG     GGGG   GGG  GGG   GGG GGGG      GGG                                                        ",
"                                                       GGGGGGGGGGG        GGGG           GGGG                         GGGGGGGGGGGG   GGGG    GGGG        GGGG       GGG  GGG   GGG  GGGGGGGGGGGG       GGGG          GGGGGGGGG                     GGGGGGGGGGGG      GGG         GGGGGGGGGGGGGG                  GGGGGGGGGGGGGG GGGG     GGGG    GGGG    GGG    GGGGGGGGGGGG       GGGG          GGGGGGGGG                                     GGGG     GGG   GGGG    GGG        GGGG                         GGGGGGGGG     GGGG      GGG   GGG  GGG   GGG GGGGGGGGGGGGGG                                                       ",
"                                                       GGGGGGGGGGG        GGGG           GGGG                         GGGGGGGGGGGG   GGGG    GGGG        GGGG       GGG  GGG   GGG  GGGGGGGGGGGG       GGGG            GGGGGGGG                    GGGGGGGGGGGG      GGG         GGGGGGGGGGGGGG                  GGGGGGGGGGGGGG GGGG     GGGG    GGGG    GGG    GGGGGGGGGGGG       GGGG            GGGGGGGG                                    GGGG     GGG   GGGG    GGG        GGGG                           GGGGGGGG    GGGG      GGG   GGG  GGG   GGG GGGGGGGGGGGGGG                                                       ",
"                                                       GGGGGGGGGGGG       GGGG           GGGG                        GGGGG    GGGG   GGGG    GGGG        GGGG       GGG  GGG   GGG GGGGG    GGGG       GGGG               GGGGG                   GGGGG    GGGG      GGG         GGGGGGGGGGGGGG                  GGGGGGGGGGGGGG GGGG     GGGG    GGGG    GGG   GGGGG    GGGG       GGGG               GGGGG                                    GGGG     GGG   GGGG    GGG        GGGG                              GGGGG    GGGG     GGGG   GGG  GGG   GGG GGGGGGGGGGGGGG                                                       ",
"                                                       GGG     GGGG       GGGG           GGGG                        GGGG     GGGG   GGGG    GGGG        GGGG       GGG  GGG   GGG GGGG     GGGG       GGGG                 GGG                   GGGG     GGGG      GGG          GGG                             GGG           GGGG     GGGG    GGGG   GGGG   GGGG     GGGG       GGGG                 GGG        GGGG                        GGGG    GGGG   GGGG   GGGG        GGGG                                GGG     GGGG    GGGG   GGG  GGG   GGG  GGG                                                                 ",
"                                                      GGGG      GGG       GGGG           GGGG                        GGGGG   GGGGG   GGGG    GGGG        GGGG       GGG  GGG   GGG GGGGG   GGGGG       GGGG         GG      GGG                   GGGGG   GGGGG      GGG          GGGG      GG                    GGGG      GG   GGGG   GGGGG    GGGG   GGGG   GGGGG   GGGGG       GGGG         GG      GGG        GGGG                        GGGGG   GGGG   GGGG   GGGG        GGGG                        GG      GGG     GGGG   GGGGG   GGG  GGG   GGG  GGGG      GG                                                        ",
"                                                      GGGG      GGGG      GGGGGGGGG      GGGGGGGGG                    GGGGGGGGGGGG   GGGG    GGGG    GGGGGGGGGGGGG  GGG  GGG   GGG  GGGGGGGGGGGG       GGGGGGGGG    GGGGGGGGGGG                    GGGGGGGGGGGG      GGG          GGGGGGGGGGGG                    GGGGGGGGGGGG   GGGGGGGGGGGG    GGGGGGGGGGG    GGGGGGGGGGGG       GGGGGGGGG    GGGGGGGGGGG        GGGG                        GGGGGGGGGGGG   GGGGGGGGGGG        GGGGGGGGG                   GGGGGGGGGGG      GGGGGGGGGG    GGG  GGG   GGG  GGGGGGGGGGGG                                                        ",
"                                                      GGGG      GGGG       GGGGGGGG       GGGGGGGG                    GGGGGGGGGGGG   GGGG    GGGG    GGGGGGGGGGGGG  GGG  GGG   GGG  GGGGGGGGGGGG        GGGGGGGG    GGGGGGGGGGG                    GGGGGGGGGGGG      GGG           GGGGGGGGGGG                     GGGGGGGGGGG    GGGGGG GGGG     GGGGGGGGGG    GGGGGGGGGGGG        GGGGGGGG    GGGGGGGGGGG        GGGG                        GGGGGGGGGGG     GGGGGGGGGG         GGGGGGGG                   GGGGGGGGGGG      GGGGGGGGG     GGG  GGG   GGG   GGGGGGGGGGG                                                        ",
"                                                      GGG       GGGG        GGGGGGG        GGGGGGG                      GGGG  GGGG   GGGG    GGGG    GGGGGGGGGGGGG  GGG  GGG   GGG    GGGG  GGGG         GGGGGGG      GGGGGGG                        GGGG  GGGG      GGG             GGGGGGG                         GGGGGGG       GGGG  GGGG      GGGG  GGG      GGGG  GGGG         GGGGGGG      GGGGGGG          GGG                         GGGG GGGGG       GGGG  GGG          GGGGGGG                     GGGGGGG          GGGGGG      GGG  GGG   GGG     GGGGGGG                                                          ",
"                                                                                                                                                                                                                                                                                                                                         GGGG                                                                     GGGG                                                                                                                                                                                                          ",
"                                                                                                                                                                                                                                                                                                                                         GGGG                                                                     GGG                                                                                                                                                                                                           ",
"                                                                                                                                                                                                                                                                                                                                         GGGG                                                                     GGG                                                                                                                                                                                                           ",
"                                                                                                                                                                                                                                                                                                                                         GGGG                                                                                                                                                                                                                                                                                   ",
"                                                                                                                                                                                                                                                                                                                                         GGGG                                                                                                                                                                                                                                                                                   ",
"                                                                                                                                                                                                                                                                                                                                                                                                                                                                                                                                                                                                                                ",
"                                                                                                                                                                                                                                                                                                                                                                                                                                                                                                                                                                                                                                ",
"                                                                                                                                                                                                                                                                                                                                                                                                                                                                                                                                                                                                                                ",
"                                                                                                                                                                                                                                                                                                                                                                                                                                                                                                                                                                                                                                ",
"                                                                                                                                                                                                                                                                                                                                                                                                                                                                                                                                                                                                                                ",
"                                                                                                                                                                                                                                                                                                                                                                                                                                                                                                                                                                                                                                ",
"                                                                                                                                                                                                                                                                                                                                                                                                                                                                                                                                                                                                                                ",
"                                                                                                                                                                                                                                                                                                                                                                                                                                                                                                                                                                                                                                ",
"                                                                                                                                                                                                                                                                                                                                                                                                                                                                                                                                                                                                                                ",
"                                                                                                                                                                                                                                                                                                                                                                                                                                                                                                                                                                                                                                ",
"                                                                          GGGG                                                                                                                                                                                                                                                                                                                                                                                                                                                                                                                                                  ",
"                                                                          GGGG                                      GGGGGGGG                                                                                                                                                                                                                                                   GGGGGGGG                                        GGGG                                                                                          GGGG                                                                                               ",
"                                                                          GGGG                                      GGGGGGGG                                                                                                                                                                                                                                                   GGGGGGGG                                        GGGG                                                                                          GGGG                                                                                               ",
"                                                                          GGGG                                      GGGGGGGG                                                                                                                                                                                                                                                   GGGGGGGG                           GGGG         GGGG                                                                             GGGG         GGGG                                                                                               ",
"                                                                                                                        GGGG                                                                                                                                                                                                                                                       GGGG                           GGGG         GGGG                                                                             GGGG         GGGG                                                                                               ",
"                                                                                                                        GGGG                                                                                                                                                                                                                                                       GGGG                           GGGG         GGGG                                                                             GGGG         GGGG                                                                                               ",
"                                                                                                                        GGGG                                                                                                                                                                                                                                                       GGGG                           GGGG         GGGG                                                                             GGGG         GGGG                                                                                               ",
"                                         GGGGGGG       GGGG  GGGG      GGGGGGG       GGG GGG  GGG       GGGGGGG         GGGG            GGGGGG                        GGGGGGG         GGG  GGGGG       GGGGGG                     GGG GGG  GGG        GGGGGG        GGG  GGGGG       GGGGGG                         GGGGGG         GGGG  GGGG   GGGG    GGG       GGGGGGG          GGGG                       GGGGGGGGGGGGG    GGGG  GGGG       GGGGGGG       GGGG  GGGG                        GGGGGG      GGGGGGGGGGGGG    GGGG  GGGG        GGGGGG         GGG  GGGGG       GGGGGG                                           ",
"                                        GGGGGGGGGG     GGGGGGGGGGG     GGGGGGG       GGGGGGGGGGGGG     GGGGGGGGGG       GGGG          GGGGGGGGGG                     GGGGGGGGGG       GGG GGGGGGG    GGGGGGGGG                    GGGGGGGGGGGGG     GGGGGGGGG       GGG GGGGGGG    GGGGGGGGG                      GGGGGGGGG       GGGGGG GGGG   GGGG    GGG      GGGGGGGGGG        GGGG                       GGGGGGGGGGGGG    GGGGGGGGGGG     GGGGGGGGGG     GGGGGGGGGGG                     GGGGGGGGG     GGGGGGGGGGGGG    GGGGGGGGGGG     GGGGGGGGG        GGG GGGGGGG    GGGGGGGGGG                                         ",
"                                        GGGGGGGGGG     GGGGGGGGGGG     GGGGGGG       GGGGGGGGGGGGG     GGGGGGGGGG       GGGG          GGGGGGGGGG                     GGGGGGGGGG       GGGGGGGGGGG    GGGGGGGGGG                   GGGGGGGGGGGGG     GGGGGGGGGG      GGGGGGGGGGG    GGGGGGGGGG                     GGGGGGGGGG     GGGGGGGGGGGG   GGGG    GGG      GGGGGGGGGG        GGGG                       GGGGGGGGGGGGG    GGGGGGGGGGG     GGGGGGGGGG     GGGGGGGGGGG                     GGGGGGGGGG    GGGGGGGGGGGGG    GGGGGGGGGGG     GGGGGGGGGG       GGGGGGGGGGG    GGGGGGGGGG                                         ",
"                                        G      GGGG    GGGGG  GGGG        GGGG       GGG  GGGG GGGG    G      GGGG      GGGG         GGGG     GG                     G      GGGG      GGGGG    GG   GGGG    GGGG                  GGG  GGGG GGGG   GGGG   GGGGG     GGGGG    GG   GGGG    GGGG                   GGGG    GGGG    GGGG   GGGGG   GGGG    GGG      G      GGGG       GGGG                           GGGG         GGGGG  GGGG     G      GGGG    GGGGG  GGGG                    GGGG   GGGGG       GGGG         GGGGG  GGGG    GGGG    GGGG      GGGGG    GG   GGGG     GG                                         ",
"                                               GGGG    GGGG    GGGG       GGGG       GGG  GGG   GGG           GGGG      GGGG         GGGG                                   GGGG      GGGG          GGG     GGGG                  GGG  GGG   GGG   GGGG    GGGG     GGGG          GGG     GGGG                   GGG     GGGG   GGGG     GGGG   GGGG    GGG             GGGG       GGGG                           GGGG         GGGG    GGGG           GGGG    GGGG    GGGG                   GGGG    GGGG       GGGG         GGGG    GGGG   GGG     GGGG      GGGG          GGGG                                                ",
"                                         GGGGGGGGGG    GGGG    GGGG       GGGG       GGG  GGG   GGG     GGGGGGGGGG      GGGG         GGGGGG                           GGGGGGGGGG      GGGG         GGGG      GGG                  GGG  GGG   GGG  GGGG     GGGG     GGGG         GGGG      GGG                  GGGG      GGG   GGGG     GGGG   GGGG    GGG       GGGGGGGGGG       GGGG                           GGGG         GGGG    GGGG     GGGGGGGGGG    GGGG    GGGG                  GGGG     GGGG       GGGG         GGGG    GGGG  GGGG      GGG      GGGG          GGGGGG                                              ",
"                                       GGGGGGGGGGGG    GGGG    GGGG       GGGG       GGG  GGG   GGG   GGGGGGGGGGGG      GGGG          GGGGGGGGG                     GGGGGGGGGGGG      GGG          GGGGGGGGGGGGGG                 GGG  GGG   GGG  GGGG      GGG     GGG          GGGGGGGGGGGGGG                 GGGGGGGGGGGGGG  GGGG     GGGG   GGGG    GGG     GGGGGGGGGGGG       GGGG                           GGGG         GGGG    GGGG   GGGGGGGGGGGG    GGGG    GGGG                  GGGG      GGG       GGGG         GGGG    GGGG  GGGGGGGGGGGGGG     GGG            GGGGGGGGG                                          ",
"                                       GGGGGGGGGGGG    GGGG    GGGG       GGGG       GGG  GGG   GGG   GGGGGGGGGGGG      GGGG            GGGGGGGG                    GGGGGGGGGGGG      GGG          GGGGGGGGGGGGGG                 GGG  GGG   GGG  GGGG      GGG     GGG          GGGGGGGGGGGGGG                 GGGGGGGGGGGGGG  GGGG     GGGG   GGGG    GGG     GGGGGGGGGGGG       GGGG                           GGGG         GGGG    GGGG   GGGGGGGGGGGG    GGGG    GGGG                  GGGG      GGG       GGGG         GGGG    GGGG  GGGGGGGGGGGGGG     GGG              GGGGGGGG                                         ",
"                                      GGGGG    GGGG    GGGG    GGGG       GGGG       GGG  GGG   GGG  GGGGG    GGGG      GGGG               GGGGG                   GGGGG    GGGG      GGG          GGGGGGGGGGGGGG                 GGG  GGG   GGG  GGGG     GGGG     GGG          GGGGGGGGGGGGGG                 GGGGGGGGGGGGGG  GGGG     GGGG   GGGG    GGG    GGGGG    GGGG       GGGG                           GGGG         GGGG    GGGG  GGGGG    GGGG    GGGG    GGGG                  GGGG     GGGG       GGGG         GGGG    GGGG  GGGGGGGGGGGGGG     GGG                 GGGGG                                         ",
"                                      GGGG     GGGG    GGGG    GGGG       GGGG       GGG  GGG   GGG  GGGG     GGGG      GGGG                 GGG                   GGGG     GGGG      GGG           GGG                           GGG  GGG   GGG   GGGG    GGGG     GGG           GGG                            GGG            GGGG     GGGG   GGGG   GGGG    GGGG     GGGG       GGGG                           GGGG         GGGG    GGGG  GGGG     GGGG    GGGG    GGGG                   GGGG    GGGG       GGGG         GGGG    GGGG   GGG               GGG                   GGG                                         ",
"                                      GGGGG   GGGGG    GGGG    GGGG       GGGG       GGG  GGG   GGG  GGGGG   GGGGG      GGGG         GG      GGG                   GGGGG   GGGGG      GGG           GGGG      GG                  GGG  GGG   GGG   GGGG   GGGGG     GGG           GGGG      GG                   GGGG      GG    GGGG   GGGGG   GGGG   GGGG    GGGGG   GGGGG       GGGG                           GGGG         GGGG    GGGG  GGGGG   GGGGG    GGGG    GGGG                   GGGG   GGGGG       GGGG         GGGG    GGGG   GGGG      GG      GGG           GG      GGG                                         ",
"                                       GGGGGGGGGGGG    GGGG    GGGG   GGGGGGGGGGGGG  GGG  GGG   GGG   GGGGGGGGGGGG      GGGGGGGGG    GGGGGGGGGGG                    GGGGGGGGGGGG      GGG           GGGGGGGGGGGG                  GGG  GGG   GGG    GGGGGGGGGG      GGG           GGGGGGGGGGGG                   GGGGGGGGGGGG    GGGGGGGGGGGG   GGGGGGGGGGG     GGGGGGGGGGGG       GGGGGGGGG                      GGGGGGGGG    GGGG    GGGG   GGGGGGGGGGGG    GGGG    GGGG                    GGGGGGGGGG        GGGGGGGGG    GGGG    GGGG   GGGGGGGGGGGG      GGG           GGGGGGGGGGG                                         ",
"                                       GGGGGGGGGGGG    GGGG    GGGG   GGGGGGGGGGGGG  GGG  GGG   GGG   GGGGGGGGGGGG       GGGGGGGG    GGGGGGGGGGG                    GGGGGGGGGGGG      GGG            GGGGGGGGGGG                  GGG  GGG   GGG    GGGGGGGGG       GGG            GGGGGGGGGGG                    GGGGGGGGGGG     GGGGGG GGGG    GGGGGGGGGG     GGGGGGGGGGGG        GGGGGGGG                       GGGGGGGG    GGGG    GGGG   GGGGGGGGGGGG    GGGG    GGGG                    GGGGGGGGG          GGGGGGGG    GGGG    GGGG    GGGGGGGGGGG      GGG           GGGGGGGGGGG                                         ",
"                                         GGGG  GGGG    GGGG    GGGG   GGGGGGGGGGGGG  GGG  GGG   GGG     GGGG  GGGG        GGGGGGG      GGGGGGG                        GGGG  GGGG      GGG              GGGGGGG                    GGG  GGG   GGG      GGGGGG        GGG              GGGGGGG                        GGGGGGG        GGGG  GGGG     GGGG  GGG       GGGG  GGGG         GGGGGGG                        GGGGGGG    GGGG    GGGG     GGGG  GGGG    GGGG    GGGG                      GGGGGG            GGGGGGG    GGGG    GGGG      GGGGGGG        GGG             GGGGGGG                                           ",
"                                                                                                                                                                                                                                                                                                                                         GGGG                                                                                                                                                                                                                                                                                   ",
"                                                                                                                                                                                                                                                                                                                                         GGGG                                                                                                                                                                                                                                                                                   ",
"                                                                                                                                                                                                                                                                                                                                         GGGG                                                                                                                                                                                                                                                                                   ",
"                                                                                                                                                                                                                                                                                                                                         GGGG                                                                                                                                                                                                                                                                                   ",
"                                                                                                                                                                                                                                                                                                                                         GGGG                                                                                                                                                                                                                                                                                   ",
"                                                                                                                                                                                                                                                                                                                                                                                                                                                                                                                                                                                                                                ",
"                                                                                                                                                                                                                                                                                                                                                                                                                                                                                                                                                                                                                                ",
"                                                                                                                                                                                                                                                                                                                                                                                                                                                                                                                                                                                                                                ",
"                                                                                                                                                                                                                                                                                                                                                                                                                                                                                                                                                                                                                                ",
"                                                                                                                                                                                                                                                                                                                                                                                                                                                                                                                                                                                                                                ",
"                                                                                                                                                                                                                                                                                                                                                                                                                                                                                                                                                                                                                                ",
"                                                                                                                                                                                                                                                                                                                                                                                                                                                                                                                                                                                                                                ",
"                                                                                                                                                                                                                                                                                                                                                                                                                                                                                                                                                                                                                                ",
"                                                                                                                                                                                                                                                                                                                                                                                                                                                                                                                                                                                                                                ",
"                                                                                                                                                                                                                                                                                                                                                                                                                                                                                                                                                                                                                                ",
"                                                                                                                                                                                                                                                                                                                                                                                                                                                                                                                                                                                                                                ",
"                                                                                                                                                                                                                                                                                                                                                                                                                                                                                                                                                                                                                                ",
"                                                                                                                                                                                                                                                                                                                                                                                                                                                                                                                                                                                                                                ",
"                                                                                                                                                                                                                                                                                                                                                                                                                                                                                                                                                                                                                                ",
"                                                                                                                                                                                                                                                                                                                                                                                                                                                                                                                                                                                                                                ",
"                                                                                                                                                                                                                                                                                                                                                                                                                                                                                                                                                                                                                                ",
"                                                                                                                                                                                                                                                                                                                                                                                                                                                                                                                                                                                                                                ",
"                                                                                                                                                                                                                                                                                                                                                                                                                                                                                                                                                                                                                                ",
"                                                                                                                                                                                                                                                                                                                                                                                                                                                                                                                                                                                                                                ",
"                                                                                                                                                                                                                                                                                                                                                                                                                                                                                                                                                                                                                                ",
"                                                                                                                                                                                                                                                                                                                                                                                                                                                                                                                                                                                                                                ",
"                                                                                                                                                                                                                                                                                                                                                                                                                                                                                                                                                                                                                                ",
"                                                                                                                                                                                                                                                                                                                                                                                                                                                                                                                                                                                                                                ",
"                                                                                                                                                                                                                                                                                                                                                                                                                                                                                                                                                                                                                                ",
"                                                                                                                                                                                                                                                                                                                                                                                                                                                                                                                                                                                                                                ",
"                                                                                                                                                                                                                                                                                                                                                                                                                                                                                                                                                                                                                                ",
"                                                                                                                                                                                                                                                                                                                                                                                                                                                                                                                                                                                                                                ",
"                                                                                                                                                                                                                                                                                                                                                                                                                                                                                                                                                                                                                                ",
"                                                                                                                                                                                                                                                                                                                                                                                                                                                                                                                                                                                                                                ",
"                                                                                                                                                                                                                                                                                                                                                                                                                                                                                                                                                                                                                                "
};
