/* XPM */
static char *tuto_11[] = {
"608 120 4 1",
"  c #000000",
"G c #70DD99",
"B c #3399FF",
"R c #FF0000",
"                                                                                                                                                                                                                                                                                                                                                                                                                                                                                                                                                                                                                                ",
"                                                                                                                                                                                                                                                                                                                                                                                                                                                                                                                                                                                                                                ",
"                                                                                                                                                                                                                                                                                                                                                                                                                                                                                                                                                                                                                                ",
"                                                                                                                                                                                                                                                                                                                                                                                                                                                                                                                                                                                                                                ",
"                                                                                                                                                                                                                                                                                                                                                                                                                                                                                                                                                                                                                                ",
"                                                                                                                                                                                                                                                                                                                                                                                                                                                                                                                                                                                                                                ",
"                                                                                                                                                                                                                                                                                                                                                                                                                                                                                                                                                                                                                                ",
"                                                                                                                                                                                                                                                                                                                                                                                                                                                                                                                                                                                                                                ",
"                                                                                                                                                                                                                                                                                                                                                                                                                                                                                                                                                                                                                                ",
"                                                                                                                                                                                                                                                                                                                                                                                                                                                                                                                                                                                                                                ",
"                                                                                                                                                                                                                                                                                                                                                                                                                                                                                                                                                                                                                                ",
"                                                                                                                                                                                                                                                                                                                                                                                                                                                                                                                                                                                                                                ",
"                                                                                                                                                                                                                                                                                                                                                                                                                                                                                                                                                                                                                                ",
"                                                                                                                                                                                                                                                                                                                                                                                                                                                                                                                                                                                                                                ",
"                                                                                                                                                                                                                                                                                                                                                                                                                                                                                                                                                                                                                                ",
"                                                                                                                                                                                                                                                                                                                                                                                                                                                                                                                                                                                                                                ",
"                                                                                                                                                                                                                                                                                                                                                                                                                                                                                                                                                                                                                                ",
"                                                                                                                                                                                                                                                                                                                                                                                                                                                                                                                                                                                                                                ",
"                                                                                                                                                                                                                                                                                                                                                                                                                                                                                                                                                                                                                                ",
"                                                                                                                                                                                                                                                                                                                                                                                                                                                                                                                                                                                                                                ",
"                                                                                                                                                                                                                                                                                                                                                                                                                                                                                                                                                                                                                                ",
"                                                                                                                                                                                                                                                                                                                                                                                                                                                                                                                                                                                                                                ",
"                                                                                                                                                                                                                                                                                                                                                                                                                                                                                                                                                                                                                                ",
"                                                                                                                                                                                                                                                                                                                                                                                                                                                                                                                                                                                                                                ",
"                                                                                                                                                                                                                                                                                                                                                                                                                                                                                                                                                                                                                                ",
"                                                                                                                                                                                                                                                                                                                                                                                                                                                                                                                                                                                                                                ",
"                                                                                                                                                                                                                                                                                                                                                                                                                                                                                                                                                                                                                                ",
"                                                                                                                                                                                                                                                                                                                                                                                                                                                                                                                                                                                                                                ",
"                                                                                                                                                                                                                                                                               GGGG                                                                                                                                                                                        GGGG                           GGGG                                                           GGGG                                                   ",
"                                                                                                              GGGG                                                                                                                                         GGGG                GGGG                                                                                                                                                                                        GGGG                           GGGG                                                           GGGG                                                   ",
"                              GGG         GGGG                                                                GGGG                                                                                                                                         GGGG                GGGG                                                                                                                                                                                        GGGG                           GGGG                                                           GGGG                                                   ",
"                              GGG         GGG                                                     GGGG        GGGG                                                                                                                             GGGG        GGGG                GGGG                                                                                                                                                                                        GGGG          GGGG             GGGG                                                           GGGG                                                   ",
"                              GGGG        GGG                                                     GGGG        GGGG                                                                                                                             GGGG        GGGG                                                                                                                                                                                                                          GGGG                                                                                                                                   ",
"                              GGGG        GGG                                                     GGGG        GGGG                                                                                                                             GGGG        GGGG                                                                                                                                                                                                                          GGGG                                                                                                                                   ",
"                               GGG        GGG                                                     GGGG        GGGG                                                                                                                             GGGG        GGGG                                                                                                                                                                                                                          GGGG                                                                                                                                   ",
"                               GGG  GGG   GGG     GGGGGGG         GGGGGG                      GGGGGGGGGGGGG   GGGG  GGGG         GGGGGG         GGG  GGGGG      GGGGGG                         GGGGGGG      GGGG  GGGG     GGGG      GGGG  GGGGGGGGGGGGG   GGGG  GGGG       GGGGGGG        GGGG  GGGG       GGGGG GGGG                  GGG GGG  GGG        GGGGGG         GGG  GGGGG      GGGGGG                          GGGGGG     GGGGG    GGGG        GGGGGG       GGGGGGG      GGGGGGGGGGGGG     GGGGGGG        GGGG  GGGG       GGGGG GGGG                     GGGGGGG       GGGG  GGGG                                  ",
"                               GGG  GGGG  GGG    GGGGGGGGGG     GGGGGGGGGG                    GGGGGGGGGGGGG   GGGGGGGGGGG      GGGGGGGGG        GGG GGGGGGG   GGGGGGGGG                       GGGGGGGGGG    GGGGGGGGGGG    GGGG     GGGG   GGGGGGGGGGGGG   GGGGGGGGGGG      GGGGGGG        GGGGGGGGGGG     GGGGGGGGGGG                  GGGGGGGGGGGGG     GGGGGGGGG        GGG GGGGGGG   GGGGGGGGG                       GGGGGGGGG     GGGG   GGGG       GGGGGGGGG      GGGGGGG      GGGGGGGGGGGGG     GGGGGGG        GGGGGGGGGGG     GGGGGGGGGGG                     GGGGGGG       GGGGGGGGGGG                                 ",
"                               GGG  GGGG  GGG    GGGGGGGGGG     GGGGGGGGGG                    GGGGGGGGGGGGG   GGGGGGGGGGG      GGGGGGGGGG       GGGGGGGGGGG   GGGGGGGGGG                      GGGGGGGGGG    GGGGGGGGGGG     GGGG    GGGG   GGGGGGGGGGGGG   GGGGGGGGGGG      GGGGGGG        GGGGGGGGGGG    GGGGGGGGGGGG                  GGGGGGGGGGGGG     GGGGGGGGGG       GGGGGGGGGGG   GGGGGGGGGG                      GGGGGGGGGG     GGGG  GGGG      GGGGGGGGGG      GGGGGGG      GGGGGGGGGGGGG     GGGGGGG        GGGGGGGGGGG    GGGGGGGGGGGG                     GGGGGGG       GGGGGGGGGGG                                 ",
"                               GGG  GGGG  GGG    G      GGGG   GGGG     GG                        GGGG        GGGGG  GGGG     GGGG    GGGG      GGGGG    GG  GGGG    GGGG                     G      GGGG   GGGGG  GGGG     GGGG    GGGG       GGGG        GGGGG  GGGG         GGGG        GGGGG  GGGG    GGGG   GGGGG                  GGG  GGGG GGGG   GGGG   GGGGG      GGGGG    GG  GGGG    GGGG                    GGGG    GGGG     GGG GGGG       GGGGG    G         GGGG          GGGG             GGGG        GGGGG  GGGG    GGGG   GGGGG                        GGGG       GGGGG  GGGG                                 ",
"                               GGG GGGGG  GGG           GGGG   GGGG                               GGGG        GGGG    GGGG    GGG     GGGG      GGGG         GGG     GGGG                            GGGG   GGGG    GGGG     GGG   GGGG        GGGG        GGGG    GGGG        GGGG        GGGG    GGGG   GGGG    GGGG                  GGG  GGG   GGG   GGGG    GGGG      GGGG         GGG     GGGG                    GGG     GGGG     GGGGGGG       GGGGG               GGGG          GGGG             GGGG        GGGG    GGGG   GGGG    GGGG                        GGGG       GGGG    GGGG                                ",
"                               GGG GGGGGG GG      GGGGGGGGGG   GGGGGG                             GGGG        GGGG    GGGG   GGGG      GGG      GGGG        GGGG      GGG                      GGGGGGGGGG   GGGG    GGGG     GGGG  GGGG        GGGG        GGGG    GGGG        GGGG        GGGG    GGGG  GGGG     GGGG                  GGG  GGG   GGG  GGGG     GGGG      GGGG        GGGG      GGG                   GGGG      GGG      GGGGGG       GGGG                GGGG          GGGG             GGGG        GGGG    GGGG  GGGG     GGGG                        GGGG       GGGG    GGGG                                ",
"                               GGG GG GGGGGG    GGGGGGGGGGGG    GGGGGGGGG                         GGGG        GGGG    GGGG   GGGGGGGGGGGGGG     GGG         GGGGGGGGGGGGGG                   GGGGGGGGGGGG   GGGG    GGGG     GGGG  GGG         GGGG        GGGG    GGGG        GGGG        GGGG    GGGG  GGGG     GGGG                  GGG  GGG   GGG  GGGG      GGG      GGG         GGGGGGGGGGGGGG                  GGGGGGGGGGGGGG      GGGG        GGGG                GGGG          GGGG             GGGG        GGGG    GGGG  GGGG     GGGG                        GGGG       GGGG    GGGG                                ",
"                                GGGGG  GGGGG    GGGGGGGGGGGG      GGGGGGGG                        GGGG        GGGG    GGGG   GGGGGGGGGGGGGG     GGG         GGGGGGGGGGGGGG                   GGGGGGGGGGGG   GGGG    GGGG      GGG GGGG         GGGG        GGGG    GGGG        GGGG        GGGG    GGGG  GGGG     GGGG                  GGG  GGG   GGG  GGGG      GGG      GGG         GGGGGGGGGGGGGG                  GGGGGGGGGGGGGG     GGGGG        GGGG                GGGG          GGGG             GGGG        GGGG    GGGG  GGGG     GGGG                        GGGG       GGGG    GGGG                                ",
"                                GGGGG  GGGGG   GGGGG    GGGG         GGGGG                        GGGG        GGGG    GGGG   GGGGGGGGGGGGGG     GGG         GGGGGGGGGGGGGG                  GGGGG    GGGG   GGGG    GGGG      GGGGGGGG         GGGG        GGGG    GGGG        GGGG        GGGG    GGGG  GGGG     GGGG                  GGG  GGG   GGG  GGGG     GGGG      GGG         GGGGGGGGGGGGGG                  GGGGGGGGGGGGGG     GGGGGG       GGGG                GGGG          GGGG             GGGG        GGGG    GGGG  GGGG     GGGG                        GGGG       GGGG    GGGG                                ",
"                                GGGGG  GGGGG   GGGG     GGGG           GGG                        GGGG        GGGG    GGGG    GGG               GGG          GGG                            GGGG     GGGG   GGGG    GGGG       GGGGGG          GGGG        GGGG    GGGG        GGGG        GGGG    GGGG   GGGG    GGGG                  GGG  GGG   GGG   GGGG    GGGG      GGG          GGG                             GGG              GGGGGGGG      GGGGG               GGGG          GGGG             GGGG        GGGG    GGGG   GGGG    GGGG                        GGGG       GGGG    GGGG                                ",
"                                GGGGG  GGGGG   GGGGG   GGGGG   GG      GGG                        GGGG        GGGG    GGGG    GGGG      GG      GGG          GGGG      GG                   GGGGG   GGGGG   GGGG    GGGG       GGGGGG          GGGG        GGGG    GGGG        GGGG        GGGG    GGGG   GGGG   GGGGG                  GGG  GGG   GGG   GGGG   GGGGG      GGG          GGGG      GG                    GGGG      GG    GGGG  GGG       GGGGG    G         GGGG          GGGG             GGGG        GGGG    GGGG   GGGG   GGGGG                        GGGG       GGGG    GGGG                                ",
"                                GGGG   GGGGG    GGGGGGGGGGGG   GGGGGGGGGGG                        GGGGGGGGG   GGGG    GGGG    GGGGGGGGGGGG      GGG          GGGGGGGGGGGG                    GGGGGGGGGGGG   GGGG    GGGG       GGGGG           GGGGGGGGG   GGGG    GGGG    GGGGGGGGGGGGG   GGGG    GGGG   GGGGGGGGGGGG                  GGG  GGG   GGG    GGGGGGGGGG       GGG          GGGGGGGGGGGG                    GGGGGGGGGGGG   GGGGG  GGGG      GGGGGGGGGG     GGGGGGGGGGGGG     GGGGGGGGG    GGGGGGGGGGGGG   GGGG    GGGG   GGGGGGGGGGGG                    GGGGGGGGGGGGG  GGGG    GGGG                                ",
"                                GGGG    GGGG    GGGGGGGGGGGG   GGGGGGGGGGG                         GGGGGGGG   GGGG    GGGG     GGGGGGGGGGG      GGG           GGGGGGGGGGG                    GGGGGGGGGGGG   GGGG    GGGG        GGGG            GGGGGGGG   GGGG    GGGG    GGGGGGGGGGGGG   GGGG    GGGG    GGGGGGGGGGG                  GGG  GGG   GGG    GGGGGGGGG        GGG           GGGGGGGGGGG                     GGGGGGGGGGG   GGGG    GGGG      GGGGGGGGG     GGGGGGGGGGGGG      GGGGGGGG    GGGGGGGGGGGGG   GGGG    GGGG    GGGGGGGGGGG                    GGGGGGGGGGGGG  GGGG    GGGG                                ",
"                                GGGG    GGGG      GGGG  GGGG     GGGGGGG                            GGGGGGG   GGGG    GGGG       GGGGGGG        GGG             GGGGGGG                        GGGG  GGGG   GGGG    GGGG        GGGG             GGGGGGG   GGGG    GGGG    GGGGGGGGGGGGG   GGGG    GGGG     GGGGG GGGG                  GGG  GGG   GGG      GGGGGG         GGG             GGGGGGG                         GGGGGGG    GGGG     GGGGG       GGGGGG      GGGGGGGGGGGGG       GGGGGGG    GGGGGGGGGGGGG   GGGG    GGGG     GGGGG GGGG                    GGGGGGGGGGGGG  GGGG    GGGG                                ",
"                                                                                                                                                                                                                                GGG                                                                               GGGG                                                                                                                                                                                                                       GGGG                                                                               ",
"                                                                                                                                                                                                                               GGGG                                                                        G     GGGGG                                                                                                                                                                                                                G     GGGGG                                                                               ",
"                                                                                                                                                                                                                            GGGGGG                                                                         GGGGGGGGGG                                                                                                                                                                                                                 GGGGGGGGGG                                                                                ",
"                                                                                                                                                                                                                            GGGGGG                                                                         GGGGGGGGG                                                                                                                                                                                                                  GGGGGGGGG                                                                                 ",
"                                                                                                                                                                                                                            GGGG                                                                            GGGGGGG                                                                                                                                                                                                                    GGGGGGG                                                                                  ",
"                                                                                                                                                                                                                                                                                                                                                                                                                                                                                                                                                                                                                                ",
"                                                                                                                                                                                                                                                                                                                                                                                                                                                                                                                                                                                                                                ",
"                                                                                                                                                                                                                                                                                                                                                                                                                                                                                                                                                                                                                                ",
"                                                                                                                                                                                                                                                                                                                                                                                                                                                                                                                                                                                                                                ",
"                                                                                                                                                                                                                                                                                                                                                                                                                                                                                                                                                                                                                                ",
"                                                                                                                                                                                                                                                                                                                                                                                                                                                                                                                                                                                                                                ",
"                                                                                                                                                                                                                                                                                                                                                                                                                                                                                                                                                                                                                                ",
"                                                                                                                                                                                                                                                                                                                                                                                                                                                                                                                                                                                                                                ",
"                                                                                                                                                                                                                                                                                                                                                                                                                                                                                                                                                                                                                                ",
"                                                                                                                                                                                                                                                                                                                                                                                                                                                                                                                                                                                                                                ",
"                                                                                                                  GGGG                                                                                                                                                                                                       GGGG                                                                                                                                                                                                                                                                                               ",
"                                                                                             GGGGGGGG             GGGG             GGGGGG                                                   GGGG                                                                                                          GGGG               GGGG                                                                                                                                                                                                                                                                                               ",
"                                                                                             GGGGGGGG             GGGG           GGGGGGGG                                                   GGGG                                                                                                          GGGG               GGGG                                                                                                                                                                                       GGGGGG                                                                                                  ",
"                                                                                             GGGGGGGG             GGGG           GGGGGGGG                                      GGGG         GGGG                                                                                                          GGGG               GGGG                                                                                                                                                                                     GGGGGGGGGG                                                                                                ",
"                                                                                                 GGGG                            GGGG                                          GGGG         GGGG                                                                                                          GGGG                                                                                                                                                                                                        GGGGGGGGGG                                                                                                ",
"                                                                                                 GGGG                            GGG                                           GGGG         GGGG                                                                                                          GGGG                                                                                                                                                                                                        GG    GGGG                                                                                                ",
"                                                                                                 GGGG                            GGG                                           GGGG         GGGG                                                                                                          GGGG                                                                                                                                                                                                               GGG                                                                                                ",
"                                                                                                 GGGG          GGGGGGG       GGGGGGGGGGGG       GGGGGG                     GGGGGGGGGGGGG    GGGG  GGGG        GGGGGGG      GGGG  GGGG                         GGGGGG         GGGGGG          GGGGGG       GGGG    GGGG    GGGGGGG        GGGG  GGGG        GGGGG GGGG                     GGGGGGG      GGGG  GGGG         GGGGGG     GGG         GGGG    GGGGGG         GGG  GGGGG       GGGGGG                             GGGG                                                                                                ",
"                                                                                                 GGGG          GGGGGGG       GGGGGGGGGGGG     GGGGGGGGG                    GGGGGGGGGGGGG    GGGGGGGGGGG      GGGGGGGGGG    GGGGGGGGGGG                      GGGGGGGGGG     GGGGGGGGG       GGGGGGGGG      GGGG   GGGG     GGGGGGG        GGGGGGGGGGG      GGGGGGGGGGG                    GGGGGGGGGG    GGGGGGGGGGG      GGGGGGGGGG   GGG         GGG   GGGGGGGGG        GGG GGGGGGG    GGGGGGGGGG                          GGGG                                                                                                 ",
"                                                                                                 GGGG          GGGGGGG       GGGGGGGGGGGG     GGGGGGGGGG                   GGGGGGGGGGGGG    GGGGGGGGGGG      GGGGGGGGGG    GGGGGGGGGGG                      GGGGGGGGGG     GGGGGGGGGG      GGGGGGGGGG     GGGG  GGGG      GGGGGGG        GGGGGGGGGGG     GGGGGGGGGGGG                    GGGGGGGGGG    GGGGGGGGGGG      GGGGGGGGGG   GGG         GGG   GGGGGGGGGG       GGGGGGGGGGG    GGGGGGGGGG                         GGGG                                                                                                  ",
"                                                                                                 GGGG             GGGG           GGG         GGGG    GGGG                      GGGG         GGGGG  GGGG      G      GGGG   GGGGG  GGGG                     GGGG     GG    GGGG    GGGG    GGGG    GGGG    GGGG GGGG          GGGG        GGGGG  GGGG     GGGG   GGGGG                    G      GGGG   GGGGG  GGGG     GGGG     GG    GGG        GGG  GGGG    GGGG      GGGGG    GG   GGGG     GG                        GGGG                                                                                                   ",
"                                                                                                 GGGG             GGGG           GGG         GGG     GGGG                      GGGG         GGGG    GGGG            GGGG   GGGG    GGGG                    GGGG           GGG     GGGG    GGG     GGGG    GGGGGGGG           GGGG        GGGG    GGGG    GGGG    GGGG                           GGGG   GGGG    GGGG    GGGG           GGG  GGG   GGG  GGG     GGGG      GGGG          GGGG                               GGG                                                                                                    ",
"                                                                                                 GGGG             GGGG           GGG        GGGG      GGG                      GGGG         GGGG    GGGG      GGGGGGGGGG   GGGG    GGGG                    GGGGGG        GGGG      GGG   GGGG      GGG    GGGGGGGG           GGGG        GGGG    GGGG   GGGG     GGGG                     GGGGGGGGGG   GGGG    GGGG    GGGGGG         GGG  GGGG  GGG GGGG      GGG      GGGG          GGGGGG                             GGG                                                                                                    ",
"                                                                                                 GGGG             GGGG           GGG        GGGGGGGGGGGGGG                     GGGG         GGGG    GGGG    GGGGGGGGGGGG   GGGG    GGGG                     GGGGGGGGG    GGGGGGGGGGGGGG  GGGGGGGGGGGGGG   GGGGGGGG           GGGG        GGGG    GGGG   GGGG     GGGG                   GGGGGGGGGGGG   GGGG    GGGG     GGGGGGGGG     GGG  GGGG  GG  GGGGGGGGGGGGGG     GGG            GGGGGGGGG                         GGG                                                                                                    ",
"                                                                                                 GGGG             GGGG           GGG        GGGGGGGGGGGGGG                     GGGG         GGGG    GGGG    GGGGGGGGGGGG   GGGG    GGGG                       GGGGGGGG   GGGGGGGGGGGGGG  GGGGGGGGGGGGGG   GGGGGGGGG          GGGG        GGGG    GGGG   GGGG     GGGG                   GGGGGGGGGGGG   GGGG    GGGG       GGGGGGGG    GGG  GGGG GGG  GGGGGGGGGGGGGG     GGG              GGGGGGGG                        GGG                                                                                                    ",
"                                                                                                 GGGG             GGGG           GGG        GGGGGGGGGGGGGG                     GGGG         GGGG    GGGG   GGGGG    GGGG   GGGG    GGGG                          GGGGG   GGGGGGGGGGGGGG  GGGGGGGGGGGGGG   GGGG  GGGG         GGGG        GGGG    GGGG   GGGG     GGGG                  GGGGG    GGGG   GGGG    GGGG          GGGGG     GG GG GG GGG  GGGGGGGGGGGGGG     GGG                 GGGGG                                                                                                                               ",
"                                                                                                 GGGG             GGGG           GGG         GGG                               GGGG         GGGG    GGGG   GGGG     GGGG   GGGG    GGGG                            GGG    GGG             GGG             GGGG  GGGG         GGGG        GGGG    GGGG    GGGG    GGGG                  GGGG     GGGG   GGGG    GGGG            GGG     GGGGG GGGGGG   GGG               GGG                   GGG                                                                                                                               ",
"                                                                                                 GGGG             GGGG           GGG         GGGG      GG                      GGGG         GGGG    GGGG   GGGGG   GGGGG   GGGG    GGGG                    GG      GGG    GGGG      GG    GGGG      GG    GGGG   GGGG        GGGG        GGGG    GGGG    GGGG   GGGGG                  GGGGG   GGGGG   GGGG    GGGG    GG      GGG     GGGGG  GGGGG   GGGG      GG      GGG           GG      GGG                        GGG                                                                                                    ",
"                                                                                                 GGGGGGGGG    GGGGGGGGGGGGG      GGG         GGGGGGGGGGGG                      GGGGGGGGG    GGGG    GGGG    GGGGGGGGGGGG   GGGG    GGGG                    GGGGGGGGGGG    GGGGGGGGGGGG    GGGGGGGGGGGG    GGGG    GGGG   GGGGGGGGGGGGG   GGGG    GGGG    GGGGGGGGGGGG                   GGGGGGGGGGGG   GGGG    GGGG    GGGGGGGGGGG     GGGGG  GGGGG   GGGGGGGGGGGG      GGG           GGGGGGGGGGG                        GGG                                                                                                    ",
"                                                                                                  GGGGGGGG    GGGGGGGGGGGGG      GGG          GGGGGGGGGGG                       GGGGGGGG    GGGG    GGGG    GGGGGGGGGGGG   GGGG    GGGG                    GGGGGGGGGGG     GGGGGGGGGGG     GGGGGGGGGGG    GGGG    GGGG   GGGGGGGGGGGGG   GGGG    GGGG     GGGGGGGGGGG                   GGGGGGGGGGGG   GGGG    GGGG    GGGGGGGGGGG     GGGG   GGGG     GGGGGGGGGGG      GGG           GGGGGGGGGGG                        GGG                                                                                                    ",
"                                                                                                   GGGGGGG    GGGGGGGGGGGGG      GGG            GGGGGGG                          GGGGGGG    GGGG    GGGG      GGGG  GGGG   GGGG    GGGG                      GGGGGGG         GGGGGGG         GGGGGGG      GGGG     GGGG  GGGGGGGGGGGGG   GGGG    GGGG      GGGGG GGGG                     GGGG  GGGG   GGGG    GGGG      GGGGGGG       GGGG   GGGG       GGGGGGG        GGG             GGGGGGG                          GGG                                                                                                    ",
"                                                                                                                                                                                                                                                                                                                                                                 GGGG                                                                                                                                                                                                                                                           ",
"                                                                                                                                                                                                                                                                                                                                                          G     GGGGG                                                                                                                                                                                                                                                           ",
"                                                                                                                                                                                                                                                                                                                                                          GGGGGGGGGG                                                                                                                                                                                                                                                            ",
"                                                                                                                                                                                                                                                                                                                                                          GGGGGGGGG                                                                                                                                                                                                                                                             ",
"                                                                                                                                                                                                                                                                                                                                                           GGGGGGG                                                                                                                                                                                                                                                              ",
"                                                                                                                                                                                                                                                                                                                                                                                                                                                                                                                                                                                                                                ",
"                                                                                                                                                                                                                                                                                                                                                                                                                                                                                                                                                                                                                                ",
"                                                                                                                                                                                                                                                                                                                                                                                                                                                                                                                                                                                                                                ",
"                                                                                                                                                                                                                                                                                                                                                                                                                                                                                                                                                                                                                                ",
"                                                                                                                                                                                                                                                                                                                                                                                                                                                                                                                                                                                                                                ",
"                                                                                                                                                                                                                                                                                                                                                                                                                                                                                                                                                                                                                                ",
"                                                                                                                                                                                                                                                                                                                                                                                                                                                                                                                                                                                                                                ",
"                                                                                                                                                                                                                                                                                                                                                                                                                                                                                                                                                                                                                                ",
"                                                                                                                                                                                                                                                                                                                                                                                                                                                                                                                                                                                                                                ",
"                                                                                                                                                                                                                                                                                                                                                                                                                                                                                                                                                                                                                                ",
"                                                                                                                                                                                                                                                                                                                                                                                                                                                                                                                                                                                                                                ",
"                                                                                                                                                                                                                                                                                                                                                                                                                                                                                                                                                                                                                                ",
"                                                                                                                                                                                                                                                                                                                                                                                                                                                                                                                                                                                                                                ",
"                                                                                                                                                                                                                                                                                                                                                                                                                                                                                                                                                                                                                                ",
"                                                                                                                                                                                                                                                                                                                                                                                                                                                                                                                                                                                                                                ",
"                                                                                                                                                                                                                                                                                                                                                                                                                                                                                                                                                                                                                                ",
"                                                                                                                                                                                                                                                                                                                                                                                                                                                                                                                                                                                                                                ",
"                                                                                                                                                                                                                                                                                                                                                                                                                                                                                                                                                                                                                                ",
"                                                                                                                                                                                                                                                                                                                                                                                                                                                                                                                                                                                                                                ",
"                                                                                                                                                                                                                                                                                                                                                                                                                                                                                                                                                                                                                                ",
"                                                                                                                                                                                                                                                                                                                                                                                                                                                                                                                                                                                                                                ",
"                                                                                                                                                                                                                                                                                                                                                                                                                                                                                                                                                                                                                                ",
"                                                                                                                                                                                                                                                                                                                                                                                                                                                                                                                                                                                                                                ",
"                                                                                                                                                                                                                                                                                                                                                                                                                                                                                                                                                                                                                                ",
"                                                                                                                                                                                                                                                                                                                                                                                                                                                                                                                                                                                                                                ",
"                                                                                                                                                                                                                                                                                                                                                                                                                                                                                                                                                                                                                                ",
"                                                                                                                                                                                                                                                                                                                                                                                                                                                                                                                                                                                                                                ",
"                                                                                                                                                                                                                                                                                                                                                                                                                                                                                                                                                                                                                                ",
"                                                                                                                                                                                                                                                                                                                                                                                                                                                                                                                                                                                                                                ",
"                                                                                                                                                                                                                                                                                                                                                                                                                                                                                                                                                                                                                                "
};
