/* XPM */
static char *tuto_12[] = {
"608 120 4 1",
"  c #000000",
"G c #70DD99",
"B c #3399FF",
"R c #FF0000",
"                                                                                                                                                                                                                                                                                                                                                                                                                                                                                                                                                                                                                                ",
"                                                                                                                                                                                                                                                                                                                                                                                                                                                                                                                                                                                                                                ",
"                                                                                                                                                                                                                                                                                                                                                                                                                                                                                                                                                                                                                                ",
"                                                                                                                                                                                                                                                                                                                                                                                                                                                                                                                                                                                                                                ",
"                                                                                                                                                                                                                                                                                                                                                                                                                                                                                                                                                                                                                                ",
"                                                                                                                                                                                                                                                                                                                                                                                                                                                                                                                                                                                                                                ",
"                                                                                                                                                                                                                                                                                                                                                                                                                                                                                                                                                                                                                                ",
"                                                                                                                                                                                                                                                                                                                                                                                                                                                                                                                                                                                                                                ",
"                                                                                                                                                                                                                                                                                                                                                                                                                                                                                                                                                                                                                                ",
"                                                                                                                                                                                                                                                                                                                                                                                                                                                                                                                                                                                                                                ",
"                                                                                                                                                                                                                                                                                                                                                                                                                                                                                                                                                                                                                                ",
"                                                                                                                                                                                                                                                                                                                                                                                                                                                                                                                                                                                                                                ",
"                                                                                                                                                                                                                                                                                                                                                                                                                                                                                                                                                                                                                                ",
"                                                                                                                                                                                                                                                                                GGGG                                                                                                                                                                                               GGGG                                                                                                                                         ",
"                                                                                                                                   GGGGGGG                                                                                                                                      GGGG                                                                                                                                                                            GGGG               GGGG                      GGGG                                GGGGGG                                                                         ",
"                                          GGGGGGGGGGG       GGG             GGG                                                    GGGGGGG                                                                                                                                      GGGG                                                                                     GGG                           GGG                                          GGG         GGGG               GGGG                      GGGG                               GGGGGGG                                                                         ",
"                                          GGGGGGGGGGG       GGG             GGG                                                    GGGGGGG                                                                                                                                      GGGG                                                                                     GGG                           GGG                                          GGG         GGGG               GGGG                      GGGG                               GGGGGGG                                                                         ",
"                                          GGGGGGGGGGG       GGG             GGG                                                        GGG                                                                                                                                                                                                                               GGG                           GGG                                          GGG         GGGG                                         GGGG                              GGGG                                                                             ",
"                                              GGG           GGG             GGG                                                        GGG                                                                                                                                                                                                                               GGG                           GGG                                          GGG         GGGG                                         GGGG                              GGGG                                                                             ",
"                                              GGG       GGGGGGGGGGGG        GGG           GGGGGG                       GGGGGGG         GGG       GGG         GGG    GGGGGGG     GGGG     GGGG      GGGGGG                         GGGGG         GGGGGGG         GGGGGG       GGGGGGG          GGGGG         GGG  GGGG                   GGGG GGGG         GGGGG      GGGGGGGGGGGG                  GGGGGGGGGGGG       GGGGG                     GGGGGGGGGGGG    GGGG GGGG       GGGGGGG       GGGG GGGG      GGGG    GGGG                   GGGGGGGGGGG       GGGGG         GGG  GGGG                                           ",
"                                              GGG       GGGGGGGGGGGG        GGG         GGGGGGGGG                    GGGGGGGGGG        GGG       GGG         GGG  GGGGGGGGGG    GGGG     GGGG    GGGGGGGGG                      GGGGGGGGG     GGGGGGGGGG      GGGGGGGGG      GGGGGGG        GGGGGGGGG       GGG GGGGGG                  GGGGGGGGGG      GGGGGGGGG    GGGGGGGGGGGG                  GGGGGGGGGGGG     GGGGGGGGG                   GGGGGGGGGGGG    GGGGGGGGGG      GGGGGGG       GGGGGGGGGG     GGGG   GGGG                    GGGGGGGGGGG     GGGGGGGGG       GGG GGGGGG                                          ",
"                                              GGG       GGGGGGGGGGGG        GGG        GGGGGGGGGG                    GGGGGGGGGGG       GGG       GGG         GGG  GGGGGGGGGGG    GGG     GGG    GGGGGGGGGG                     GGGGGGGGGGG    GGGGGGGGGGG    GGGGGGGGGG      GGGGGGG       GGGGGGGGGGG      GGGGGGGGGG                  GGGGGGGGGGG    GGGGGGGGGGG   GGGGGGGGGGGG                  GGGGGGGGGGGG    GGGGGGGGGGG                  GGGGGGGGGGGG    GGGGGGGGGGG     GGGGGGG       GGGGGGGGGGG    GGGG  GGGG                     GGGGGGGGGGG    GGGGGGGGGGG      GGGGGGGGGG                                          ",
"                                              GGG           GGG                        GGGG     G                     G     GGGG       GGG        GGG        GG    G     GGGG    GGGG   GGGG    GGGG     G                     GGGG    GGGG    G     GGGG    GGGG     G         GGGG       GGGG    GGGG     GGGGG    G                  GGGGG  GGGG    GGGG   GGGG       GGG                           GGG         GGGG   GGGG                      GGG         GGGGG  GGGG        GGGG       GGGGG  GGGG    GGGG GGGG                         GGGG        GGGG   GGGG      GGGGG    G                                          ",
"                                              GGG           GGG                        GGGG                                  GGG       GGG        GGG  GGG  GGG           GGG    GGGG   GGGG    GGGG                          GGGG     GGGG           GGG    GGGG               GGGG      GGGG     GGGG     GGGG                        GGGG   GGGG    GGG     GGGG      GGG                           GGG         GGG     GGGG                     GGG         GGGG   GGGG        GGGG       GGGG   GGGG    GGGGGGGG                          GGGG        GGG     GGGG     GGGG                                                ",
"                                              GGG           GGG                        GGGGGG                          GGGGGGGGG       GGG        GGG  GGG  GGG     GGGGGGGGG     GGG   GGG     GGGGGG                        GGGGGGGGGGGGG     GGGGGGGGG    GGGGGG             GGGG      GGGGGGGGGGGGG     GGG                         GGGG   GGGG   GGGG     GGGG      GGG                           GGG        GGGG     GGGG                     GGG         GGGG   GGGG        GGGG       GGGG   GGGG    GGGGGGG                           GGGG       GGGG     GGGG     GGG                                                 ",
"                                              GGG           GGG                         GGGGGGGG                     GGGGGGGGGGGG      GGG        GGG  GGG  GGG   GGGGGGGGGGGG    GGGG GGGG      GGGGGGGG                     GGGGGGGGGGGGG   GGGGGGGGGGGG    GGGGGGGG          GGGG      GGGGGGGGGGGGG     GGG                         GGGG    GGG   GGGG     GGGG      GGG                           GGG        GGGG     GGGG                     GGG         GGGG    GGG        GGGG       GGGG    GGG    GGGGGGGG                          GGGG       GGGG     GGGG     GGG                                                 ",
"                                              GGG           GGG                          GGGGGGGG                    GGGGGGGGGGGG      GGG        GGG GGGGG GGG   GGGGGGGGGGGG     GGG GGGG       GGGGGGGG                    GGGGGGGGGGGGG   GGGGGGGGGGGG     GGGGGGGG         GGGG      GGGGGGGGGGGGG     GGG                         GGGG    GGG   GGGG     GGGG      GGG                           GGG        GGGG     GGGG                     GGG         GGGG    GGG        GGGG       GGGG    GGG    GGGGGGGGG                         GGGG       GGGG     GGGG     GGG                                                 ",
"                                              GGG           GGG                              GGGGG                  GGGGG    GGGG      GGG         GG GG GG GGG  GGGGG    GGGG     GGGGGGG            GGGGG                   GGGG           GGGGG    GGGG         GGGGG        GGGG      GGGG              GGG                         GGGG    GGG   GGGG     GGGG      GGG                           GGG        GGGG     GGGG                     GGG         GGGG    GGG        GGGG       GGGG    GGG    GGGG  GGG                         GGGG       GGGG     GGGG     GGG                                                 ",
"                                              GGG           GGG                                GGG                  GGGG     GGGG      GGG         GGGGG GGGGG   GGGG     GGGG     GGGGGGG              GGG                   GGGG           GGGG     GGGG           GGG        GGGG      GGGG              GGG                         GGGG    GGG    GGG     GGGG      GGG                           GGG         GGG     GGGG                     GGG         GGGG    GGG        GGGG       GGGG    GGG    GGGG  GGGG                        GGGG        GGG     GGGG     GGG                                                 ",
"                                              GGG           GGGG                       GG     GGGG                  GGGG    GGGGG      GGGG        GGGGG GGGGG   GGGG    GGGGG      GGGGG       GG     GGGG                    GGGG      G   GGGG    GGGGG   GG     GGGG        GGGG       GGGG      G      GGG                         GGGG    GGG    GGGG   GGGG       GGGG                          GGGG        GGGG   GGGG                      GGGG        GGGG    GGG        GGGG       GGGG    GGG    GGGG   GGG                        GGGG        GGGG   GGGG      GGG                                                 ",
"                                          GGGGGGGGGGG       GGGGGGGG                   GGGGGGGGGGG                   GGGGGGGGGGGG      GGGGGGGG    GGGG   GGGG    GGGGGGGGGGGG      GGGGG       GGGGGGGGGGG                    GGGGGGGGGGG    GGGGGGGGGGGG   GGGGGGGGGGG    GGGGGGGGGGGG   GGGGGGGGGGG      GGG                         GGGG    GGG    GGGGGGGGGGG       GGGGGGGG                      GGGGGGGG    GGGGGGGGGGG                      GGGGGGGG    GGGG    GGG    GGGGGGGGGGGG   GGGG    GGG    GGGG   GGGG                       GGGG        GGGGGGGGGGG      GGG                                                 ",
"                                          GGGGGGGGGGG        GGGGGGG                   GGGGGGGGGG                    GGGGGGG GGGG       GGGGGGG    GGGG   GGGG    GGGGGGG GGGG       GGGG       GGGGGGGGGG                      GGGGGGGGGG    GGGGGGG GGGG   GGGGGGGGGG     GGGGGGGGGGGG    GGGGGGGGGG      GGG                         GGGG    GGG     GGGGGGGGG         GGGGGGG                       GGGGGGG     GGGGGGGGG                        GGGGGGG    GGGG    GGG    GGGGGGGGGGGG   GGGG    GGG    GGGG    GGGG                      GGGG         GGGGGGGGG       GGG                                                 ",
"                                          GGGGGGGGGGG         GGGGGG                     GGGGGGG                       GGGG  GGGG        GGGGGG    GGGG   GGGG      GGGG  GGGG       GGG          GGGGGGG                         GGGGGGG       GGGG  GGGG     GGGGGGG      GGGGGGGGGGGG      GGGGGGG       GGG                         GGGG    GGG       GGGGG            GGGGGG                        GGGGGG       GGGGG                           GGGGGG    GGGG    GGG    GGGGGGGGGGGG   GGGG    GGG    GGGG    GGGG                      GGGG           GGGGG         GGG                                                 ",
"                                                                                                                                                                                     GGG                                                                                                                                                                                                                                                                                                                                                                                                                                        ",
"                                                                                                                                                                                    GGG                                                                                                                                                                                                                                                                                                                                                                                                                                         ",
"                                                                                                                                                                                 GGGGGG                                                                                                                                                                                                                                                                                                                                                                                                                                         ",
"                                                                                                                                                                                 GGGGG                                                                                                                                                                                                                                                                                                                                                                                                                                          ",
"                                                                                                                                                                                 GGGG                                                                                                                                                                                                                                                                                                                                                                                                                                           ",
"                                                                                                                                                                                                                                                                                                                                                                                                                                                                                                                                                                                                                                ",
"                                                                                                                                                                                                                                                                                                                                                                                                                                                                                                                                                                                                                                ",
"                                                                                                                                                                                                                                                                                                                                                                                                                                                                                                                                                                                                                                ",
"                                                                                                                                                                                                                                                                                                                                                                                                                                                                                                                                                                                                                                ",
"                                                                                                                                                                                                                                                                                                                                                                                                                                                                                                                                                                                                                                ",
"                                                                                                                                                                                                                                                                                                                                                                                                                                                                                                                                                                                                                                ",
"                                                                                                                                                                                                                                                                                                                                                                                                                                                                                                                                                                                                                                ",
"                                                                                                                                                                                                                                                                                                                                                                                                                                                                                                                                                                                                                                ",
"                                                                                                                                                                                                                                                                                                                                                                                                                                                                                                                                                                                                                                ",
"                                                                                                                                                                      GGGG                                                                                                      GGGG                                                                                                                                                  GGGG                                                                                                                                                                                      ",
"                                                                                      GGGGGGG              GGGGGG                                                     GGGG                               GGG                                                                    GGGG                                                                                       GGGGGG                                  GGGG               GGGG                                                                                   GGGG                                                                               GGG             ",
"                                                                                      GGGGGGG             GGGGGGG                                  GGGGGGGGGGGG       GGGG                               GGG                                                                    GGGG                                                                                      GGGGGGG                                  GGGG               GGGG                                                                                   GGGG                                                                               GGG             ",
"                                                                                      GGGGGGG             GGGGGGG                                  GGGGGGGGGGGG       GGGG                               GGG                                                                    GGGG                                                                                      GGGGGGG                                  GGGG               GGGG                                                                                   GGGG                                                                               GGG             ",
"                                                                                          GGG            GGGG                                      GGGGGGGGGGGG                                          GGG                                                                                                                                                             GGGG                                      GGGG                                                                                                      GGGG                                                                               GGG             ",
"                                                                                          GGG            GGGG                                      GGGG                                                  GGG                                                                                                                                                             GGGG                                      GGGG                                                                                                      GGGG                                                                               GGG             ",
"               GGGGG       GGGG GGGG         GGGGG          GGGGGG         GGGGG          GGG         GGGGGGGGGGG                                  GGGG            GGGGGGG        GGGG GGGG        GGGG  GGG                     GGGGGGG                     GGGG GGGG       GGGGGGG           GGGGGG        GGGGG                         GGGGGG        GGGGGGG      GGGGGGGGGGG       GGGGG                      GGGG GGGG       GGGGGGG          GGGGG         GGG  GGGG      GGGGGGG        GGG  GGGG         GGGGGG     GGGG GGGG     GGGG     GGGG                    GGGGGGG      GGGG GGGG        GGGG  GGG             ",
"             GGGGGGGGG     GGGGGGGGGG      GGGGGGGGG      GGGGGGGGG      GGGGGGGGG        GGG         GGGGGGGGGGG                                  GGGG            GGGGGGG        GGGGGGGGGG      GGGGGG GGG                   GGGGGGGGGG                    GGGGGGGGGG      GGGGGGG         GGGGGGGGG     GGGGGGGGG                     GGGGGGGGG     GGGGGGGGGG     GGGGGGGGGGG     GGGGGGGGG                    GGGGGGGGGG      GGGGGGG        GGGGGGGGG       GGG GGGGGG   GGGGGGGGGG       GGG GGGGGG      GGGGGGGGG    GGGGGGGGGG    GGGG     GGGG                  GGGGGGGGGG     GGGGGGGGGG      GGGGGG GGG             ",
"            GGGGGGGGGGG    GGGGGGGGGGG    GGGGGGGGGGG    GGGGGGGGGG     GGGGGGGGGGG       GGG         GGGGGGGGGGG                                  GGGG            GGGGGGG        GGGGGGGGGGG    GGGGGGGGGGG                   GGGGGGGGGGG                   GGGGGGGGGGG     GGGGGGG        GGGGGGGGGG    GGGGGGGGGGG                   GGGGGGGGGG     GGGGGGGGGGG    GGGGGGGGGGG    GGGGGGGGGGG                   GGGGGGGGGGG     GGGGGGG       GGGGGGGGGGG      GGGGGGGGGG   GGGGGGGGGGG      GGGGGGGGGG     GGGGGGGGGG    GGGGGGGGGGG    GGG     GGG                   GGGGGGGGGGG    GGGGGGGGGGG    GGGGGGGGGGG             ",
"            GGGG   GGGG    GGGGG  GGGG    GGGG    GGGG   GGGG     G     GGGG    GGGG      GGG            GGGG                                      GGGGGGGGGGG        GGGG        GGGGG  GGGG    GGGG  GGGGG                    G     GGGG                   GGGGG  GGGG        GGGG        GGGG     G    GGGG    GGGG                  GGGG     G      G     GGGG       GGGG        GGGG    GGGG                  GGGGG  GGGG        GGGG       GGGG    GGGG     GGGGG    G    G     GGGG      GGGGG    G     GGGG     G    GGGGG  GGGG    GGGG   GGGG                    G     GGGG    GGGGG  GGGG    GGGG  GGGGG             ",
"            GGG     GGGG   GGGG   GGGG   GGGG     GGGG   GGGG          GGGG     GGGG      GGG            GGGG                                      GGGGGGGGGGG        GGGG        GGGG   GGGG   GGGG    GGGG                           GGG                   GGGG   GGGG        GGGG       GGGG          GGGG     GGGG                  GGGG                   GGG       GGGG       GGGG     GGGG                  GGGG   GGGG        GGGG      GGGG     GGGG     GGGG                 GGG      GGGG          GGGG           GGGG   GGGG    GGGG   GGGG                           GGG    GGGG   GGGG   GGGG    GGGG             ",
"           GGGG     GGGG   GGGG   GGGG   GGGGGGGGGGGGG   GGGGGG        GGGGGGGGGGGGG      GGG            GGGG                                      GGGGGGGGGGG        GGGG        GGGG   GGGG   GGGG    GGGG                     GGGGGGGGG                   GGGG   GGGG        GGGG       GGGG          GGGGGGGGGGGGG                  GGGGGG           GGGGGGGGG       GGGG       GGGGGGGGGGGGG                  GGGG   GGGG        GGGG      GGGGGGGGGGGGG     GGG            GGGGGGGGG      GGG           GGGG           GGGG   GGGG     GGG   GGG                      GGGGGGGGG    GGGG   GGGG   GGGG    GGGG             ",
"           GGGG     GGGG   GGGG    GGG   GGGGGGGGGGGGG    GGGGGGGG     GGGGGGGGGGGGG      GGG            GGGG                                      GGGG               GGGG        GGGG    GGG   GGGG     GGG                   GGGGGGGGGGGG                  GGGG    GGG        GGGG       GGGG          GGGGGGGGGGGGG                   GGGGGGGG      GGGGGGGGGGGG      GGGG       GGGGGGGGGGGGG                  GGGG    GGG        GGGG      GGGGGGGGGGGGG     GGG          GGGGGGGGGGGG     GGG           GGGG           GGGG    GGG     GGGG GGGG                    GGGGGGGGGGGG   GGGG    GGG   GGGG     GGG             ",
"           GGGG     GGGG   GGGG    GGG   GGGGGGGGGGGGG     GGGGGGGG    GGGGGGGGGGGGG      GGG            GGGG                                      GGGG               GGGG        GGGG    GGG   GGGG     GGG                   GGGGGGGGGGGG                  GGGG    GGG        GGGG       GGGG          GGGGGGGGGGGGG                    GGGGGGGG     GGGGGGGGGGGG      GGGG       GGGGGGGGGGGGG                  GGGG    GGG        GGGG      GGGGGGGGGGGGG     GGG          GGGGGGGGGGGG     GGG           GGGG           GGGG    GGG      GGG GGGG                    GGGGGGGGGGGG   GGGG    GGG   GGGG     GGG             ",
"           GGGG     GGGG   GGGG    GGG   GGGG                  GGGGG   GGGG               GGG            GGGG                                      GGGG               GGGG        GGGG    GGG   GGGG    GGGG                  GGGGG    GGGG                  GGGG    GGG        GGGG       GGGG          GGGG                                 GGGGG   GGGGG    GGGG      GGGG       GGGG                           GGGG    GGG        GGGG      GGGG              GGG         GGGGG    GGGG     GGG           GGGG           GGGG    GGG      GGGGGGG                    GGGGG    GGGG   GGGG    GGG   GGGG    GGGG             ",
"            GGG     GGGG   GGGG    GGG   GGGG                    GGG   GGGG               GGG            GGGG                                      GGGG               GGGG        GGGG    GGG   GGGG    GGGG                  GGGG     GGGG                  GGGG    GGG        GGGG       GGGG          GGGG                                   GGG   GGGG     GGGG      GGGG       GGGG                           GGGG    GGG        GGGG      GGGG              GGG         GGGG     GGGG     GGG           GGGG           GGGG    GGG      GGGGGGG                    GGGG     GGGG   GGGG    GGG   GGGG    GGGG             ",
"            GGGG   GGGG    GGGG    GGG    GGGG      G    GG     GGGG    GGGG      G       GGGG           GGGG           GGGGG                      GGGG               GGGG        GGGG    GGG    GGGG  GGGGG                  GGGG    GGGGG                  GGGG    GGG        GGGG        GGGG     G    GGGG      G                   GG     GGGG   GGGG    GGGGG      GGGG        GGGG      G                   GGGG    GGG        GGGG       GGGG      G      GGG         GGGG    GGGGG     GGG            GGGG     G    GGGG    GGG       GGGGG                     GGGG    GGGGG   GGGG    GGG    GGGG  GGGGG             ",
"            GGGGGGGGGGG    GGGG    GGG    GGGGGGGGGGG    GGGGGGGGGGG    GGGGGGGGGGG       GGGGGGGG       GGGG           GGGGG                      GGGG           GGGGGGGGGGGG    GGGG    GGG    GGGGGGGGGGG                   GGGGGGGGGGGG                  GGGG    GGG    GGGGGGGGGGGG    GGGGGGGGGG    GGGGGGGGGGG                   GGGGGGGGGGG    GGGGGGGGGGGG      GGGG        GGGGGGGGGGG                   GGGG    GGG    GGGGGGGGGGGG   GGGGGGGGGGG      GGG          GGGGGGGGGGGG     GGG            GGGGGGGGGG    GGGG    GGG       GGGGG                      GGGGGGGGGGGG   GGGG    GGG    GGGGGGGGGGG             ",
"             GGGGGGGGG     GGGG    GGG     GGGGGGGGGG    GGGGGGGGGG      GGGGGGGGGG        GGGGGGG       GGGG           GGGGG                      GGGG           GGGGGGGGGGGG    GGGG    GGG     GGGGGG GGG                   GGGGGGG GGGG                  GGGG    GGG    GGGGGGGGGGGG     GGGGGGGGG     GGGGGGGGGG                   GGGGGGGGGG     GGGGGGG GGGG      GGGG         GGGGGGGGGG                   GGGG    GGG    GGGGGGGGGGGG    GGGGGGGGGG      GGG          GGGGGGG GGGG     GGG             GGGGGGGGG    GGGG    GGG        GGGG                      GGGGGGG GGGG   GGGG    GGG     GGGGGG GGG             ",
"               GGGGG       GGGG    GGG       GGGGGGG       GGGGGGG         GGGGGGG          GGGGGG       GGGG           GGGGG                      GGGG           GGGGGGGGGGGG    GGGG    GGG      GGGG  GGG                     GGGG  GGGG                  GGGG    GGG    GGGGGGGGGGGG       GGGGGG        GGGGGGG                      GGGGGGG        GGGG  GGGG      GGGG           GGGGGGG                    GGGG    GGG    GGGGGGGGGGGG      GGGGGGG       GGG            GGGG  GGGG     GGG               GGGGGG     GGGG    GGG        GGG                         GGGG  GGGG   GGGG    GGG      GGGG  GGG             ",
"                                                                                                                                                                                                                                                                                                                                                                                                                                                                                                                                                GGG                                                                             ",
"                                                                                                                                                                                                                                                                                                                                                                                                                                                                                                                                               GGG                                                                              ",
"                                                                                                                                                                                                                                                                                                                                                                                                                                                                                                                                            GGGGGG                                                                              ",
"                                                                                                                                                                                                                                                                                                                                                                                                                                                                                                                                            GGGGG                                                                               ",
"                                                                                                                                                                                                                                                                                                                                                                                                                                                                                                                                            GGGG                                                                                ",
"                                                                                                                                                                                                                                                                                                                                                                                                                                                                                                                                                                                                                                ",
"                                                                                                                                                                                                                                                                                                                                                                                                                                                                                                                                                                                                                                ",
"                                                                                                                                                                                                                                                                                                                                                                                                                                                                                                                                                                                                                                ",
"                                                                                                                                                                                                                                                                                                                                                                                                                                                                                                                                                                                                                                ",
"                                                                                                                                                                                                                                                                                                                                                                                                                                                                                                                                                                                                                                ",
"                                                                                                                                                                                                                                                                                                                                                                                                                                                                                                                                                                                                                                ",
"                                                                                                                                                                                                                                                                                                                                                                                                                                                                                                                                                                                                                                ",
"                                                                                                                                                                                                                                                                                                                                                                                                                                                                                                                                                                                                                                ",
"                                                                                                                                                                                                                                                                                                                                                                                                                                                                                                                                                                                                                                ",
"                                                                                                                                                                                                                                                                                                                                                           GGGG                                                                                                                                                                                                                                                                 ",
"                                                                                                                                                                                                                                                                                                         GGGGGGG                                           GGGG                                                                                                                                                                                                                                                                 ",
"                                                                                                                                                                                                                                                                               GGG            GGG        GGGGGGG                                           GGGG                                                                                                                                                                                                                                                                 ",
"                                                                                                                                                                                                                                                                               GGG            GGG        GGGGGGG                                           GGGG                                                                                                                                                                                                                                                                 ",
"                                                                                                                                                                                                                                                                               GGG            GGG            GGG                                                                                                                                                                                                                                                                                                                ",
"                                                                                                                                                                                                                                                                               GGG            GGG            GGG                                                                                                                                                                                                                                                                                                                ",
"                                                                                                                                                                                                                                                 GGGGGG         GGGGG      GGGGGGGGGGGG   GGGGGGGGGGGG       GGG            GGGGG                       GGGGGGG       GGGG GGGG                                                                                                                                                                                                                                                 ",
"                                                                                                                                                                                                                                               GGGGGGGGG      GGGGGGGGG    GGGGGGGGGGGG   GGGGGGGGGGGG       GGG          GGGGGGGGG                     GGGGGGG       GGGGGGGGGG                                                                                                                                                                                                                                                ",
"                                                                                                                                                                                                                                              GGGGGGGGGG     GGGGGGGGGGG   GGGGGGGGGGGG   GGGGGGGGGGGG       GGG         GGGGGGGGGGG                    GGGGGGG       GGGGGGGGGGG                                                                                                                                                                                                                                               ",
"                                                                                                                                                                                                                                              GGGG     G     GGGG    GGGG      GGG            GGG            GGG         GGGG    GGGG                      GGGG       GGGGG  GGGG                                                                                                                                                                                                                                               ",
"                                                                                                                                                                                                                                              GGGG          GGGG     GGGG      GGG            GGG            GGG        GGGG     GGGG                      GGGG       GGGG   GGGG                                                                                                                                                                                                                                               ",
"                                                                                                                                                                                                                                              GGGGGG        GGGGGGGGGGGGG      GGG            GGG            GGG        GGGGGGGGGGGGG                      GGGG       GGGG   GGGG                                                                                                                                                                                                                                               ",
"                                                                                                                                                                                                                                               GGGGGGGG     GGGGGGGGGGGGG      GGG            GGG            GGG        GGGGGGGGGGGGG                      GGGG       GGGG    GGG                                                                                                                                                                                                                                               ",
"                                                                                                                                                                                                                                                GGGGGGGG    GGGGGGGGGGGGG      GGG            GGG            GGG        GGGGGGGGGGGGG                      GGGG       GGGG    GGG                                                                                                                                                                                                                                               ",
"                                                                                                                                                                                                                                                    GGGGG   GGGG               GGG            GGG            GGG        GGGG                               GGGG       GGGG    GGG                                                                                                                                                                                                                                               ",
"                                                                                                                                                                                                                                                      GGG   GGGG               GGG            GGG            GGG        GGGG                               GGGG       GGGG    GGG                                                                                                                                                                                                                                               ",
"                                                                                                                                                                                                                                              GG     GGGG    GGGG      G       GGGG           GGGG           GGGG        GGGG      G                       GGGG       GGGG    GGG                                                                                                                                                                                                                                               ",
"                                                                                                                                                                                                                                              GGGGGGGGGGG    GGGGGGGGGGG       GGGGGGGG       GGGGGGGG       GGGGGGGG    GGGGGGGGGGG                   GGGGGGGGGGGG   GGGG    GGG                                                                                                                                                                                                                                               ",
"                                                                                                                                                                                                                                              GGGGGGGGGG      GGGGGGGGGG        GGGGGGG        GGGGGGG        GGGGGGG     GGGGGGGGGG                   GGGGGGGGGGGG   GGGG    GGG                                                                                                                                                                                                                                               ",
"                                                                                                                                                                                                                                                GGGGGGG         GGGGGGG          GGGGGG         GGGGGG         GGGGGG       GGGGGGG                    GGGGGGGGGGGG   GGGG    GGG                                                                                                                                                                                                                                               ",
"                                                                                                                                                                                                                                                                                                                                                                                                                                                                                                                                                                                                                                ",
"                                                                                                                                                                                                                                                                                                                                                                                                                                                                                                                                                                                                                                ",
"                                                                                                                                                                                                                                                                                                                                                                                                                                                                                                                                                                                                                                ",
"                                                                                                                                                                                                                                                                                                                                                                                                                                                                                                                                                                                                                                ",
"                                                                                                                                                                                                                                                                                                                                                                                                                                                                                                                                                                                                                                ",
"                                                                                                                                                                                                                                                                                                                                                                                                                                                                                                                                                                                                                                ",
"                                                                                                                                                                                                                                                                                                                                                                                                                                                                                                                                                                                                                                ",
"                                                                                                                                                                                                                                                                                                                                                                                                                                                                                                                                                                                                                                ",
"                                                                                                                                                                                                                                                                                                                                                                                                                                                                                                                                                                                                                                ",
"                                                                                                                                                                                                                                                                                                                                                                                                                                                                                                                                                                                                                                ",
"                                                                                                                                                                                                                                                                                                                                                                                                                                                                                                                                                                                                                                ",
"                                                                                                                                                                                                                                                                                                                                                                                                                                                                                                                                                                                                                                ",
"                                                                                                                                                                                                                                                                                                                                                                                                                                                                                                                                                                                                                                ",
"                                                                                                                                                                                                                                                                                                                                                                                                                                                                                                                                                                                                                                ",
"                                                                                                                                                                                                                                                                                                                                                                                                                                                                                                                                                                                                                                ",
"                                                                                                                                                                                                                                                                                                                                                                                                                                                                                                                                                                                                                                ",
"                                                                                                                                                                                                                                                                                                                                                                                                                                                                                                                                                                                                                                ",
"                                                                                                                                                                                                                                                                                                                                                                                                                                                                                                                                                                                                                                ",
"                                                                                                                                                                                                                                                                                                                                                                                                                                                                                                                                                                                                                                "
};
