/* XPM */
static char *tuto_13[] = {
"608 120 4 1",
"  c #000000",
"G c #70DD99",
"B c #3399FF",
"R c #FF0000",
"                                                                                                                                                                                                                                                                                                                                                                                                                                                                                                                                                                                                                                ",
"                                                                                                                                                                                                                                                                                                                                                                                                                                                                                                                                                                                                                                ",
"                                                                                                                                                                                                                                                                                                                                                                                                                                                                                                                                                                                                                                ",
"                                                                                                                                                                                                                                                                                                                                                                                                                                                                                                                                                                                                                                ",
"                                                                                                                                                                                                                                                                                                                                                                                                                                                                                                                                                                                                                                ",
"                                                                                                                                                                                                                                                                                                                                                                                                                                                                                                                                                                                                                                ",
"                                                                                                                                                                                                                                                                                                                                                                                                                                                                                                                                                                                                                                ",
"                                                                                                                                                                                                                                                                                                                                                                                                                                                                                                                                                                                                                                ",
"                                                                                                                                                                                                                                                                                                                                                                                                                                                                                                                                                                                                                                ",
"                                                                                                                                                                                                                                                                                                                                                                                                                                                                                                                                                                                                                                ",
"                                                                                                                                                                                                                                                                                                                                                                                                                                                                                                                                                                                                                                ",
"                                                                                                                                                                                                                                                                                                                                                                                                                                                                                                                                                                                                                                ",
"                                                                                                                                                                                                                                                                                                                                                                                                                                                                                                                                                                                                                                ",
"                                                                                                                                                                                                                                                                                                                                                                                                                                                                                                                                                                                                                                ",
"                                                                                                                                                                                                                                                                                                                                                                                                                                                                                                                                                                                                                                ",
"                                                                                                                                                                                                                                                                                                                                                                                                                                                                                                                                                                                                                                ",
"                                                                                                                                                                                                                                                                                                                                                                                                                                                                                                                                                                                       GGGG                                     ",
"                                                                                                                                                                                                                                                                                                                        GGGGGG                                                                                                                                   GGGGGG                                                                      GGG                                       GGGG                                     ",
"                   GGG       GGG                                                                                                                                                                                                                                                                                        GGGGGG                                                                                                                                  GGGGGGG                                                                      GGG                                       GGGG                                     ",
"                   GGG       GGG                                                                                                 GGG                                                                                                                                                                                       GGG                                                                                         GGG                                      GGG                                                                          GGG                                       GGGG                                     ",
"                   GGG       GGG                                                                                                 GGG                                                                                                                                                                                       GGG                                                                                         GGG                                      GGG                                                                          GGG                                                                                ",
"                   GGG       GGG                                                                                                 GGG                                                                                                                                                                                       GGG                                                                                         GGG                                      GGG                                                                          GGG                                                                                ",
"                    GG  GGG  GGG    GGGGG                       GGGGG      GGGGGGG     GGG GGGG      GGG GGGG       GGGGG     GGGGGGGGGGG                  GGG  GGGG     GGGGG       GGGGGGG       GGGGG         GGGGG      GGG GGGG                    GGGGG       GGG   GGG     GGG  GGGG     GGGGG        GGGGG         GGG       GGG     GGG     GGGGG        GGGGG                      GGGGG      GGG   GGG   GGGGGGGGGGG                   GGGGG      GGGGGGGGGG                   GGGGG      GGG   GGG     GGG  GGGG                 GGG GGGG      GGGGGGG       GGGGG      GGGGGGG          GGGGG                      ",
"                    GG  GGG  GGG   GGGGGGGG                    GGGGGGG    GGGGGGGGG    GGGGGGGGG     GGGGGGGGG     GGGGGGGG   GGGGGGGGGGG                  GGGGGGGGG    GGGGGGGG    GGGGGGGGG     GGGGGGGG      GGGGGGGG    GGGGGGGGG                  GGGGGGGG     GGG   GGG     GGGGGGGGG    GGGGGGGG     GGGGGGGG       GGG       GGG     GGG    GGGGGGGG     GGGGGGGG                   GGGGGGGG    GGG   GGG   GGGGGGGGGGG                  GGGGGGGG    GGGGGGGGGG                  GGGGGGGG    GGG   GGG     GGGGGGGGG                 GGGGGGGGG    GGGGGGGGG     GGGGGGGG    GGGGGGG         GGGGGGG                     ",
"                    GG  GGG  GG   GGG   GGGG                  GGG    G    GG    GGGG   GGGG  GGG     GGGG  GGG    GGG   GGG      GGG                       GGGGG   G   GGG   GGGG   GG    GGGG   GGG    GG     GGG   GGG    GGGG  GGG                 GGG   GGG     GGG   GGG     GGGGG   G   GGG    GG    GGG   GGGG      GGG        GGG    GGG   GGG   GGGG   GGG    GG                  GGG   GGG    GGG   GGG      GGG                      GGG   GGG       GGG                     GGG   GGG    GGG   GGG     GGGGG   G                 GGGG  GGGG   GG    GGGG   GGG    GG       GGGG        GGG    G                     ",
"                    GGG GGGG GG  GGGG    GGG                 GGGG                GGG   GGG   GGG     GGG   GGG   GGGG    GGG     GGG                       GGGG       GGGG    GGG          GGG   GGG          GGGG    GGG   GGG   GGG                GGGG    GGG    GGG   GGG     GGGG        GGG         GGGG    GGG      GGG        GGG   GGG   GGGG    GGG   GGG                       GGGG    GGG   GGG   GGG      GGG                     GGGG    GGG      GGG                    GGGG    GGG   GGG   GGG     GGGG                      GGG    GGG          GGG   GGG             GGGG       GGGG                          ",
"                    GGGGGGGG GG  GGG     GGG                 GGG           GGGGGGGGG   GGG   GGGG    GGG   GGGG  GGG     GGG     GGG                       GGG        GGG     GGG    GGGGGGGGG   GGGGG        GGG     GGG   GGG   GGGG               GGG     GGG    GGG   GGG     GGG         GGGGG       GGG     GGG      GGG        GGG   GGG   GGG     GGG   GGGGG                     GGG     GGG   GGG   GGG      GGG                     GGG     GGG      GGG                    GGG     GGG   GGG   GGG     GGG                       GGG    GGG    GGGGGGGGG   GGGGG           GGGG       GGG                           ",
"                    GGGGG GG GG  GGGGGGGGGGG                 GGG          GGGGGGGGGG   GGG   GGGG    GGG   GGGG  GGG     GGG     GGG                       GGG        GGGGGGGGGGG   GGGGGGGGGG   GGGGGGGG     GGG     GGG   GGG   GGGG               GGG     GGG    GGG   GGG     GGG         GGGGGGGG    GGGGGGGGGGG      GGG         GGG  GGG   GGGGGGGGGGG   GGGGGGGG                  GGG     GGG   GGG   GGG      GGG                     GGG     GGG      GGG                    GGG     GGG   GGG   GGG     GGG                       GGG    GGG   GGGGGGGGGG   GGGGGGGG        GGGG       GGG                           ",
"                    GGGGG GGGGG  GGGGGGGGGGG                 GGG         GGGG    GGG   GGG   GGGG    GGG   GGGG  GGG     GGG     GGG                       GGG        GGGGGGGGGGG  GGGG    GGG     GGGGGGG    GGG     GGG   GGG   GGGG               GGG     GGG    GGG   GGG     GGG           GGGGGGG   GGGGGGGGGGG      GGG         GGG GGG    GGGGGGGGGGG     GGGGGGG                 GGG     GGG   GGG   GGG      GGG                     GGG     GGG      GGG                    GGG     GGG   GGG   GGG     GGG                       GGG    GGG  GGGG    GGG     GGGGGGG       GGGG       GGG                           ",
"                    GGGGG GGGGG  GGG                         GGG         GGG     GGG   GGG   GGGG    GGG   GGGG  GGG     GGG     GGG                       GGG        GGG          GGG     GGG        GGGG    GGG     GGG   GGG   GGGG               GGG     GGG    GGG   GGG     GGG              GGGG   GGG              GGG         GGG GGG    GGG                GGGG                 GGG     GGG   GGG   GGG      GGG                     GGG     GGG      GGG                    GGG     GGG   GGG   GGG     GGG                       GGG    GGG  GGG     GGG        GGGG       GGGG       GGG                           ",
"                     GGGG  GGGG  GGGG                        GGGG        GGG    GGGG   GGG   GGGG    GGG   GGGG  GGGG    GGG     GGG                       GGG        GGGG         GGG    GGGG         GGG    GGGG    GGG   GGG   GGGG               GGGG    GGG    GGG   GGG     GGG               GGG   GGGG             GGG          GGGGGG    GGGG                GGG                 GGGG    GGG   GGG   GGG      GGG                     GGGG    GGG      GGG                    GGGG    GGG   GGG   GGG     GGG                       GGG    GGG  GGG    GGGG         GGG       GGGG       GGGG                          ",
"                     GGG   GGGG   GGG      G                  GGG    G   GGGG   GGGG   GGG   GGGG    GGG   GGGG   GGG   GGG      GGGG                      GGG         GGG      G  GGGG   GGGG   G     GGG     GGG   GGG    GGG   GGGG                GGG   GGG     GGG  GGGG     GGG         G     GGG    GGG      G      GGGG         GGGGG      GGG      G   G     GGG                  GGG   GGG    GGG  GGGG      GGGG                     GGG   GGG       GGG                     GGG   GGG    GGG  GGGG     GGG                       GGGG  GGGG  GGGG   GGGG   G     GGG       GGGG        GGG    G                     ",
"                     GGG   GGGG    GGGGGGGGG                   GGGGGGG    GGGGGGGGGG   GGG   GGGG    GGG   GGGG    GGGGGGGG       GGGGGGG                  GGG          GGGGGGGGG   GGGGGGGGGG   GGGGGGGGG      GGGGGGGG    GGG   GGGG                 GGGGGGGG     GGGGGGGGG     GGG         GGGGGGGGG     GGGGGGGGG       GGGGGGG     GGGGG       GGGGGGGGG   GGGGGGGGG                   GGGGGGGG    GGGGGGGGG       GGGGGGG                  GGGGGGGG       GGG                      GGGGGGGG    GGGGGGGGG     GGG                       GGGGGGGGG    GGGGGGGGGG   GGGGGGGGG    GGGGGGGGGGG     GGGGGGG                     ",
"                     GGG   GGG      GGGGGG                      GGGGG      GGGGG GGG   GGG   GGGG    GGG   GGGG     GGGGG          GGGGGG                  GGG           GGGGGG      GGGGG GGG     GGGGG         GGGGG      GGG   GGGG                  GGGGG        GGGG GGG     GGG           GGGGG        GGGGGG          GGGGGG      GGGG        GGGGGG       GGGGG                      GGGGG       GGGG GGG        GGGGGG                   GGGGG         GGG                       GGGGG       GGGG GGG     GGG                       GGG GGGG      GGGGG GGG     GGGGG      GGGGGGGGGGG      GGGGG                      ",
"                                                                                                                                                                                                                                                                                                                                                                                                                                                                                                                                                                                                                                ",
"                                                                                                                                                                                                                                                                                                                                                                                                                                                                                                                                                                                                                                ",
"                                                                                                                                                                                                                                                                                                                                                                                                                                                                                                                                                                                                                                ",
"                                                                                                                                                                                                                                                                                                                                                                                                                                                                                                                                                                                                                                ",
"                                                                                                                                                                                                                                                                                                                                                                                                                                                                                                                                                                                                                                ",
"                                                                                                                                                                                                                                                                                                                                                                                                                                                                                                                                                                                                                                ",
"                                                                                                                                                                                                                                                                                                                                                                                                                                                                                                                                                                                                                                ",
"                                                                                                                                                                                                                                                                                                                                                                                                                                                                                                                                                                                                                                ",
"                                                                                                                                                                                                                                                                                                                                                                                                                                                                                                                                                                                                                                ",
"                                                                                                                                                                                                                                                                                                                                                                                                                                                                                                                                                                                                                                ",
"                                                                                                                                                                                                                                                                                                                                                                                                                                                                                                                                                                                                                                ",
"                                                                                                                                                                                                                                                                                                                                                                                                                                                                                                                                                                                                                                ",
"                                                                                                                                                                                                                                                                                                                                                                                                                                                                                                                                                                                                                                ",
"                 GGGG                                                              GGGG                                                               GGGG                                                                                                                                                                                                                                                       GGGG                                                                                                                                                                                                           ",
"                 GGGG                                                              GGGG                                             GGGGGG            GGGG                                                                       GGGGGG       GGGGGG                                                                                                                         GGGG                                GGGG                                                                        GGGGGG                                                                                        GGG                                  ",
"                 GGGG                                                              GGGG                                             GGGGGG            GGGG                                                              GGGG     GGGGGG       GGGGGG                                                                                                                         GGGG                                GGGG                                                                        GGGGGG                                                                                        GGG                                  ",
"                 GGGG                                                GGG           GGGG                                                GGG            GGGG        GGG                                                  GGGGG        GGG          GGG                                                                                                                         GGGG                                GGGG                                   GGG                                     GGG                                                                            GGG         GGG                                  ",
"                                                                     GGG                                                               GGG                        GGG                                                  GGGGG        GGG          GGG                                                                                                                         GGGG                                                                       GGG                                     GGG                                                                            GGG         GGG                                  ",
"                                                                     GGG                                                               GGG                        GGG                                                  GGGGGG       GGG          GGG                                                                                                                         GGGG                                                                       GGG                                     GGG                                                                            GGG         GGG                                  ",
"              GGGGGGG       GGG  GGGG     GGG  GGGG    GGGGGGG    GGGGGGGGGGG   GGGGGGG         GGGGG      GGG GGGG      GGGGGGG       GGG         GGGGGGG     GGGGGGGGGGG  GGG     GGG                               GGG GGG       GGG          GGG                    GGG        GG    GGGGG                       GGGGG      GGGGGGG     GGG GGGG                    GGGG GGGG     GGGGG                   GGGGGGG         GGGGG                  GGGGGGGGGGG     GGGGG                      GGG          GGGGG       GGGGGGG       GGG  GGGG   GGG GGGG                 GGGGGGGGGGG    GGG GGGG       GGGGG                 ",
"              GGGGGGG       GGGGGGGGG     GGGGGGGGG   GGGGGGGGG   GGGGGGGGGGG   GGGGGGG        GGGGGGGG    GGGGGGGGG    GGGGGGGGG      GGG         GGGGGGG     GGGGGGGGGGG  GGG     GGG                               GGG GGG       GGG          GGG                    GGG       GGG   GGGGGGGG                    GGGGGGG    GGGGGGGGG    GGGGGGGGG                  GGGGGGGGGG    GGGGGGGG                 GGGGGGG        GGGGGGGG                GGGGGGGGGGG    GGGGGGGG                    GGG         GGGGGGGG    GGGGGGGGG      GGGGGGGGG   GGGGGGGGG                GGGGGGGGGGG    GGGGGGGGG     GGGGGGGG               ",
"                 GGGG       GGGGG   G     GGGGG   G   GG    GGGG     GGG           GGGG       GGG   GGG    GGGG  GGG    GG    GGGG     GGG            GGGG        GGG        GGG   GGGG                               GGG  GG       GGG          GGG                    GGG       GGG  GGG   GGGG                  GGG    G    GG    GGGG   GGGG  GGG                  GGG  GGGGG   GGG   GGG                    GGGG       GGG    GG                   GGG        GGG   GGG                    GGG        GGG   GGGG   GG    GGGG     GGGGG   G   GGGG  GGG                   GGG         GGGG  GGG    GGG   GGGG              ",
"                 GGGG       GGGG          GGGG               GGG     GGG           GGGG      GGGG    GGG   GGG   GGG           GGG     GGG            GGGG        GGG        GGG   GGG                                GG   GGG      GGG          GGG                     GG  GGG  GGG GGGG    GGG                 GGGG                GGG   GGG   GGG                 GGGG   GGGG  GGGG    GGG                   GGGG       GGG                         GGG       GGGG    GGG                   GGG       GGGG    GGG          GGG     GGGG        GGG   GGG                   GGG         GGG   GGG   GGGG    GGG              ",
"                 GGGG       GGG           GGG          GGGGGGGGG     GGG           GGGG      GGG     GGG   GGG   GGGG    GGGGGGGGG     GGG            GGGG        GGG        GGGG  GGG                               GGG   GGG      GGG          GGG                     GG  GGG  GG  GGG     GGG                 GGG           GGGGGGGGG   GGG   GGGG                GGG    GGGG  GGG     GGG                   GGGG       GGGGG                       GGG       GGG     GGG                   GGG       GGG     GGG    GGGGGGGGG     GGG         GGG   GGGG                  GGG         GGG   GGGG  GGG     GGG              ",
"                 GGGG       GGG           GGG         GGGGGGGGGG     GGG           GGGG      GGG     GGG   GGG   GGGG   GGGGGGGGGG     GGG            GGGG        GGG         GGG GGGG                               GGGGGGGGG      GGG          GGG                     GG  GGG  GG  GGGGGGGGGGG                 GGG          GGGGGGGGGG   GGG   GGGG                GGG    GGGG  GGG     GGG                   GGGG       GGGGGGGG                    GGG       GGG     GGG                   GGG       GGGGGGGGGGG   GGGGGGGGGG     GGG         GGG   GGGG                  GGG         GGG   GGGG  GGGGGGGGGGG              ",
"                 GGGG       GGG           GGG        GGGG    GGG     GGG           GGGG      GGG     GGG   GGG   GGGG  GGGG    GGG     GGG            GGGG        GGG         GGG GGG                                GGGGGGGGG      GGG          GGG                     GGG GGGG GG  GGGGGGGGGGG                 GGG         GGGG    GGG   GGG   GGGG                GGG    GGGG  GGG     GGG                   GGGG         GGGGGGG                   GGG       GGG     GGG                   GGG       GGGGGGGGGGG  GGGG    GGG     GGG         GGG   GGGG                  GGG         GGG   GGGG  GGGGGGGGGGG              ",
"                 GGGG       GGG           GGG        GGG     GGG     GGG           GGGG      GGG     GGG   GGG   GGGG  GGG     GGG     GGG            GGGG        GGG          GGGGGG                                GG     GGG     GGG          GGG                     GGGGG GGGGG  GGG                         GGG         GGG     GGG   GGG   GGGG                GGG    GGGG  GGG     GGG                   GGGG            GGGG                   GGG       GGG     GGG                   GGG       GGG          GGG     GGG     GGG         GGG   GGGG                  GGG         GGG   GGGG  GGG                      ",
"                 GGGG       GGG           GGG        GGG    GGGG     GGG           GGGG      GGGG    GGG   GGG   GGGG  GGG    GGGG     GGG            GGGG        GGG          GGGGGG        GGG                    GGG     GGG     GGG          GGG                      GGGG GGGGG  GGGG                        GGGG        GGG    GGGG   GGG   GGGG                GGGG   GGGG  GGGG    GGG                   GGGG             GGG                   GGG       GGGG    GGG                   GGG       GGGG         GGG    GGGG     GGG         GGG   GGGG                  GGG         GGG   GGGG  GGGG                     ",
"                 GGGG       GGG           GGG        GGGG   GGGG     GGGG          GGGG       GGG   GGG    GGG   GGGG  GGGG   GGGG     GGGG           GGGG        GGGG         GGGGG         GGG                    GGG     GGG     GGGG         GGGG                     GGGG  GGGG   GGG      G                  GGG    G   GGGG   GGGG   GGG   GGGG                 GGG  GGGGG   GGG   GGG                    GGGG       G     GGG                   GGGG       GGG   GGG                    GGGG       GGG      G  GGGG   GGGG     GGG         GGG   GGGG                  GGGG        GGG   GGGG   GGG      G              ",
"              GGGGGGGGGGG   GGG           GGG         GGGGGGGGGG      GGGGGGG   GGGGGGGGGGG    GGGGGGGG    GGG   GGGG   GGGGGGGGGG      GGGGGGG    GGGGGGGGGGG     GGGGGGG      GGGG         GGG                    GGG     GGG      GGGGGGG      GGGGGGG                 GGGG  GGG     GGGGGGGGG                   GGGGGGG    GGGGGGGGGG   GGG   GGGG                 GGGGGGGGGG    GGGGGGGG                 GGGGGGGGGGG   GGGGGGGGG                    GGGGGGG    GGGGGGGG                     GGGGGGG    GGGGGGGGG   GGGGGGGGGG     GGG         GGG   GGGG                   GGGGGGG    GGG   GGGG    GGGGGGGGG              ",
"              GGGGGGGGGGG   GGG           GGG          GGGGG GGG       GGGGGG   GGGGGGGGGGG     GGGGG      GGG   GGGG    GGGGG GGG       GGGGGG    GGGGGGGGGGG      GGGGGG      GGGG         GGG                   GGGG      GGG      GGGGGG       GGGGGG                 GGG   GGG      GGGGGG                      GGGGG      GGGGG GGG   GGG   GGGG                  GGGG GGGG     GGGGG                   GGGGGGGGGGG     GGGGG                       GGGGGG     GGGGG                        GGGGGG     GGGGGG      GGGGG GGG     GGG         GGG   GGGG                    GGGGGG    GGG   GGGG     GGGGGG                ",
"                                                                                                                                                                                GGG                                                                                                                                                                                                                                                                                                                                                                                                                                             ",
"                                                                                                                                                                                GGG                                                                                                                                                                                                                                                                                                                                                                                                                                             ",
"                                                                                                                                                                               GGG                                                                                                                                                                                                                                                                                                                                                                                                                                              ",
"                                                                                                                                                                            GGGGGG                                                                                                                                                                                                                                                                                                                                                                                                                                              ",
"                                                                                                                                                                            GGGGG                                                                                                                                                                                                                                                                                                                                                                                                                                               ",
"                                                                                                                                                                                                                                                                                                                                                                                                                                                                                                                                                                                                                                ",
"                                                                                                                                                                                                                                                                                                                                                                                                                                                                                                                                                                                                                                ",
"                                                                                                                                                                                                                                                                                                                                                                                                                                                                                                                                                                                                                                ",
"                                                                                                                                                                                                                                                                                                                                                                                                                                                                                                                                                                                                                                ",
"                                                                                                                                                                                                                                                                                                                                                                                                                                                                                                                                                                                                                                ",
"                                                                                                                                                                                                                                                                                                                                                                                                                                                                                                                                                                                                                                ",
"                                                                                                                                                                                                                                                                                                                                                                                                                                                                                                                                                                                                                                ",
"                                                                                                                                                                                                                                                                                                                                                                                                                                                                                                                                                                                                                                ",
"                                                                                                                                               GGGG                                                 GGGG                                                               GGGG                                                                           GGGG                                                                                                                                                                                                                                                                      ",
"                                                                                           GGGGGG                 GGG                          GGGG                                                 GGGG                                                               GGGG                                             GGGGGG                        GGGG                                                                                                                                                        GGG         GGGGGG                                                                                            ",
"                                                                                          GGGGGGG                 GGG                          GGGG                                                 GGGG                                                               GGGG                                             GGGGGG                        GGGG                                                                                                                                                        GGG         GGGGGG                                                                                            ",
"                                                  GGG                                     GGG                     GGG                          GGGG                                                 GGGG                                                GGG            GGGG                                                GGG                        GGGG                                                                                                                                                        GGG            GGG                                                                                            ",
"                                                  GGG                                     GGG                     GGG                                                                                                                                   GGG                                                                GGG                                                                                                                                                                                    GGG            GGG                                                                                            ",
"                                                  GGG                                     GGG                     GGG                                                                                                                                   GGG                                                                GGG                                                                                                                                                                                    GGG            GGG                                                                                            ",
"                      GGGGGGG      GGG  GGGG   GGGGGGGGGGG                  GGGGG      GGGGGGGGGG                 GGG GGGG       GGGGG      GGGGGGG       GGG GGGG       GGGG GGG                GGGGGGG        GGG  GGGG    GGG  GGGG    GGGGGGG    GGGGGGGGGGG    GGGGGGG        GGGGG      GGG GGGG      GGGGGGG        GGG                     GGGGGGG      GGG GGGG                    GGGGGGG                   GGG  GGGG      GGGGG       GGGGGGG       GGGGG        GGGGG       GGG GGGG      GGGGGGG     GGG GGGG       GGG           GGGGG                 GGG        GG   GGGGGGG     GGG     GGG                    ",
"                     GGGGGGGGG     GGGGGGGGG   GGGGGGGGGGG                 GGGGGGGG    GGGGGGGGGG                 GGGGGGGGG     GGGGGGGG    GGGGGGG       GGGGGGGGG    GGGGGGGGGG                GGGGGGG        GGGGGGGGG    GGGGGGGGG   GGGGGGGGG   GGGGGGGGGGG    GGGGGGG       GGGGGGGG    GGGGGGGGG    GGGGGGGGG       GGG                     GGGGGGG      GGGGGGGGG                  GGGGGGGGG                  GGGGGGGGG     GGGGGGGG    GGGGGGGGG     GGGGGGGG     GGGGGGGG     GGGGGGGGG    GGGGGGGGG    GGGGGGGGG      GGG          GGGGGGGG               GGG       GGG  GGGGGGGGG    GGG     GGG                    ",
"                     GG    GGGG    GGGGG   G      GGG                     GGG   GGG       GGG                     GGGG  GGGG   GGG   GGGG      GGGG       GGGG  GGG    GGG   GGGG                   GGGG        GGGGG   G    GGGGG   G   GG    GGGG     GGG            GGGG      GGG   GGG    GGGG  GGG    GG    GGGG      GGG                        GGGG      GGGG  GGG                  GG    GGGG                 GGGGG   G    GGG   GGGG   GG    GGGG   GGG    GG    GGG   GGG     GGGG  GGG    GG    GGGG   GGGG  GGGG     GGG         GGG   GGGG              GGG       GGG  GG    GGGG    GGG   GGGG                    ",
"                            GGG    GGGG           GGG                    GGGG    GGG      GGG                     GGG    GGG  GGGG    GGG      GGGG       GGG   GGG   GGGG   GGGG                   GGGG        GGGG         GGGG               GGG     GGG            GGGG     GGGG    GGG   GGG   GGG           GGG      GGG                        GGGG      GGG   GGG                         GGG                 GGGG        GGGG    GGG          GGG   GGG         GGGG    GGG    GGG   GGG           GGG   GGG    GGG     GGG        GGGG    GGG               GG  GGG  GGG         GGG    GGG   GGG                     ",
"                      GGGGGGGGG    GGG            GGG                    GGG     GGG      GGG                     GGG    GGG  GGG     GGG      GGGG       GGG   GGGG  GGG    GGGG                   GGGG        GGG          GGG          GGGGGGGGG     GGG            GGGG     GGG     GGG   GGG   GGGG    GGGGGGGGG      GGG                        GGGG      GGG   GGGG                  GGGGGGGGG                 GGG         GGG     GGG    GGGGGGGGG   GGGGG       GGG     GGG    GGG   GGGG    GGGGGGGGG   GGG    GGG     GGG        GGG     GGG               GG  GGG  GG    GGGGGGGGG    GGGG  GGG                     ",
"                     GGGGGGGGGG    GGG            GGG                    GGG     GGG      GGG                     GGG    GGG  GGGGGGGGGGG      GGGG       GGG   GGGG  GGG     GGG                   GGGG        GGG          GGG         GGGGGGGGGG     GGG            GGGG     GGG     GGG   GGG   GGGG   GGGGGGGGGG      GGG                        GGGG      GGG   GGGG                 GGGGGGGGGG                 GGG         GGGGGGGGGGG   GGGGGGGGGG   GGGGGGGG    GGG     GGG    GGG   GGGG   GGGGGGGGGG   GGG    GGG     GGG        GGGGGGGGGGG               GG  GGG  GG   GGGGGGGGGG     GGG GGGG                     ",
"                    GGGG    GGG    GGG            GGG                    GGG     GGG      GGG                     GGG    GGG  GGGGGGGGGGG      GGGG       GGG   GGGG  GGG     GGG                   GGGG        GGG          GGG        GGGG    GGG     GGG            GGGG     GGG     GGG   GGG   GGGG  GGGG    GGG      GGG                        GGGG      GGG   GGGG                GGGG    GGG                 GGG         GGGGGGGGGGG  GGGG    GGG     GGGGGGG   GGG     GGG    GGG   GGGG  GGGG    GGG   GGG    GGG     GGG        GGGGGGGGGGG               GGG GGGG GG  GGGG    GGG     GGG GGG                      ",
"                    GGG     GGG    GGG            GGG                    GGG     GGG      GGG                     GGG    GGG  GGG              GGGG       GGG   GGGG  GGG    GGGG                   GGGG        GGG          GGG        GGG     GGG     GGG            GGGG     GGG     GGG   GGG   GGGG  GGG     GGG      GGG                        GGGG      GGG   GGGG                GGG     GGG                 GGG         GGG          GGG     GGG        GGGG   GGG     GGG    GGG   GGGG  GGG     GGG   GGG    GGG     GGG        GGG                       GGGGG GGGGG  GGG     GGG      GGGGGG                      ",
"                    GGG    GGGG    GGG            GGG                    GGGG    GGG      GGG                     GGG    GGG  GGGG             GGGG       GGG   GGGG  GGGG   GGGG                   GGGG        GGG          GGG        GGG    GGGG     GGG            GGGG     GGGG    GGG   GGG   GGGG  GGG    GGGG      GGG                        GGGG      GGG   GGGG                GGG    GGGG                 GGG         GGGG         GGG    GGGG         GGG   GGGG    GGG    GGG   GGGG  GGG    GGGG   GGG    GGG     GGG        GGGG                       GGGG GGGGG  GGG    GGGG      GGGGGG                      ",
"                    GGGG   GGGG    GGG            GGGG                    GGG   GGG       GGG                     GGGG  GGGG   GGG      G      GGGG       GGG   GGGG   GGG   GGGG                   GGGG        GGG          GGG        GGGG   GGGG     GGGG           GGGG      GGG   GGG    GGG   GGGG  GGGG   GGGG      GGGG                       GGGG      GGG   GGGG                GGGG   GGGG                 GGG          GGG      G  GGGG   GGGG   G     GGG    GGG   GGG     GGG   GGGG  GGGG   GGGG   GGGG  GGGG     GGGG        GGG      G                GGGG  GGGG  GGGG   GGGG      GGGGG                       ",
"                     GGGGGGGGGG    GGG             GGGGGGG                 GGGGGGGG       GGG                     GGGGGGGGG     GGGGGGGGG   GGGGGGGGGGG   GGG   GGGG   GGGGGGGGGG                GGGGGGGGGGG    GGG          GGG         GGGGGGGGGG      GGGGGGG    GGGGGGGGGGG   GGGGGGGG    GGG   GGGG   GGGGGGGGGG       GGGGGGG                GGGGGGGGGGG  GGG   GGGG                 GGGGGGGGGG                 GGG           GGGGGGGGG   GGGGGGGGGG   GGGGGGGGG     GGGGGGGG     GGG   GGGG   GGGGGGGGGG   GGGGGGGGG       GGGGGGG     GGGGGGGGG                GGGG  GGG    GGGGGGGGGG       GGGG                       ",
"                      GGGGG GGG    GGG              GGGGGG                  GGGGG         GGG                     GGG GGGG       GGGGGG     GGGGGGGGGGG   GGG   GGGG     GGGG GGG                GGGGGGGGGGG    GGG          GGG          GGGGG GGG       GGGGGG    GGGGGGGGGGG    GGGGG      GGG   GGGG    GGGGG GGG        GGGGGG                GGGGGGGGGGG  GGG   GGGG                  GGGGG GGG                 GGG            GGGGGG      GGGGG GGG     GGGGG        GGGGG       GGG   GGGG    GGGGG GGG   GGG GGGG         GGGGGG      GGGGGG                  GGG   GGG     GGGGG GGG       GGGG                       ",
"                                                                                                                                                                              GGG                                                                                                                                                                                                                                                                                                                                                                                                                    GGG                        ",
"                                                                                                                                                                             GGGG                                                                                                                                                                                                                                                                                                                                                                                                                    GGG                        ",
"                                                                                                                                                                       G     GGG                                                                                                                                                                                                                                                                                                                                                                                                                    GGG                         ",
"                                                                                                                                                                       GGGGGGGGG                                                                                                                                                                                                                                                                                                                                                                                                                 GGGGGG                         ",
"                                                                                                                                                                        GGGGGG                                                                                                                                                                                                                                                                                                                                                                                                                   GGGGG                          ",
"                                                                                                                                                                                                                                                                                                                                                                                                                                                                                                                                                                                                                                ",
"                                                                                                                                                                                                                                                                                                                                                                                                                                                                                                                                                                                                                                ",
"                                                                                                                                                                                                                                                                                                                                                                                                                                                                                                                                                                                                                                ",
"                                                                                                                                                                                                                                                                                                                                                                                                                                                                                                                                                                                                                                ",
"                                                                                                                                                                                                                                                                                                                                                                                                                                                                                                                                                                                                                                ",
"                                                                                                                                                                                                                                                                                                                                                                                                                                                                                                                                                                                                                                ",
"                                                                                                                                                                                                                                                                                                                                                                                                                                                                                                                                                                                                                                ",
"                                                                                                                                                                                                                                                                                                                                                                                                                                                                                                                                                                                                                                ",
"                                                                                                                                                                                                                                                                                                                                                                                                                                                                                                                                                                                                                                ",
"                                                                                                                                                                                                                                                                                                                                                                                                                                                                                                                                                                                                                                ",
"                                                                                                                                                                                                                                                                                                                                                                                                                                                                                                                                                                                                                                ",
"                                                                                                                                                                                                                                                                                                                                                                                                                                                                                                                                                                                                                                ",
"                                                                                                                                                                                                                                                                                                                                                                                                                                                                                                                                                                                                                                ",
"                                                                                                                                                                                                                                                                                                                                                                                                                                                                                                                                                                                                                                ",
"                                                                                                                                                                                                                                                                                                                                                                                                                                                                                                                                                                                                                                ",
"                                                                                                                                                                                                                                                                                                                                                                                                                                                                                                                                                                                                                                ",
"                                                                                                                                                                                                                                                                                                                                                                                                                                                                                                                                                                                                                                ",
"                                                                                                                                                                                                                                                                                                                                                                                                                                                                                                                                                                                                                                ",
"                                                                                                                                                                                                                                                                                                                                                                                                                                                                                                                                                                                                                                "
};
