/* XPM */
static char *tuto_14[] = {
"608 120 4 1",
"  c #000000",
"G c #70DD99",
"B c #3399FF",
"R c #FF0000",
"                                                                                                                                                                                                                                                                                                                                                                                                                                                                                                                                                                                                                                ",
"                                                                                                                                                                                                                                                                                                                                                                                                                                                                                                                                                                                                                                ",
"                                                                                                                                                                                                                                                                                                                                                                                                                                                                                                                                                                                                                                ",
"                                                                                                                                                                                                                                                                                                                                                                                                                                                                                                                                                                                                                                ",
"                                                                                                                                                                                                                                                                                                                                                                                                                                                                                                                                                                                                                                ",
"                                                                                                                                                                                                                                                                                                                                                                                                                                                                                                                                                                                                                                ",
"                                                                                                                                                                                                                                                                                                                                                                                                                                                                                                                                                                                                                                ",
"                                                                                                                                                                                                                                                                                                                                                                                                                                                                                                                                                                                                                                ",
"                                                                                                                                                                                                                                                                                                                                                                                                                                                                                                                                                                                                                                ",
"                                                                                                                                                                                                                                                                                                                                                                                                                                                                                                                                                                                                                                ",
"                                                                                                                                                                                                                                                                                                                                                                                                                                                                                                                                                                                                                                ",
"                                                                                                                                                                                                                                                                                                                                                                                                                                                                                                                                                                                                                                ",
"                                                                                                                                                                                                                                                                                                                                                                                                                                                                                                                                                                                                                                ",
"                                                                                                                                                                                                                                                                                                                                                                                                                                                                                                                                                                                                                                ",
"                                                                                                                                                                                                                                                                                                                                                                                                                                                                                                                                                                                                                                ",
"                                                                                                                                                                                                                                                                                                                                                                                                                                                                                                                                                                                                                                ",
"                                                                                                                                                                                                                                                                                                                                                                                                                                                                                                                                                                                                                                ",
"                                                                                                                                                                                                                                                                                                                                                                                                                                                                                                                                                                                                                                ",
"                                                                                                                                                                                                                                                                                                                                                                                                                                                                                                                                                                                                                                ",
"                                                                                                                                                                                                                                                                                                                                                                                                                                                                                                                                                                                                                                ",
"                                                                                                                                                                                                                                                                                                                                                                                                                                                                                                                                                                                                                                ",
"                                                                                                                                                                                                                                                                                                                                                                                                                                                                                                                                                                                                                                ",
"                                                                                                                                                                                                                                                                                                                                                                                                                                                                                                                                                                                                                                ",
"                                                                                                                                                                                                                                                                                                                                                                                                                                                                                                                                                                                                                                ",
"                                                                                                                                                                                                                                                                                                                                                                                                                                                                                                                                                                                                                                ",
"                                                                                                                                                                                                                                                                                                                                                                                                                                                                                                                                                                                                                                ",
"                                                                                                                                                                                                                                                                                                                                                                                                                                                                                                                                                                                                                                ",
"                                                                                                                                                                                                                                                                                                                                                                                                                                                                                                                                                                                                                                ",
"                                                                                                                  GGGG                                                                                          GGGG                                                                                                                                                                                                                                                                                                                                                    GGGG                                                    ",
"                                GGGG                                                                              GGGG                                                                              GGGG        GGGG              GGGGGG         GGGGGG                                                                                                                 GGGG                                                                                                                          GGGG                                                              GGGG                                                    ",
"               GGGGGGGGGGGGGG   GGGG                                                                              GGGG                                                                              GGGG        GGGG            GGGGGGGG       GGGGGGGG                                                                                                                 GGGG                                                                                                                          GGGG                                                              GGGG                                                    ",
"               GGGGGGGGGGGGGG   GGGG                                                                              GGGG                                                                              GGGG        GGGG            GGGGGGGG       GGGGGGGG                                                                                                                 GGGG                               GGGG                                                                                       GGGG                                                              GGGG                                                    ",
"               GGGGGGGGGGGGGG   GGGG                                                                                                                                                                GGGG                        GGGG           GGGG                                                                                                                     GGGG                               GGGG                                                                                       GGGG                                                                                                                      ",
"                    GGGG        GGGG                                                                                                                                                                GGGG                        GGG            GGG                                                                                                                      GGGG                               GGGG                                                                                       GGGG                                                                                                                      ",
"                    GGGG        GGGG                                                                                                                                                                GGGG                        GGG            GGG                                                                                                                      GGGG                               GGGG                                                                                       GGGG                                                                                                                      ",
"                    GGGG        GGGG  GGGG        GGGGGG         GGG  GGGGG       GGGGGG                       GGGGGGG           GGGGGG                        GGGGGGG                        GGGG  GGGG     GGGGGGG        GGGGGGGGGGGG   GGGGGGGGGGGG       GGGGGG         GGG  GGGGG      GGGGGG       GGGG  GGGG         GGGGGG         GGGGGG                      GGGG GGGGG         GGGGGG      GGGGGGGGGGGGG GGG         GGGG     GGGGGG          GGGGGG      GGGG  GGGG                      GGGG    GGGG   GGGG  GGGG         GGGGGG     GGG         GGGG  GGGGGGG        GGGG  GGGG        GGGGG GGGG                ",
"                    GGGG        GGGGGGGGGGG     GGGGGGGGG        GGG GGGGGGG    GGGGGGGGG                      GGGGGGG         GGGGGGGGGG                     GGGGGGGGGG                     GGGGGG GGGG     GGGGGGG        GGGGGGGGGGGG   GGGGGGGGGGGG     GGGGGGGGG        GGG GGGGGGG   GGGGGGGGG      GGGGGGGGGGG      GGGGGGGGG      GGGGGGGGG                     GGGGGGGGGGG      GGGGGGGGG     GGGGGGGGGGGGG GGG         GGG    GGGGGGGGG       GGGGGGGGG     GGGGGGGGGGG                     GGGG   GGGG    GGGGGGGGGGG      GGGGGGGGG    GGG         GGG   GGGGGGG        GGGGGGGGGGG      GGGGGGGGGGG                ",
"                    GGGG        GGGGGGGGGGG     GGGGGGGGGG       GGGGGGGGGGG    GGGGGGGGGG                     GGGGGGG         GGGGGGGGGG                     GGGGGGGGGG                    GGGGGGGGGGGG     GGGGGGG        GGGGGGGGGGGG   GGGGGGGGGGGG     GGGGGGGGGG       GGGGGGGGGGG   GGGGGGGGGG     GGGGGGGGGGG     GGGGGGGGGG      GGGGGGGGGG                    GGGGGGGGGGGG     GGGGGGGGGG    GGGGGGGGGGGGG GGG         GGG    GGGGGGGGGG      GGGGGGGGGG    GGGGGGGGGGG                     GGGG  GGGG     GGGGGGGGGGG      GGGGGGGGGG   GGG         GGG   GGGGGGG        GGGGGGGGGGG     GGGGGGGGGGGG                ",
"                    GGGG        GGGGG  GGGG    GGGG    GGGG      GGGGG    GG   GGGG    GGGG                       GGGG        GGGG     GG                     G      GGGG                   GGGG   GGGGG        GGGG            GGG            GGG         GGGG    GGGG      GGGGG    GG  GGGG    GGGG    GGGGG  GGGG     GGGGG    G     GGGG    GGGG                   GGGGG   GGGG    GGGG    GGGG       GGGG       GGG        GGG   GGGG    GGGG    GGGG    GGGG   GGGGG  GGGG                     GGGG GGGG      GGGGG  GGGG     GGGG   GGGGG   GGG        GGG      GGGG        GGGGG  GGGG     GGGG   GGGGG                ",
"                    GGGG        GGGG    GGGG   GGG     GGGG      GGGG          GGG     GGGG                       GGGG        GGGG                                   GGGG                  GGGG     GGGG        GGGG            GGG            GGG         GGG     GGGG      GGGG         GGG     GGGG    GGGG    GGGG   GGGGG           GGG     GGGG                   GGGG    GGGG    GGG     GGGG       GGGG       GGG  GGG   GGG   GGG     GGGG    GGG     GGGG   GGGG    GGGG                    GGGGGGGG       GGGG    GGGG    GGGG    GGGG   GGG  GGG   GGG      GGGG        GGGG    GGGG    GGGG    GGGG                ",
"                    GGGG        GGGG    GGGG  GGGG      GGG      GGGG         GGGG      GGG                       GGGG        GGGGGG                           GGGGGGGGGG                  GGGG     GGGG        GGGG            GGG            GGG        GGGG      GGG      GGGG        GGGG      GGG    GGGG    GGGG   GGGG           GGGG      GGG                   GGGG     GGG   GGGG      GGG       GGGG       GGG  GGGG  GGG  GGGG      GGG   GGGG      GGG   GGGG    GGGG                    GGGGGGGG       GGGG    GGGG   GGGG     GGGG   GGG  GGGG  GGG      GGGG        GGGG    GGGG   GGGG     GGGG                ",
"                    GGGG        GGGG    GGGG  GGGGGGGGGGGGGG     GGG          GGGGGGGGGGGGGG                      GGGG         GGGGGGGGG                     GGGGGGGGGGGG                  GGGG     GGGG        GGGG            GGG            GGG        GGGGGGGGGGGGGG     GGG         GGGGGGGGGGGGGG   GGGG    GGGG   GGGG           GGGGGGGGGGGGGG                  GGGG     GGG   GGGGGGGGGGGGGG      GGGG       GGG  GGGG  GG   GGGGGGGGGGGGGG  GGGGGGGGGGGGGG  GGGG    GGGG                    GGGGGGGG       GGGG    GGGG   GGGG      GGG   GGG  GGGG  GG       GGGG        GGGG    GGGG   GGGG     GGGG                ",
"                    GGGG        GGGG    GGGG  GGGGGGGGGGGGGG     GGG          GGGGGGGGGGGGGG                      GGGG           GGGGGGGG                    GGGGGGGGGGGG                  GGGG     GGGG        GGGG            GGG            GGG        GGGGGGGGGGGGGG     GGG         GGGGGGGGGGGGGG   GGGG    GGGG   GGGG           GGGGGGGGGGGGGG                  GGGG     GGG   GGGGGGGGGGGGGG      GGGG       GGG  GGGG GGG   GGGGGGGGGGGGGG  GGGGGGGGGGGGGG  GGGG    GGGG                    GGGGGGGGG      GGGG    GGGG   GGGG      GGG   GGG  GGGG GGG       GGGG        GGGG    GGGG   GGGG     GGGG                ",
"                    GGGG        GGGG    GGGG  GGGGGGGGGGGGGG     GGG          GGGGGGGGGGGGGG                      GGGG              GGGGG                   GGGGG    GGGG                  GGGG     GGGG        GGGG            GGG            GGG        GGGGGGGGGGGGGG     GGG         GGGGGGGGGGGGGG   GGGG    GGGG   GGGG           GGGGGGGGGGGGGG                  GGGG     GGG   GGGGGGGGGGGGGG      GGGG        GG GG GG GGG   GGGGGGGGGGGGGG  GGGGGGGGGGGGGG  GGGG    GGGG                    GGGG  GGGG     GGGG    GGGG   GGGG     GGGG    GG GG GG GGG       GGGG        GGGG    GGGG   GGGG     GGGG                ",
"                    GGGG        GGGG    GGGG   GGG               GGG           GGG                                GGGG                GGG                   GGGG     GGGG                  GGGG     GGGG        GGGG            GGG            GGG         GGG               GGG          GGG             GGGG    GGGG   GGGGG           GGG                            GGGG    GGGG    GGG                GGGG        GGGGG GGGGGG    GGG             GGG            GGGG    GGGG                    GGGG  GGGG     GGGG    GGGG    GGGG    GGGG    GGGGG GGGGGG       GGGG        GGGG    GGGG    GGGG    GGGG                ",
"                    GGGG        GGGG    GGGG   GGGG      GG      GGG           GGGG      GG                       GGGG        GG      GGG                   GGGGG   GGGGG                   GGGG   GGGGG        GGGG            GGG            GGG         GGGG      GG      GGG          GGGG      GG    GGGG    GGGG    GGGGG    G     GGGG      GG                   GGGGG   GGGG    GGGG      GG       GGGG        GGGGG  GGGGG    GGGG      GG    GGGG      GG   GGGG    GGGG                    GGGG   GGGG    GGGG    GGGG    GGGG   GGGGG    GGGGG  GGGGG       GGGG        GGGG    GGGG    GGGG   GGGGG                ",
"                    GGGG        GGGG    GGGG   GGGGGGGGGGGG      GGG           GGGGGGGGGGGG                   GGGGGGGGGGGGG   GGGGGGGGGGG                    GGGGGGGGGGGG                   GGGGGGGGGGGG    GGGGGGGGGGGGG       GGG            GGG         GGGGGGGGGGGG      GGG          GGGGGGGGGGGG    GGGG    GGGG    GGGGGGGGGG     GGGGGGGGGGGG                   GGGGGGGGGGGG    GGGGGGGGGGGG       GGGGGGGGG   GGGGG  GGGGG    GGGGGGGGGGGG    GGGGGGGGGGGG   GGGG    GGGG                    GGGG    GGGG   GGGG    GGGG     GGGGGGGGGG     GGGGG  GGGGG   GGGGGGGGGGGGG   GGGG    GGGG    GGGGGGGGGGGG                ",
"                    GGGG        GGGG    GGGG    GGGGGGGGGGG      GGG            GGGGGGGGGGG                   GGGGGGGGGGGGG   GGGGGGGGGGG                    GGGGGGGGGGGG                    GGGGGG GGGG    GGGGGGGGGGGGG       GGG            GGG          GGGGGGGGGGG      GGG           GGGGGGGGGGG    GGGG    GGGG     GGGGGGGGG      GGGGGGGGGGG                   GGGGGGGGGGG      GGGGGGGGGGG        GGGGGGGG   GGGG   GGGG      GGGGGGGGGGG     GGGGGGGGGGG   GGGG    GGGG                    GGGG    GGGG   GGGG    GGGG     GGGGGGGGG      GGGG   GGGG    GGGGGGGGGGGGG   GGGG    GGGG     GGGGGGGGGGG                ",
"                    GGGG        GGGG    GGGG      GGGGGGG        GGG              GGGGGGG                     GGGGGGGGGGGGG     GGGGGGG                        GGGG  GGGG                     GGGG  GGGG    GGGGGGGGGGGGG       GGG            GGG            GGGGGGG        GGG             GGGGGGG      GGGG    GGGG       GGGGGG         GGGGGGG                     GGGG GGGGG         GGGGGGG           GGGGGGG   GGGG   GGGG        GGGGGGG         GGGGGGG     GGGG    GGGG                    GGGG     GGGG  GGGG    GGGG       GGGGGG       GGGG   GGGG    GGGGGGGGGGGGG   GGGG    GGGG      GGGGG GGGG                ",
"                                                                                                                                                                                                                                                                                                                                                                                                                                                                                                                                                                                                            GGGG                ",
"                                                                                                                                                                                                                                                                                                                                                                                                                                                                                                                                                                                                     G     GGGGG                ",
"                                                                                                                                                                                                                                                                                                                                                                                                                                                                                                                                                                                                     GGGGGGGGGG                 ",
"                                                                                                                                                                                                                                                                                                                                                                                                                                                                                                                                                                                                     GGGGGGGGG                  ",
"                                                                                                                                                                                                                                                                                                                                                                                                                                                                                                                                                                                                      GGGGGGG                   ",
"                                                                                                                                                                                                                                                                                                                                                                                                                                                                                                                                                                                                                                ",
"                                                                                                                                                                                                                                                                                                                                                                                                                                                                                                                                                                                                                                ",
"                                                                                                                                                                                                                                                                                                                                                                                                                                                                                                                                                                                                                                ",
"                                                                                                                                                                                                                                                                                                                                                                                                                                                                                                                                                                                                                                ",
"                                                                                                                                                                                                                                                                                                                                                                                                                                                                                                                                                                                                                                ",
"                                                                                                                                                                                                                                                                                                                                                                                                                                                                                                                                                                                                                                ",
"                                                                                                                                                                                                                                                                                                                                                                                                                                                                                                                                                                                                                                ",
"                                                                                                                                                                                                                                                                                                                                                                                                                                                                                                                                                                                                                                ",
"                                                                                                                                                                                                                                                                                                                                                                                                                                                                                                                                                                                                                                ",
"                                                                                                                                                                                                                                                                                                                                                                                                                                                                                                                                                                                                                                ",
"                                                                                                                                                                                                                                                                                                                                                            GGGG                                                                                                                                                                                                                                                                ",
"                                                                                              GGGG                                                                                          GGGG                                                                  GGGG                                                  GGGGGGGG         GGGG               GGGG                                                                      GGGG                                                                                          GGGG                                                                                        ",
"                                                                                              GGGG                                                                                          GGGG                                                                  GGGG                                                  GGGGGGGG         GGGG               GGGG                                                                      GGGG                                                                                          GGGG                                                                                        ",
"                                                                                 GGGG         GGGG                                                                             GGGG         GGGG                                                                  GGGG                                                  GGGGGGGG         GGGG               GGGG                                                          GGGG        GGGG                                                                              GGGG        GGGG                                                                                        ",
"                                                                                 GGGG         GGGG                                                                             GGGG         GGGG                                                                  GGGG                                                      GGGG         GGGG                                                                             GGGG        GGGG                                                                              GGGG        GGGG                                                                                        ",
"                                                                                 GGGG         GGGG                                                                             GGGG         GGGG                                                                  GGGG                                                      GGGG         GGGG                                                                             GGGG        GGGG                                                                              GGGG        GGGG                                                                                        ",
"                                                                                 GGGG         GGGG                                                                             GGGG         GGGG                                                                  GGGG                                                      GGGG         GGGG                                                                             GGGG        GGGG                                                                              GGGG        GGGG                                                                                        ",
"                                                                             GGGGGGGGGGGGG    GGGG  GGGG        GGGGGG                       GGGG GGGGG       GGGGGGG      GGGGGGGGGGGGG    GGGG  GGGG                       GGGGGGG       GGGG  GGGG       GGGG  GGGG                  GGG         GGGG   GGGGGGG          GGGG         GGGG    GGGG    GGGGGGG        GGGG  GGGG       GGGGG GGGG                   GGGGGGGGGGGGG   GGGG  GGGG         GGGGGG                      GGGG GGGGG        GGGGGGG      GGGGGGGGGGGGG   GGGG  GGGG                                                                                  ",
"                                                                             GGGGGGGGGGGGG    GGGGGGGGGGG     GGGGGGGGG                      GGGGGGGGGGG     GGGGGGGGGG    GGGGGGGGGGGGG    GGGGGGGGGGG                     GGGGGGGGGG     GGGGGGGGGGG     GGGGGG GGGG                  GGG         GGG   GGGGGGGGGG        GGGG         GGGG   GGGG     GGGGGGG        GGGGGGGGGGG     GGGGGGGGGGG                   GGGGGGGGGGGGG   GGGGGGGGGGG      GGGGGGGGG                     GGGGGGGGGGG      GGGGGGGGGG    GGGGGGGGGGGGG   GGGGGGGGGGG                                                                                 ",
"                                                                             GGGGGGGGGGGGG    GGGGGGGGGGG     GGGGGGGGGG                     GGGGGGGGGGGG    GGGGGGGGGG    GGGGGGGGGGGGG    GGGGGGGGGGG                     GGGGGGGGGG     GGGGGGGGGGG    GGGGGGGGGGGG                  GGG         GGG   GGGGGGGGGG        GGGG         GGGG  GGGG      GGGGGGG        GGGGGGGGGGG    GGGGGGGGGGGG                   GGGGGGGGGGGGG   GGGGGGGGGGG      GGGGGGGGGG                    GGGGGGGGGGGG     GGGGGGGGGG    GGGGGGGGGGGGG   GGGGGGGGGGG                                                                                 ",
"                                                                                 GGGG         GGGGG  GGGG    GGGG    GGGG                    GGGGG   GGGG    G      GGGG       GGGG         GGGGG  GGGG                     G      GGGG    GGGGG  GGGG    GGGG   GGGGG                   GGG        GGG   G      GGGG       GGGG         GGGG GGGG          GGGG        GGGGG  GGGG    GGGG   GGGGG                       GGGG        GGGGG  GGGG     GGGG    GGGG                   GGGGG   GGGG     G      GGGG       GGGG        GGGGG  GGGG                                                                                 ",
"                                                                                 GGGG         GGGG    GGGG   GGG     GGGG                    GGGG    GGGG           GGGG       GGGG         GGGG    GGGG                           GGGG    GGGG    GGGG  GGGG     GGGG                   GGG  GGG   GGG          GGGG       GGGG         GGGGGGGG           GGGG        GGGG    GGGG   GGGG    GGGG                       GGGG        GGGG    GGGG    GGG     GGGG                   GGGG    GGGG            GGGG       GGGG        GGGG    GGGG                                                                                ",
"                                                                                 GGGG         GGGG    GGGG  GGGG      GGG                    GGGG     GGG     GGGGGGGGGG       GGGG         GGGG    GGGG                     GGGGGGGGGG    GGGG    GGGG  GGGG     GGGG                   GGG  GGGG  GGG    GGGGGGGGGG       GGGG         GGGGGGGG           GGGG        GGGG    GGGG  GGGG     GGGG                       GGGG        GGGG    GGGG   GGGG      GGG                   GGGG     GGG      GGGGGGGGGG       GGGG        GGGG    GGGG                                                                                ",
"                                                                                 GGGG         GGGG    GGGG  GGGGGGGGGGGGGG                   GGGG     GGG   GGGGGGGGGGGG       GGGG         GGGG    GGGG                   GGGGGGGGGGGG    GGGG    GGGG  GGGG     GGGG                   GGG  GGGG  GG   GGGGGGGGGGGG       GGGG         GGGGGGGG           GGGG        GGGG    GGGG  GGGG     GGGG                       GGGG        GGGG    GGGG   GGGGGGGGGGGGGG                  GGGG     GGG    GGGGGGGGGGGG       GGGG        GGGG    GGGG                                                                                ",
"                                                                                 GGGG         GGGG    GGGG  GGGGGGGGGGGGGG                   GGGG     GGG   GGGGGGGGGGGG       GGGG         GGGG    GGGG                   GGGGGGGGGGGG    GGGG    GGGG  GGGG     GGGG                   GGG  GGGG GGG   GGGGGGGGGGGG       GGGG         GGGGGGGGG          GGGG        GGGG    GGGG  GGGG     GGGG                       GGGG        GGGG    GGGG   GGGGGGGGGGGGGG                  GGGG     GGG    GGGGGGGGGGGG       GGGG        GGGG    GGGG                                                                                ",
"                                                                                 GGGG         GGGG    GGGG  GGGGGGGGGGGGGG                   GGGG     GGG  GGGGG    GGGG       GGGG         GGGG    GGGG                  GGGGG    GGGG    GGGG    GGGG  GGGG     GGGG                    GG GG GG GGG  GGGGG    GGGG       GGGG         GGGG  GGGG         GGGG        GGGG    GGGG  GGGG     GGGG                       GGGG        GGGG    GGGG   GGGGGGGGGGGGGG                  GGGG     GGG   GGGGG    GGGG       GGGG        GGGG    GGGG                                                                                ",
"                                                                                 GGGG         GGGG    GGGG   GGG                             GGGG    GGGG  GGGG     GGGG       GGGG         GGGG    GGGG                  GGGG     GGGG    GGGG    GGGG  GGGG     GGGG                    GGGGG GGGGGG  GGGG     GGGG       GGGG         GGGG  GGGG         GGGG        GGGG    GGGG   GGGG    GGGG                       GGGG        GGGG    GGGG    GGG                            GGGG    GGGG   GGGG     GGGG       GGGG        GGGG    GGGG                                                                                ",
"                                                                                 GGGG         GGGG    GGGG   GGGG      GG                    GGGGG   GGGG  GGGGG   GGGGG       GGGG         GGGG    GGGG                  GGGGG   GGGGG    GGGG    GGGG   GGGG   GGGGG                    GGGGG  GGGGG  GGGGG   GGGGG       GGGG         GGGG   GGGG        GGGG        GGGG    GGGG   GGGG   GGGGG                       GGGG        GGGG    GGGG    GGGG      GG                   GGGGG   GGGG   GGGGG   GGGGG       GGGG        GGGG    GGGG                                                                                ",
"                                                                                 GGGGGGGGG    GGGG    GGGG   GGGGGGGGGGGG                    GGGGGGGGGGGG   GGGGGGGGGGGG       GGGGGGGGG    GGGG    GGGG                   GGGGGGGGGGGG    GGGG    GGGG   GGGGGGGGGGGG                    GGGGG  GGGGG   GGGGGGGGGGGG       GGGGGGGGG    GGGG    GGGG   GGGGGGGGGGGGG   GGGG    GGGG   GGGGGGGGGGGG                       GGGGGGGGG   GGGG    GGGG    GGGGGGGGGGGG                   GGGGGGGGGGGG    GGGGGGGGGGGG       GGGGGGGGG   GGGG    GGGG                                                                                ",
"                                                                                  GGGGGGGG    GGGG    GGGG    GGGGGGGGGGG                    GGGGGGGGGGG    GGGGGGGGGGGG        GGGGGGGG    GGGG    GGGG                   GGGGGGGGGGGG    GGGG    GGGG    GGGGGG GGGG                    GGGG   GGGG    GGGGGGGGGGGG        GGGGGGGG    GGGG    GGGG   GGGGGGGGGGGGG   GGGG    GGGG    GGGGGGGGGGG                        GGGGGGGG   GGGG    GGGG     GGGGGGGGGGG                   GGGGGGGGGGG     GGGGGGGGGGGG        GGGGGGGG   GGGG    GGGG                                                                                ",
"                                                                                   GGGGGGG    GGGG    GGGG      GGGGGGG                      GGGG GGGGG       GGGG  GGGG         GGGGGGG    GGGG    GGGG                     GGGG  GGGG    GGGG    GGGG     GGGG  GGGG                    GGGG   GGGG      GGGG  GGGG         GGGGGGG    GGGG     GGGG  GGGGGGGGGGGGG   GGGG    GGGG     GGGGG GGGG                         GGGGGGG   GGGG    GGGG       GGGGGGG                     GGGG GGGGG        GGGG  GGGG         GGGGGGG   GGGG    GGGG                                                                                ",
"                                                                                                                                             GGGG                                                                                                                                                                                                                                              GGGG                                                                                  GGGG                                                                                                                                       ",
"                                                                                                                                             GGGG                                                                                                                                                                                                                                       G     GGGGG                                                                                  GGGG                                                                                                                                       ",
"                                                                                                                                             GGGG                                                                                                                                                                                                                                       GGGGGGGGGG                                                                                   GGGG                                                                                                                                       ",
"                                                                                                                                             GGGG                                                                                                                                                                                                                                       GGGGGGGGG                                                                                    GGGG                                                                                                                                       ",
"                                                                                                                                             GGGG                                                                                                                                                                                                                                        GGGGGGG                                                                                     GGGG                                                                                                                                       ",
"                                                                                                                                                                                                                                                                                                                                                                                                                                                                                                                                                                                                                                ",
"                                                                                                                                                                                                                                                                                                                                                                                                                                                                                                                                                                                                                                ",
"                                                                                                                                                                                                                                                                                                                                                                                                                                                                                                                                                                                                                                ",
"                                                                                                                                                                                                                                                                                                                                                                                                                                                                                                                                                                                                                                ",
"                                                                                                                                                                                                                                                                                                                                                                                                                                                                                                                                                                                                                                ",
"                                                                                                                                                                                                                                                                                                                                                                                                                                                                                                                                                                                                                                ",
"                                                                                                                                                                                                                                                                                                                                                                                                                                                                                                                                                                                                                                ",
"                                                                                                                                                                                                                                                                                                                                                                                                                                                                                                                                                                                                                                ",
"                                                                                                                                                                                                                                                                                                                                                                                                                                                                                                                                                                                                                                ",
"                                                                                                                                                                                                                                                                                                                                                                                                                                                                                                                                                                                                                                ",
"                                                                                                                                                                                                                                                                                                                                                                                                                                                                                                                                                                                                                                ",
"                                                                                                                                                                                                                                                                                                                                                                                                                                                                                                                                                                                                                                ",
"                                                                                                                                                                                                                                                                                                                                                                                                                                                                                                                                                                                                                                ",
"                                                                                                                                                                                                                                                                                                                                                                                                                                                                                                                                                                                                                                ",
"                                                                                                                                                                                                                                                                                                                                                                                                                                                                                                                                                                                                                                ",
"                                                                                                                                                                                                                                                                                                                                                                                                                                                                                                                                                                                                                                ",
"                                                                                                                                                                                                                                                                                                                                                                                                                                                                                                                                                                                                                                ",
"                                                                                                                                                                                                                                                                                                                                                                                                                                                                                                                                                                                                                                ",
"                                                                                                                                                                                                                                                                                                                                                                                                                                                                                                                                                                                                                                ",
"                                                                                                                                                                                                                                                                                                                                                                                                                                                                                                                                                                                                                                ",
"                                                                                                                                                                                                                                                                                                                                                                                                                                                                                                                                                                                                                                ",
"                                                                                                                                                                                                                                                                                                                                                                                                                                                                                                                                                                                                                                ",
"                                                                                                                                                                                                                                                                                                                                                                                                                                                                                                                                                                                                                                ",
"                                                                                                                                                                                                                                                                                                                                                                                                                                                                                                                                                                                                                                ",
"                                                                                                                                                                                                                                                                                                                                                                                                                                                                                                                                                                                                                                ",
"                                                                                                                                                                                                                                                                                                                                                                                                                                                                                                                                                                                                                                ",
"                                                                                                                                                                                                                                                                                                                                                                                                                                                                                                                                                                                                                                ",
"                                                                                                                                                                                                                                                                                                                                                                                                                                                                                                                                                                                                                                ",
"                                                                                                                                                                                                                                                                                                                                                                                                                                                                                                                                                                                                                                ",
"                                                                                                                                                                                                                                                                                                                                                                                                                                                                                                                                                                                                                                "
};
