/* XPM */
static char * matrix_xpm[] = {
"64 64 9 1",
"A	c #70DD99",
"B	c #000000",
"C	c #F60407",
"D	c #E0DFF2",
"E	c #141CF6",
"F	c #4C21F2",
"G	c #732D45",
"H	c #4B0203",
"I	c #B1000A",
"AAAAAAAAAAAAAAAAAAAAAAAAAAAAAAAAAAAAAAAAAAAAAAAAAAAAAAAAAAAAAAAA",
"ABBBBBBBBBBBBBBBBBBBBBBBBBBBBBBBBBBBBBBBBBBBBBBBBBBBBBBBBBBBBBBA",
"ABBBBBBBBBBBBBBBBBBBBBBBBBBBBBBBBBBBBBBBBBBBBBBBBBBBBBBBBBBBBBBA",
"ABBBBBBBBBBBBBBBBBBBBBBBBBBBBBBBBBBBBBBBBBBBBBBBBBBBBBBBBBBBBBBA",
"ABBBBBBBBBBBBBBBBBBBBBBBBBBBBBBBBBBBBBBBBBBBBBBBBBBBBBBBBBBBBBBA",
"ABBBBBBBBBBBBBBBBBBBBBBBBBBBBBBBBBBBBBBBBBBBBBBBBBBBBBBBBBBBBBBA",
"ABBBBBBBBBBBBBBBBBBBBBBBBBBBBBBBBBBBBBBBBBBBBBBBBBBBBBBBBBBBBBBA",
"ABBBBBBBBBBBBBBBBBBBBBBBBBBBBBBBBBBBBBBBBBBBBBBBBBBBBBBBBBBBBBBA",
"ABBBBBBBBBBBBBBBBBBBBBBBBBBBBBBBBBBBBBBBBBBBBBBBBBBBBBBBBBBBBBBA",
"ABBBBBBBBBBBBBBBBBBBBBBBBBBBBBBBBBBBBBBBBBBBBBBBBBBBBBBBBBBBBBBA",
"ABBBBBBBBBBBBBBBBBBBBBBBBBBBBBBBBBBBBBBBBBBBBBBBBBBBBBBBBBBBBBBA",
"ABBBBBBBBBBBBBBBBBBBBBBBBBCCCCCCCCCCCCBBBBBBBBBBBBBBBBBBBBBBBBBA",
"ABBBBBBBBBBBBBBBBBBBBBBBBBCCCCCCCCCCCCBBBBBBBBBBBBBBBBBBBBBBBBBA",
"ABBBBBBBBBBBBBBBBBBBBBBCCCCCCCCCCCCCCCCCCBBBBBBBBBBBBBBBBBBBBBBA",
"ABBBBBBBBBBBBBBBBBBBDDEEEDCCCCCCCCCCCCDDEEEDBBBBBBBBBBBBBBBBBBBA",
"ABBBBBBBBBBBBBBBBBBBDDEEEDCCCCCCCCCCCCDDEEEDBBBBBBBBBBBBBBBBBBBA",
"ABBBBBBBBBBBBBBBBBBDEEEFFFDDCCCCCCCCCDFFFEEEDDBBBBBBBBBBBBBBBBBA",
"ABBBBBBBBBBBBBBBBDDDEEEEEEDDDCCCCCCDDDEEEEEEDDDBBBBBBBBBBBBBBBBA",
"ABBBBBBBBBBBBBBBBDDDEEEEEEDDDCCCCCCDDDEEEEEEDDDBBBBBBBBBBBBBBBBA",
"ABBBBBBBBBBBBBBBGDDDDDEFFDDDDCCCCCCDDDDDFEEDDDDGGBBBBBBBBBBBBBBA",
"ABBBBBBBBBBBBBCCCDDDDDDDDDDDDCCCCCCDDDDDDDDDDDDCCCBBBBBBBBBBBBBA",
"ABBBBBBBBBBBBBCCCDDDDDDDDDDDDCCCCCCDDDDDDDDDDDDCCCBBBBBBBBBBBBBA",
"ABBBBBBBBBBBBBCCCCCCDDDDDDDDDCCCCCCDDDDDDDDDCCCCCCBBBBBBBBBBBBBA",
"ABBBBBBBBBBBBCCCCDDDDDDDDDDDDCCCCCCDDDDDDDDDDDDCCCCCBBBBBBBBBBBA",
"ABBBBBBBBBBBBCCCCDDDDDDDDDDDDCCCCCCDDDDDDDDDDDDCCCCCBBBBBBBBBBBA",
"ABBBBBBBBBBBBCCCCDDDDDDDDDDDDCCCCCCDDDDDDDDDDDDCCCCCBBBBBBBBBBBA",
"ABBBBBBBBBBCCCCCCCCDDDDDDDCCCCCCCCCCCCDDDDDDDDCCCCCCCBBBBBBBBBBA",
"ABBBBBBBBBBCCCCCCCCDDDDDDDCCCCCCCCCCCCDDDDDDDDCCCCCCCBBBBBBBBBBA",
"ABBBBBBBBBBCCCCCCCCCDDDDDDCCCCCCCCCCCCDDDDDDCCCCCCCCCBBBBBBBBBBA",
"ABBBBBBBBBBCCCCCCCCCCCCCCCCCCCCCCCCCCCCCCCCCCCCCCCCCCBBBBBBBBBBA",
"ABBBBBBBBBBCCCCCCCCCCCCCCCCCCCCCCCCCCCCCCCCCCCCCCCCCCBBBBBBBBBBA",
"ABBBBBBBBBBCCCCCCCCCCCCCCCCCCCCCCCCCCCCCCCCCCCCCCCCCCBBBBBBBBBBA",
"ABBBBBBBBBBCCCCCCCCCCCCCCCCCCCCCCCCCCCCCCCCCCCCCCCCCCBBBBBBBBBBA",
"ABBBBBBBBBBCCCCCCCCCCCCCCCCCCCCCCCCCCCCCCCCCCCCCCCCCCBBBBBBBBBBA",
"ABBBBBBBBBBCCCCCCCCCCCCCCCCCCCCCCCCCCCCCCCCCCCCCCCCCCBBBBBBBBBBA",
"ABBBBBBBBBBCCCCCCCCCCCCCCCCCCCCCCCCCCCCCCCCCCCCCCCCCCBBBBBBBBBBA",
"ABBBBBBBBBBCCCCCCCCCCCCCCCCCCCCCCCCCCCCCCCCCCCCCCCCCCBBBBBBBBBBA",
"ABBBBBBBBBBCCCCCCCCCCCCCCCCCCCCCCCCCCCCCCCCCCCCCCCCCCBBBBBBBBBBA",
"ABBBBBBBBBBCCCCCCCCCCCCCCCCCCCCCCCCCCCCCCCCCCCCCCCCCCBBBBBBBBBBA",
"ABBBBBBBBBBCCCCCCCCCCCCCCCCCCCCCCCCCCCCCCCCCCCCCCCCCCBBBBBBBBBBA",
"ABBBBBBBBBBCCCCCCCCCCCCCCCCCCCCCCCCCCCCCCCCCCCCCCCCCCBBBBBBBBBBA",
"ABBBBBBBBBBCCCCCCCCCCCCCCCCCCCCCCCCCCCCCCCCCCCCCCCCCCBBBBBBBBBBA",
"ABBBBBBBBBBCCCCCCCCCCCCCCCCCCCCCCCCCCCCCCCCCCCCCCCCCCBBBBBBBBBBA",
"ABBBBBBBBBBCCCCCCCCCCCCCCCCCCCCCCCCCCCCCCCCCCCCCCCCCCBBBBBBBBBBA",
"ABBBBBBBBBBCCCCCCCCCCCCCCCCCCCCCCCCCCCCCCCCCCCCCCCCCCBBBBBBBBBBA",
"ABBBBBBBBBBCCCCCCCCCCCCCCCCCCCCCCCCCCCCCCCCCCCCCCCCCCBBBBBBBBBBA",
"ABBBBBBBBBBCCCCCCCCCCCCCCCCCCCCCCCCCCCCCCCCCCCCCCCCCCBBBBBBBBBBA",
"ABBBBBBBBBBCCCCCCCCCCCCCCCCCCCCCCCCCCCCCCCCCCCCCCCCCCBBBBBBBBBBA",
"ABBBBBBBBBBCCCCCCCCCCCCCCCCCCCCCCCCCCCCCCCCCCCCCCCCCCBBBBBBBBBBA",
"ABBBBBBBBBBCCCCCCCCCCCCCCCCCCCCCCCCCCCCCCCCCCCCCCCCCCBBBBBBBBBBA",
"ABBBBBBBBBBHHICCCCCCCCCCCBCCCCCCCCCCCCBBCCCCCCCCCCIIHBBBBBBBBBBA",
"ABBBBBBBBBBHHICCCCCCCCCCCBCCCCCCCCCCCCBBCCCCCCCCCCIIHBBBBBBBBBBA",
"ABBBBBBBBBBBBHCCCCCCCCCBBBBBCCCCCCCCCBBBBCCCCCCCCCHHBBBBBBBBBBBA",
"ABBBBBBBBBBBBBBBBBBBBBBBBBBBBBBBBBBBBBBBBBBBBBBBBBBBBBBBBBBBBBBA",
"ABBBBBBBBBBBBBBBBBBBBBBBBBBBBBBBBBBBBBBBBBBBBBBBBBBBBBBBBBBBBBBA",
"ABBBBBBBBBBBBBBBBBBBBBBBBBBBBBBBBBBBBBBBBBBBBBBBBBBBBBBBBBBBBBBA",
"ABBBBBBBBBBBBBBBBBBBBBBBBBBBBBBBBBBBBBBBBBBBBBBBBBBBBBBBBBBBBBBA",
"ABBBBBBBBBBBBBBBBBBBBBBBBBBBBBBBBBBBBBBBBBBBBBBBBBBBBBBBBBBBBBBA",
"ABBBBBBBBBBBBBBBBBBBBBBBBBBBBBBBBBBBBBBBBBBBBBBBBBBBBBBBBBBBBBBA",
"ABBBBBBBBBBBBBBBBBBBBBBBBBBBBBBBBBBBBBBBBBBBBBBBBBBBBBBBBBBBBBBA",
"ABBBBBBBBBBBBBBBBBBBBBBBBBBBBBBBBBBBBBBBBBBBBBBBBBBBBBBBBBBBBBBA",
"ABBBBBBBBBBBBBBBBBBBBBBBBBBBBBBBBBBBBBBBBBBBBBBBBBBBBBBBBBBBBBBA",
"ABBBBBBBBBBBBBBBBBBBBBBBBBBBBBBBBBBBBBBBBBBBBBBBBBBBBBBBBBBBBBBA",
"AAAAAAAAAAAAAAAAAAAAAAAAAAAAAAAAAAAAAAAAAAAAAAAAAAAAAAAAAAAAAAAA"
};
