/* XPM */
static char * matrix_xpm[] = {
"64 64 9 1",
"A	c #70DD99",
"B	c #000000",
"C	c #170E20",
"D	c #E4D9F9",
"E	c #EEAAED",
"F	c #FBC6FC",
"G	c #FDB7FD",
"H	c #241DF3",
"I	c #4026DD",
"AAAAAAAAAAAAAAAAAAAAAAAAAAAAAAAAAAAAAAAAAAAAAAAAAAAAAAAAAAAAAAAA",
"ABBBBBBBBBBBBBBBBBBBBBBBBBBBBBBBBBBBBBBBBBBBBBBBBBBBBBBBBBBBBBBA",
"ABBBBBBBBBBBBBBBBBBBBBBBBBBBBBBBBBBBBBBBBBBBBBBBBBBBBBBBBBBBBBBA",
"ABBBBBBBBBBBBBBBBBBBBBBBBBBBBBBBBBBBBBBBBBBBBBBBBBBBBBBBBBBBBBBA",
"ABBBBBBBBBBBBBBBBBBBBBBBBBBBBBBBBBBBBBBBBBBBBBBBBBBBBBBBBBBBBBBA",
"ABBBBBBBBBBBBBBBBBBBBBBBBBBBBBBBBBBBBBBBBBBBBBBBBBBBBBBBBBBBBBBA",
"ABBBBBBBBBBBBBBBBBBBBBBBBBBBBBBBBBBBBBBBBBBBBBBBBBBBBBBBBBBBBBBA",
"ABBBBBBBBBBBBBBBBBBBBBBBBBBBBBBBBBBBBBBBBBBBBBBBBBBBBBBBBBBBBBBA",
"ABBBBBBBBBBBBBBBBBBBBBBBBBBBBBBBBBBBBBBBBBBBBBBBBBBBBBBBBBBBBBBA",
"ABBBBBBBBBBBBBBBBBBBBBBBBBBBBBBBBBBBBBBBBBBBBBBBBBBBBBBBBBBBBBBA",
"ABBBBBBBBBBBBBBBBBBBBBBBBBBBCBBBBBBCCBBBBBBBBBBBBBBBBBBBBBBBBBBA",
"ABBBBBBBBBBBBBBBBBBBCCBBBCDDDEEFFFEDDDCCBBBCBBBBBBBBBBBBBBBBBBBA",
"ABBBBBBBBBBBBBBBBBBBCCBBBCDDDEEFFFEDDDCCBBBCBBBBBBBBBBBBBBBBBBBA",
"ABBBBBBBBBBBBBBBBBBBBBCDDEDDGGGEEEGGGDEEDCCBBBBBBBBBBBBBBBBBBBBA",
"ABBBBBBBBBBBBCBBBBBBDDHIIDFFGEEGGGEGGFDDIHHDBBBBBBCCBBBBBBBBBBBA",
"ABBBBBBBBBBBBCBBBBBBDDHIIDFFGEEGGGEGGFDDIHHDBBBBBBCCBBBBBBBBBBBA",
"ABBBBBBBBBBBBBBBBBBDHHHHHHDDFEEFFFEFFDHHHHHHDDBBBBBBBBBBBBBBBBBA",
"ABBBBBBBBBBBBBBBBDDDHHHHHHDDDFFEEEFDDDHHHHHHDDDBBBBBBBBBBBBBBBBA",
"ABBBBBBBBBBBBBBBBDDDHHHHHHDDDFFEEEFDDDHHHHHHDDDBBBBBBBBBBBBBBBBA",
"ABBBBBBBBBBBBBBBDDDDDDHHHDDDDGGGGGGDDDDDHHHDDDDDDBBBBBBBBBBBBBBA",
"ABBBBBBBBBBBBBFFGDDDDDDDDDDDDGGGGGGDDDDDDDDDDDDGGFBBBBBBBBBBBBBA",
"ABBBBBBBBBBBBBFFGDDDDDDDDDDDDGGGGGGDDDDDDDDDDDDGGFBBBBBBBBBBBBBA",
"ABBBBBBBBBBBBBEEGDDDDDDDDDDDDFFGGGFDDDDDDDDDDDDGGEBBBBBBBBBBBBBA",
"ABBBBBBBBBBBBEDDGDDDDDDDDDDDDFFGGGFDDDDDDDDDDDDGGDEEBBBBBBBBBBBA",
"ABBBBBBBBBBBBEDDGDDDDDDDDDDDDFFGGGFDDDDDDDDDDDDGGDEEBBBBBBBBBBBA",
"ABBBBBBBBBBBBFGGGDDDDDDDDDDDDFFGGGFDDDDDDDDDDDDGGGFFBBBBBBBBBBBA",
"ABBBBBBBBBBFFFEEEDDDDDDDDDDDDGGGGGGDDDDDDDDDDDDEEEFFFBBBBBBBBBBA",
"ABBBBBBBBBBFFFEEEDDDDDDDDDDDDGGGGGGDDDDDDDDDDDDEEEFFFBBBBBBBBBBA",
"ABBBBBBBBBBDDGGGFFFEDDDDDDDDGGGGGGGGGDDDDDDDEEFFFGGGDBBBBBBBBBBA",
"ABBBBBBBBBBEEGEEEGGFGGFFFFGGGGGGGGGGGGFFFFFGFFGEEEGGEBBBBBBBBBBA",
"ABBBBBBBBBBEEGEEEGGFGGFFFFGGGGGGGGGGGGFFFFFGFFGEEEGGEBBBBBBBBBBA",
"ABBBBBBBBBBDDEGGFEEGGGGGGGGGGGGGGGGGGGGGGGGGGGEFFGEEDBBBBBBBBBBA",
"ABBBBBBBBBBGGGGGGGGGGGGGGGGGGGGGGGGGGGGGGGGGGGGGGGGGGBBBBBBBBBBA",
"ABBBBBBBBBBGGGGGGGGGGGGGGGGGGGGGGGGGGGGGGGGGGGGGGGGGGBBBBBBBBBBA",
"ABBBBBBBBBBGGGGGGGGGGGGGGGGGGGGGGGGGGGGGGGGGGGGGGGGGGBBBBBBBBBBA",
"ABBBBBBBBBBGGGGGGGGGGGGGGGGGGGGGGGGGGGGGGGGGGGGGGGGGGBBBBBBBBBBA",
"ABBBBBBBBBBGGGGGGGGGGGGGGGGGGGGGGGGGGGGGGGGGGGGGGGGGGBBBBBBBBBBA",
"ABBBBBBBBBBGGGGGGGGGGGGGGGGGGGGGGGGGGGGGGGGGGGGGGGGGGBBBBBBBBBBA",
"ABBBBBBBBBBGGGGGGGGGGGGGGGGGGGGGGGGGGGGGGGGGGGGGGGGGGBBBBBBBBBBA",
"ABBBBBBBBBBGGGGGGGGGGGGGGGGGGGGGGGGGGGGGGGGGGGGGGGGGGBBBBBBBBBBA",
"ABBBBBBBBBBGGGGGGGGGGGGGGGGGGGGGGGGGGGGGGGGGGGGGGGGGGBBBBBBBBBBA",
"ABBBBBBBBBBGGGGGGGGGGGGGGGGGGGGGGGGGGGGGGGGGGGGGGGGGGBBBBBBBBBBA",
"ABBBBBBBBBBGGGGGGGGGGGGGGGGGGGGGGGGGGGGGGGGGGGGGGGGGGBBBBBBBBBBA",
"ABBBBBBBBBBGGGGGGGGGGGGGGGGGGGGGGGGGGGGGGGGGGGGGGGGGGBBBBBBBBBBA",
"ABBBBBBBBBBEEFEEGFFGGGGGGFFFEFFEEEFEEFFFGGGGGGFGGEFFEBBBBBBBBBBA",
"ABBBBBBBBBBEEFEEGFFGGGGGGFFFEFFEEEFEEFFFGGGGGGFGGEFFEBBBBBBBBBBA",
"ABBBBBBBCCBGGEDDGFFEGGGGGGEEGEEFFFEGGEGGGGGGEEFGGDEEGBBCBBBBBBBA",
"ABBBBBBBBBBGGGEEFBBCEEGEEGGGDBBBBBBDDGGGEGGECCBFFEGGGBBBBBBBBBBA",
"ABBBBBBBBBBGGGEEFBBCEEGEEGGGDBBBBBBDDGGGEGGECCBFFEGGGBBBBBBBBBBA",
"ABBBBBBBBBBFFGFFCBBBBBDEEEGGEBBBBBBEEGEEEDDBBBBCCFGGFBBBBBBBBBBA",
"ABBBBBBBBBBEEEBBBBBBBBBFFFGGDBBBBBBDDGFFFBBBBBBBBBEEEBBBBBBBBBBA",
"ABBBBBBBBBBEEEBBBBBBBBBFFFGGDBBBBBBDDGFFFBBBBBBBBBEEEBBBBBBBBBBA",
"ABBBBBBBBBBDDBBBBBBBBBBBBFFFDBBBBBBDDFFFBBBBBBBBBBBBDBBBBBBBBBBA",
"ABBBBBBBBBBBBBBBBBBCBBBBBBBBBBBBBBBBBBBBBBBBCCBBBBBBBBBBBBBBBBBA",
"ABBBBBBBBBBBBBBBBBBCBBBBBBBBBBBBBBBBBBBBBBBBCCBBBBBBBBBBBBBBBBBA",
"ABBBBBBBBBBBBBBBBBBBBBBBBBBBBBBBBBBBBBBBBBBBBBBBBBBBBBBBBBBBBBBA",
"ABBBBBBBBBBBBBBBBBBBBBBBBBBBBBBBBBBBBBBBBBBBBBBBBBBBBBBBBBBBBBBA",
"ABBBBBBBBBBBBBBBBBBBBBBBBBBBBBBBBBBBBBBBBBBBBBBBBBBBBBBBBBBBBBBA",
"ABBBBBBBBBBBBBBBBBBBBBBBBBBBBBBBBBBBBBBBBBBBBBBBBBBBBBBBBBBBBBBA",
"ABBBBBBBBBBBBBBBBBBBBBBBBBBBBBBBBBBBBBBBBBBBBBBBBBBBBBBBBBBBBBBA",
"ABBBBBBBBBBBBBBBBBBBBBBBBBBBBBBBBBBBBBBBBBBBBBBBBBBBBBBBBBBBBBBA",
"ABBBBBBBBBBBBBBBBBBBBBBBBBBBBBBBBBBBBBBBBBBBBBBBBBBBBBBBBBBBBBBA",
"ABBBBBBBBBBBBBBBBBBBBBBBBBBBBBBBBBBBBBBBBBBBBBBBBBBBBBBBBBBBBBBA",
"AAAAAAAAAAAAAAAAAAAAAAAAAAAAAAAAAAAAAAAAAAAAAAAAAAAAAAAAAAAAAAAA"
};
