/* XPM */
static char * matrix_xpm[] = {
"64 64 9 1",
"A	c #70DD99",
"B	c #000000",
"C	c #190924",
"D	c #E5D8F9",
"E	c #EEA9EF",
"F	c #FCC5FD",
"G	c #FDB7FE",
"H	c #241DF3",
"I	c #4026DD",
"AAAAAAAAAAAAAAAAAAAAAAAAAAAAAAAAAAAAAAAAAAAAAAAAAAAAAAAAAAAAAAAA",
"ABBBBBBBBBBBBBBBBBBBBBBBBBBBBBBBBBBBBBBBBBBBBBBBBBBBBBBBBBBBBBBA",
"ABBBBBBBBBBBBBBBBBBBBBBBBBBBBBBBBBBBBBBBBBBBBBBBBBBBBBBBBBBBBBBA",
"ABBBBBBBBBBBBBBBBBBBBBBBBBBBBBBBBBBBBBBBBBBBBBBBBBBBBBBBBBBBBBBA",
"ABBBBBBBBBBBBBBBBBBBBBBBBBBBBBBBBBBBBBBBBBBBBBBBBBBBBBBBBBBBBBBA",
"ABBBBBBBBBBBBBBBBBBBBBBBBBBBBBBBBBBBBBBBBBBBBBBBBBBBBBBBBBBBBBBA",
"ABBBBBBBBBBBBBBBBBBBBBBBBBBBBBBBBBBBBBBBBBBBBBBBBBBBBBBBBBBBBBBA",
"ABBBBBBBBBBBBBBBBBBBBBBBBBBBBBBBBBBBBBBBBBBBBBBBBBBBBBBBBBBBBBBA",
"ABBBBBBBBBBBBBBBBBBBBBBBBBBBBBBBBBBBBBBBBBBBBBBBBBBBBBBBBBBBBBBA",
"ABBBBBBBBBBBBBBBBBBBBBBBBBBBBBBBBBBBBBBBBBBBBBBBBBBBBBBBBBBBBBBA",
"ABBBBBBBBBBBBBBBBBBBBBBBBBBBCBBBBBBCCBBBBBBBBBBBBBBBBBBBBBBBBBBA",
"ABBBBBBBBBBBBBBBBBBBCCBBBCDDDEEFFFEDDDCCBBBCBBBBBBBBBBBBBBBBBBBA",
"ABBBBBBBBBBBBBBBBBBBCCBBBCDDDEEFFFEDDDCCBBBCBBBBBBBBBBBBBBBBBBBA",
"ABBBBBBBBBBBBBBBBBBBBBCDDEDDGGGEEEGGGDEEDCCBBBBBBBBBBBBBBBBBBBBA",
"ABBBBBBBBBBBBCBBBBBBDDHIIDFFGEEGGGEGGFDDIHHDBBBBBBCCBBBBBBBBBBBA",
"ABBBBBBBBBBBBCBBBBBBDDHIIDFFGEEGGGEGGFDDIHHDBBBBBBCCBBBBBBBBBBBA",
"ABBBBBBBBBBBBBBBBBBDHHHHHHDDFEEFFFEFFDHHHHHHDDBBBBBBBBBBBBBBBBBA",
"ABBBBBBBBBBBBBBBBDDDHHHHHHDDDFFEEEFDDDHHHHHHDDDBBBBBBBBBBBBBBBBA",
"ABBBBBBBBBBBBBBBBDDDHHHHHHDDDFFEEEFDDDHHHHHHDDDBBBBBBBBBBBBBBBBA",
"ABBBBBBBBBBBBBBBDDDDDDHHHDDDDGGGGGGDDDDDHHHDDDDDDBBBBBBBBBBBBBBA",
"ABBBBBBBBBBBBBFFGDDDDDDDDDDDDGGGGGGDDDDDDDDDDDDGGFBBBBBBBBBBBBBA",
"ABBBBBBBBBBBBBFFGDDDDDDDDDDDDGGGGGGDDDDDDDDDDDDGGFBBBBBBBBBBBBBA",
"ABBBBBBBBBBBBBEEGDDDDDDDDDDDDFFGGGFDDDDDDDDDDDDGGEBBBBBBBBBBBBBA",
"ABBBBBBBBBBBBEDDGDDDDDDDDDDDDFFGGGFDDDDDDDDDDDDGGDEEBBBBBBBBBBBA",
"ABBBBBBBBBBBBEDDGDDDDDDDDDDDDFFGGGFDDDDDDDDDDDDGGDEEBBBBBBBBBBBA",
"ABBBBBBBBBBBBFGGGDDDDDDDDDDDDFFGGGFDDDDDDDDDDDDGGGFFBBBBBBBBBBBA",
"ABBBBBBBBBBFFFEEEDDDDDDDDDDDDGGGGGGDDDDDDDDDDDDEEEFFFBBBBBBBBBBA",
"ABBBBBBBBBBFFFEEEDDDDDDDDDDDDGGGGGGDDDDDDDDDDDDEEEFFFBBBBBBBBBBA",
"ABBBBBBBBBBDDGGGFFFEDDDDDDDDGGGGGGGGGDDDDDDDEEFFFGGGDBBBBBBBBBBA",
"ABBBBBBBBBBEEGEEEGGFGGFFFFGGGGGGGGGGGGFFFFFGFFGEEEGGEBBBBBBBBBBA",
"ABBBBBBBBBBEEGEEEGGFGGFFFFGGGGGGGGGGGGFFFFFGFFGEEEGGEBBBBBBBBBBA",
"ABBBBBBBBBBDDEGGFEEGGGGGGGGGGGGGGGGGGGGGGGGGGGEFFGEEDBBBBBBBBBBA",
"ABBBBBBBBBBGGGGGGGGGGGGGGGGGGGGGGGGGGGGGGGGGGGGGGGGGGBBBBBBBBBBA",
"ABBBBBBBBBBGGGGGGGGGGGGGGGGGGGGGGGGGGGGGGGGGGGGGGGGGGBBBBBBBBBBA",
"ABBBBBBBBBBGGGGGGGGGGGGGGGGGGGGGGGGGGGGGGGGGGGGGGGGGGBBBBBBBBBBA",
"ABBBBBBBBBBGGGGGGGGGGGGGGGGGGGGGGGGGGGGGGGGGGGGGGGGGGBBBBBBBBBBA",
"ABBBBBBBBBBGGGGGGGGGGGGGGGGGGGGGGGGGGGGGGGGGGGGGGGGGGBBBBBBBBBBA",
"ABBBBBBBBBBGGGGGGGGGGGGGGGGGGGGGGGGGGGGGGGGGGGGGGGGGGBBBBBBBBBBA",
"ABBBBBBBBBBGGGGGGGGGGGGGGGGGGGGGGGGGGGGGGGGGGGGGGGGGGBBBBBBBBBBA",
"ABBBBBBBBBBGGGGGGGGGGGGGGGGGGGGGGGGGGGGGGGGGGGGGGGGGGBBBBBBBBBBA",
"ABBBBBBBBBBGGGGGGGGGGGGGGGGGGGGGGGGGGGGGGGGGGGGGGGGGGBBBBBBBBBBA",
"ABBBBBBBBBBGGGGGGGGGGGGGGGGGGGGGGGGGGGGGGGGGGGGGGGGGGBBBBBBBBBBA",
"ABBBBBBBBBBGGGGGGGGGGGGGGGGGGGGGGGGGGGGGGGGGGGGGGGGGGBBBBBBBBBBA",
"ABBBBBBBBBBGGGGGGGGGGGGGGGGGGGGGGGGGGGGGGGGGGGGGGGGGGBBBBBBBBBBA",
"ABBBBBBBBBBEEGGGEEEFFFFEEGGGFEEFFFEFFGGGEFFFFFEEEGGGEBBBBBBBBBBA",
"ABBBBBBBBBBEEGGGEEEFFFFEEGGGFEEFFFEFFGGGEFFFFFEEEGGGEBBBBBBBBBBA",
"ABBBBBBBBBBDDGGGEFFGEEFFFEGGEEEGGGEEEGEEFFFEGGFEEGGGDBBBBBBBBBBA",
"ABBBBBBBBBBDDGGGEFFEGGGEEGGGFEEFFFEFFGGGEGGGEEFEEGGGDBBBBBBBBBBA",
"ABBBBBBBBBBDDGGGEFFEGGGEEGGGFEEFFFEFFGGGEGGGEEFEEGGGDBBBBBBBBBBA",
"ABBBBBBBBBBDDEEEDEEGGGEGGFEEEGGEEEGEEEFFGEEGGGEDDEEEDBBBBBBBBBBA",
"ABBBBBBBBBBBBEDDEEEFEEDEECFFGFFGGGFGGFCCEDDEFFEEEDEEBBBBBBBBBBBA",
"ABBBBBBBBBBBBEDDEEEFEEDEECFFGFFGGGFGGFCCEDDEFFEEEDEEBBBBBBBBBBBA",
"ABBBBBBBBBBBBBDDEDDEFFECCBCCDDDFFFDDDCBBCEEFEEDEEDBBBBBBBBBBBBBA",
"ABBBBBBBBBBBBBBBBBBBBBBBBBBBBBBBBBBBBBBBBBBBBBBBBBBBBBBBBBBBBBBA",
"ABBBBBBBBBBBBBBBBBBBBBBBBBBBBBBBBBBBBBBBBBBBBBBBBBBBBBBBBBBBBBBA",
"ABBBBBBBBBBBBBBBBBBBBBBBBBBBBBBBBBBBBBBBBBBBBBBBBBBBBBBBBBBBBBBA",
"ABBBBBBBBBBBBBBBBBBBBBBBBBBBBBBBBBBBBBBBBBBBBBBBBBBBBBBBBBBBBBBA",
"ABBBBBBBBBBBBBBBBBBBBBBBBBBBBBBBBBBBBBBBBBBBBBBBBBBBBBBBBBBBBBBA",
"ABBBBBBBBBBBBBBBBBBBBBBBBBBBBBBBBBBBBBBBBBBBBBBBBBBBBBBBBBBBBBBA",
"ABBBBBBBBBBBBBBBBBBBBBBBBBBBBBBBBBBBBBBBBBBBBBBBBBBBBBBBBBBBBBBA",
"ABBBBBBBBBBBBBBBBBBBBBBBBBBBBBBBBBBBBBBBBBBBBBBBBBBBBBBBBBBBBBBA",
"ABBBBBBBBBBBBBBBBBBBBBBBBBBBBBBBBBBBBBBBBBBBBBBBBBBBBBBBBBBBBBBA",
"ABBBBBBBBBBBBBBBBBBBBBBBBBBBBBBBBBBBBBBBBBBBBBBBBBBBBBBBBBBBBBBA",
"AAAAAAAAAAAAAAAAAAAAAAAAAAAAAAAAAAAAAAAAAAAAAAAAAAAAAAAAAAAAAAAA"
};
