/* XPM */
static char *tuto_01[] = {
"608 120 4 1",
"  c #000000",
"G c #70DD99",
"B c #3399FF",
"R c #FF0000",
"                                                                                                                                                                                                                                                                                                                                                                                                                                                                                                                                                                                                                                ",
"                                                                                                                                                                                                                                                                                                                                                                                                                                                                                                                                                                                                                                ",
"                                                                                                                                                                                                                                                                                                                                                                                                                                                                                                                                                                                                                                ",
"                                                                                                                                                                                                                                                                                                                                                                                                                                                                                                                                                                                                                                ",
"                                                                                                                                                                                                                                                                                                                                                                                                                                                                                                                                                                                                                                ",
"                                                                                                                                                                                                                                                                                                                                                                                                                                                                                                                                                                                                                                ",
"                                                                                                                                                                                                                                                                                                                                                                                                                                                                                                                                                                                                                                ",
"                                                                                                                                                                                                                                                                                                                                                                                                                                                                                                                                                                                                                                ",
"                                                                                                                                                                                                                                                                                                                                                                                                                                                                                                                                                                                                                                ",
"                                                                                                                                                                                                                                                                                                                                                                                                                                                                                                                                                                                                                                ",
"                                                                                                                                                                                                                                                                                                                                                                                                                                                                                                                                                                                                                                ",
"                                                                                                                                                                                                                                                                                                                                                                                                                                                                                                                                                                                                                                ",
"                                                                                                                                                                                                                                                                                                                                                                                                                                                                                                                                                                                                                                ",
"                                                                                                                                                                                                                                                                                                                                                                                                                                                                                                                                                                                                                                ",
"                                                                                                                                                                                                                                                                                                                                                                                                                                                                                                                                                                                                                                ",
"                                                                                                                                                                                                                                                                                                                                                                                                                                                                                                                                                                                                                                ",
"                                                                                                                                                                                                                                                                                                                                                                                                                                                                                                                                                                                                                                ",
"                                                                                                                                                                                                                                                                                                                                                                                                                                                                                                                                                                                                                                ",
"                                                                                                                                                                                                                                                                                                                                                                                                                                                                                                                                                                                                                                ",
"                                                                                                                                                                                                                                                                                                                                                                                                                                                                                                                                                                                                                                ",
"                                                                                                                                                                                                                                                                                                                                                                                                                                                                                                                                                                                                                                ",
"                                                                                                                                                                                                                                                                                                                                                                                                                                                                                                                                                                                                                                ",
"                                                                                                                                                                                                                                                                                                                                                                                                                                                                                                                                                                                                                                ",
"                                                                                                                                                                                                                                                                                                                                                                                                                                                                                                                                                                                                                                ",
"                                                                                                                                                                                                                                                                                                                                                                                                                                                                                                                                                                                                                                ",
"                                                                                                                                                                                                                                                                                                                                                                                                                                                                                                                                                                                                                                ",
"                                                                                                                                                                                                                                                                                                                                                                                                                                                                                                                                                                                                                                ",
"                                                                                                                                                                                                                                                                                                                                                                                                                                                                                                                                                                                                                                ",
"                                                                                                                                                                                                                                                                                                                                                                                                                                                                                                                                                                                                                                ",
"                                                                     GGGGGGGG        GGGGGGGG                                              GGGGGG                                                   GGGG                                                                          GGGG                                                                                          GGGG                                                                                                                                 GGGG                                                                                                       ",
"                                     GGG         GGGG                GGGGGGGG        GGGGGGGG                                            GGGGGGGG                                                   GGGG                                                                          GGGG                                                                                          GGGG                                                                                          GGGGGGGGGGG                            GGGG                                       GGG                                                             ",
"                                     GGG         GGG                 GGGGGGGG        GGGGGGGG                                            GGGGGGGG                                                   GGGG                                                                          GGGG                                                                             GGGG         GGGG                                                                                          GGGGGGGGGGG                            GGGG                                       GGG            GGGG                                             ",
"                                     GGGG        GGG                     GGGG            GGGG                                            GGGG                                                       GGGG                                                                          GGGG                                                                             GGGG         GGGG                                                                                          GGGGGGGGGGG                            GGGG                                       GGG            GGGG                                             ",
"                                     GGGG        GGG                     GGGG            GGGG                                            GGG                                                        GGGG                                                                          GGGG                                                                             GGGG         GGGG                                                                                              GGGG                               GGGG                                       GGG            GGGG                                             ",
"                                      GGG        GGG                     GGGG            GGGG                                            GGG                                                        GGGG                                                                          GGGG                                                                             GGGG         GGGG                                                                                              GGGG                               GGGG                                       GGG            GGGG                                             ",
"                                      GGG  GGG   GGG      GGGGGG         GGGG            GGGG                                        GGGGGGGGGGGG       GGGGGG    GGG         GGGG                  GGGG  GGGG       GGGGGGG      GGGG      GGG       GGGGGG                      GGGG GGGGG         GGGGGG         GGGGGG       GGGG  GGGG                    GGGGGGGGGGGGG    GGGG  GGGG        GGGGGG         GGG  GGGGG       GGGGGG                                          GGGG                         GGGG  GGGG       GGGGGG      GGGG  GGGG          GGG        GGGGGGGGGGGGG                                        ",
"                                      GGG  GGGG  GGG    GGGGGGGGG        GGGG            GGGG                                        GGGGGGGGGGGG     GGGGGGGGG   GGG         GGG                   GGGGGGGGGGG     GGGGGGGGGG    GGGG     GGGG     GGGGGGGGG                     GGGGGGGGGGG      GGGGGGGGG      GGGGGGGGG      GGGGGGGGGGG                   GGGGGGGGGGGGG    GGGGGGGGGGG     GGGGGGGGG        GGG GGGGGGG    GGGGGGGGG                                         GGGG                        GGGGGG GGGG     GGGGGGGGG     GGGGGGGGGGG         GGG        GGGGGGGGGGGGG                                        ",
"                                      GGG  GGGG  GGG    GGGGGGGGGG       GGGG            GGGG                                        GGGGGGGGGGGG     GGGGGGGGGG  GGG         GGG                   GGGGGGGGGGG     GGGGGGGGGG     GGG     GGGG     GGGGGGGGGG                    GGGGGGGGGGGG     GGGGGGGGGG     GGGGGGGGGG     GGGGGGGGGGG                   GGGGGGGGGGGGG    GGGGGGGGGGG     GGGGGGGGGG       GGGGGGGGGGG    GGGGGGGGGG                                        GGGG                       GGGGGGGGGGGG     GGGGGGGGGG    GGGGGGGGGGG                    GGGGGGGGGGGGG                                        ",
"                                      GGG  GGGG  GGG   GGGG    GGGG      GGGG            GGGG                                            GGG         GGGG    GGGG  GGG        GGG                   GGGGG  GGGG     G      GGGG    GGGG    GGGG    GGGG    GGGG                   GGGGG   GGGG    GGGG    GGGG   GGGG    GGGG    GGGGG  GGGG                       GGGG         GGGGG  GGGG    GGGG    GGGG      GGGGG    GG   GGGG    GGGG                                       GGGG                       GGGG   GGGGG    GGGG   GGGGG   GGGGG  GGGG                        GGGG                                             ",
"                                      GGG GGGGG  GGG   GGG     GGGG      GGGG            GGGG                                            GGG         GGG     GGGG  GGG  GGG   GGG                   GGGG    GGGG           GGGG    GGGG    GGG     GGG     GGGG                   GGGG    GGGG    GGG     GGGG   GGG     GGGG    GGGG    GGGG                      GGGG         GGGG    GGGG   GGG     GGGG      GGGG          GGG     GGGG                                       GGGG                      GGGG     GGGG    GGGG    GGGG   GGGG    GGGG                       GGGG                                             ",
"                                      GGG GGGGGG GG   GGGG      GGG      GGGG            GGGG                                            GGG        GGGG      GGG  GGG  GGGG  GGG                   GGGG    GGGG     GGGGGGGGGG     GGG   GGGG    GGGG      GGG                   GGGG     GGG   GGGG      GGG  GGGG      GGG    GGGG    GGGG                      GGGG         GGGG    GGGG  GGGG      GGG      GGGG         GGGG      GGG                                       GGGG                      GGGG     GGGG   GGGG     GGGG   GGGG    GGGG                       GGGG                                             ",
"                                      GGG GG GGGGGG   GGGGGGGGGGGGGG     GGGG            GGGG                                            GGG        GGGGGGGGGGGGGG GGG  GGGG  GG                    GGGG    GGGG   GGGGGGGGGGGG     GGGG  GGGG    GGGGGGGGGGGGGG                  GGGG     GGG   GGGGGGGGGGGGGG GGGGGGGGGGGGGG   GGGG    GGGG                      GGGG         GGGG    GGGG  GGGGGGGGGGGGGG     GGG          GGGGGGGGGGGGGG                                      GGGG                      GGGG     GGGG   GGGG      GGG   GGGG    GGGG                       GGGG                                             ",
"                                       GGGGG  GGGGG   GGGGGGGGGGGGGG     GGGG            GGGG                                            GGG        GGGGGGGGGGGGGG GGG  GGGG GGG                    GGGG    GGGG   GGGGGGGGGGGG     GGGG  GGG     GGGGGGGGGGGGGG                  GGGG     GGG   GGGGGGGGGGGGGG GGGGGGGGGGGGGG   GGGG    GGGG                      GGGG         GGGG    GGGG  GGGGGGGGGGGGGG     GGG          GGGGGGGGGGGGGG                                      GGGG                      GGGG     GGGG   GGGG      GGG   GGGG    GGGG                       GGGG                                             ",
"                                       GGGGG  GGGGG   GGGGGGGGGGGGGG     GGGG            GGGG                                            GGG        GGGGGGGGGGGGGG  GG GG GG GGG                    GGGG    GGGG  GGGGG    GGGG      GGG  GGG     GGGGGGGGGGGGGG                  GGGG     GGG   GGGGGGGGGGGGGG GGGGGGGGGGGGGG   GGGG    GGGG                      GGGG         GGGG    GGGG  GGGGGGGGGGGGGG     GGG          GGGGGGGGGGGGGG                                      GGGG                      GGGG     GGGG   GGGG     GGGG   GGGG    GGGG                       GGGG                                             ",
"                                       GGGGG  GGGGG    GGG               GGGG            GGGG             GGGG                           GGG         GGG            GGGGG GGGGGG                    GGGG    GGGG  GGGG     GGGG      GGG GGGG      GGG                            GGGG    GGGG    GGG            GGG             GGGG    GGGG                      GGGG         GGGG    GGGG   GGG               GGG           GGG                GGGG                            GGGG                      GGGG     GGGG    GGGG    GGGG   GGGG    GGGG                       GGGG                                             ",
"                                       GGGGG  GGGGG    GGGG      GG      GGGG            GGGG             GGGG                           GGG         GGGG      GG   GGGGG  GGGGG                    GGGG    GGGG  GGGGG   GGGGG      GGGGGGG       GGGG      GG                   GGGGG   GGGG    GGGG      GG   GGGG      GG    GGGG    GGGG                      GGGG         GGGG    GGGG   GGGG      GG      GGG           GGGG      GG       GGGG                            GGGG                       GGGG   GGGGG    GGGG   GGGGG   GGGG    GGGG                       GGGG                                             ",
"                                       GGGG   GGGGG    GGGGGGGGGGGG      GGGGGGGGG       GGGGGGGGG        GGGG                           GGG         GGGGGGGGGGGG   GGGGG  GGGGG                    GGGG    GGGG   GGGGGGGGGGGG       GGGGGG       GGGGGGGGGGGG                   GGGGGGGGGGGG    GGGGGGGGGGGG   GGGGGGGGGGGG    GGGG    GGGG                      GGGGGGGGG    GGGG    GGGG   GGGGGGGGGGGG      GGG           GGGGGGGGGGGG       GGGG                        GGGGGGGGGGG                    GGGGGGGGGGGG     GGGGGGGGGG    GGGG    GGGG                       GGGGGGGGG                                        ",
"                                       GGGG    GGGG     GGGGGGGGGGG       GGGGGGGG        GGGGGGGG        GGGG                           GGG          GGGGGGGGGGG   GGGG   GGGG                     GGGG    GGGG   GGGGGGGGGGGG       GGGGGG        GGGGGGGGGGG                   GGGGGGGGGGG      GGGGGGGGGGG    GGGGGGGGGGG    GGGG    GGGG                       GGGGGGGG    GGGG    GGGG    GGGGGGGGGGG      GGG            GGGGGGGGGGG       GGGG                        GGGGGGGGGGG                     GGGGGG GGGG     GGGGGGGGG     GGGG    GGGG                        GGGGGGGG                                        ",
"                                       GGGG    GGGG       GGGGGGG          GGGGGGG         GGGGGGG        GGG                            GGG            GGGGGGG     GGGG   GGGG                     GGGG    GGGG     GGGG  GGGG       GGGGG           GGGGGGG                     GGGG GGGGG         GGGGGGG        GGGGGGG      GGGG    GGGG                        GGGGGGG    GGGG    GGGG      GGGGGGG        GGG              GGGGGGG         GGGG                        GGGGGGGGGGG                      GGGG  GGGG       GGGGGG      GGGG    GGGG                         GGGGGGG                                        ",
"                                                                                                         GGGG                                                                                                                                                                                                                                                                                                                                                                                                                                                                                                                   ",
"                                                                                                         GGG                                                                                                                                                                                                                                                                                                                                                                                                                                                                                                                    ",
"                                                                                                         GGG                                                                                                                                                                                                                                                                                                                                                                                                                                                                                                                    ",
"                                                                                                                                                                                                                                                                                                                                                                                                                                                                                                                                                                                                                                ",
"                                                                                                                                                                                                                                                                                                                                                                                                                                                                                                                                                                                                                                ",
"                                                                                                                                                                                                                                                                                                                                                                                                                                                                                                                                                                                                                                ",
"                                                                                                                                                                                                                                                                                                                                                                                                                                                                                                                                                                                                                                ",
"                                                                                                                                                                                                                                                                                                                                                                                                                                                                                                                                                                                                                                ",
"                                                                                                                                                                                                                                                                                                                                                                                                                                                                                                                                                                                                                                ",
"                                                                                                                                                                                                                                                                                                                                                                                                                                                                                                                                                                                                                                ",
"                                                                                                                                                                                                                                                                                                                                                                                                                                                                                                                                                                                                                                ",
"                                                                                                                                                                                                                                                                                                                                                                                                                                                                                                                                                                                                                                ",
"                                                                                                                                                                                                                                                                                                                                                                                                                                                                                                                                                                                                                                ",
"                                                                                                                                                                                                                                                                                                                                                                                                                                                                                                                                                                                                                                ",
"                                                                                                                                                                                                                                                                                                                                                                                                                                                                                                                                                                                                                                ",
"                                                                                                                         GGGG                                           GGGG                                                                                                                                                                                                                                                                                                                     GGGG                            GGGG                                                                                           ",
"                                       GGGG                                                                              GGGG              GGGGGG                       GGGG                                                                                                                                                                                                                                                                                                                     GGGG                GGGG        GGGG                                                                                           ",
"                                       GGGG                                                                              GGGG            GGGGGGGG                       GGGG                            GGG                                                                                                                                                                                                                                                                                      GGGG                GGGG        GGGG                                                                                           ",
"                                       GGGG                                                                              GGGG            GGGGGGGG                       GGGG           GGGG             GGG                                                                                                                                                                                                                                      GGGG                                            GGGG                GGGG        GGGG          GGGG                                                                             ",
"                                       GGGG                                                                                              GGGG                                          GGGG             GGG                                                                                                                                                                                                                                      GGGG                                                                GGGG                      GGGG                                                                             ",
"                                       GGGG                                                                                              GGG                                           GGGG             GGG                                                                                                                                                                                                                                      GGGG                                                                GGGG                      GGGG                                                                             ",
"                                       GGGG                                                                                              GGG                                           GGGG             GGG                                                                                                                                                                                                                                      GGGG                                                                GGGG                      GGGG                                                                             ",
"                                       GGGG    GGGG    GGGG  GGGG        GGGGGG     GGG         GGGG                  GGGGGGG        GGGGGGGGGGGG                    GGGGGGG       GGGGGGGGGGGGG        GGG           GGGGGG                           GGGGGG        GGGGGG       GGGG    GGG       GGG  GGGGG     GGGGGGG         GGGGG GGGG      GGGGGG                          GGGGGG        GGG  GGGGG                       GGGGGG     GGGGGGGGGGGGG    GGGG    GGG     GGGG GGGGG      GGGGGGG          GGGG  GGGG     GGGGGGG      GGGGGGGGGGGGG   GGGG      GGGG                                                       ",
"                                       GGGG   GGGG     GGGGGGGGGGG     GGGGGGGGG    GGG         GGG                   GGGGGGG        GGGGGGGGGGGG                    GGGGGGG       GGGGGGGGGGGGG        GGG         GGGGGGGGGG                       GGGGGGGGG     GGGGGGGGG      GGGG    GGG       GGG GGGGGGG   GGGGGGGGGG      GGGGGGGGGGG    GGGGGGGGG                       GGGGGGGGG       GGG GGGGGGG                    GGGGGGGGGG   GGGGGGGGGGGGG    GGGG    GGG     GGGGGGGGGGG     GGGGGGG         GGGGGG GGGG     GGGGGGG      GGGGGGGGGGGGG   GGGG     GGGG                                                        ",
"                                       GGGG  GGGG      GGGGGGGGGGG     GGGGGGGGGG   GGG         GGG                   GGGGGGG        GGGGGGGGGGGG                    GGGGGGG       GGGGGGGGGGGGG                    GGGGGGGGGG                      GGGGGGGGGG     GGGGGGGGGG     GGGG    GGG       GGGGGGGGGGG   GGGGGGGGGG     GGGGGGGGGGGG    GGGGGGGGGG                      GGGGGGGGGG      GGGGGGGGGGG                    GGGGGGGGGG   GGGGGGGGGGGGG    GGGG    GGG     GGGGGGGGGGGG    GGGGGGG        GGGGGGGGGGGG     GGGGGGG      GGGGGGGGGGGGG    GGGG    GGGG                                                        ",
"                                       GGGG GGGG       GGGGG  GGGG    GGGG   GGGGG   GGG        GGG                      GGGG            GGG                            GGGG           GGGG                        GGGG     GG                      GGGGG    G    GGGG   GGGGG    GGGG    GGG       GGGGG    GG   G      GGGG    GGGG   GGGGG   GGGG    GGGG                    GGGG   GGGGG     GGGGG    GG                   GGGG     GG       GGGG         GGGG    GGG     GGGGG   GGGG       GGGG        GGGG   GGGGG        GGGG          GGGG         GGGG    GGGG                                                        ",
"                                       GGGGGGGG        GGGG    GGGG   GGGG    GGGG   GGG  GGG   GGG                      GGGG            GGG                            GGGG           GGGG                        GGGG                            GGGGG          GGGG    GGGG    GGGG    GGG       GGGG                 GGGG    GGGG    GGGG   GGG     GGGG                    GGGG    GGGG     GGGG                          GGGG              GGGG         GGGG    GGG     GGGG    GGGG       GGGG       GGGG     GGGG        GGGG          GGGG          GGG   GGGG                                                         ",
"                                       GGGGGGGG        GGGG    GGGG  GGGG     GGGG   GGG  GGGG  GGG                      GGGG            GGG                            GGGG           GGGG                        GGGGGG                          GGGG          GGGG     GGGG    GGGG    GGG       GGGG           GGGGGGGGGG   GGGG     GGGG  GGGG      GGG                   GGGG     GGGG     GGGG                          GGGGGG            GGGG         GGGG    GGG     GGGG     GGG       GGGG       GGGG     GGGG        GGGG          GGGG          GGGG  GGGG                                                         ",
"                                       GGGGGGGG        GGGG    GGGG  GGGG      GGG   GGG  GGGG  GG                       GGGG            GGG                            GGGG           GGGG                         GGGGGGGGG                      GGGG          GGGG      GGG    GGGG    GGG       GGG          GGGGGGGGGGGG   GGGG     GGGG  GGGGGGGGGGGGGG                  GGGG      GGG     GGG                            GGGGGGGGG        GGGG         GGGG    GGG     GGGG     GGG       GGGG       GGGG     GGGG        GGGG          GGGG          GGGG  GGG                                                          ",
"                                       GGGGGGGGG       GGGG    GGGG  GGGG      GGG   GGG  GGGG GGG                       GGGG            GGG                            GGGG           GGGG                           GGGGGGGG                     GGGG          GGGG      GGG    GGGG    GGG       GGG          GGGGGGGGGGGG   GGGG     GGGG  GGGGGGGGGGGGGG                  GGGG      GGG     GGG                              GGGGGGGG       GGGG         GGGG    GGG     GGGG     GGG       GGGG       GGGG     GGGG        GGGG          GGGG           GGG GGGG                                                          ",
"                                       GGGG  GGGG      GGGG    GGGG  GGGG     GGGG    GG GG GG GGG                       GGGG            GGG                            GGGG           GGGG                              GGGGG                     GGGG          GGGG     GGGG    GGGG    GGG       GGG         GGGGG    GGGG   GGGG     GGGG  GGGGGGGGGGGGGG                  GGGG     GGGG     GGG                                 GGGGG       GGGG         GGGG    GGG     GGGG     GGG       GGGG       GGGG     GGGG        GGGG          GGGG           GGGGGGGG                                                          ",
"                                       GGGG  GGGG      GGGG    GGGG   GGGG    GGGG    GGGGG GGGGGG                       GGGG            GGG                            GGGG           GGGG                                GGG                     GGGGG          GGGG    GGGG    GGGG   GGGG       GGG         GGGG     GGGG    GGGG    GGGG   GGG                             GGGG    GGGG     GGG                                   GGG       GGGG         GGGG   GGGG     GGGG    GGGG       GGGG       GGGG     GGGG        GGGG          GGGG            GGGGGG           GGGG                                            ",
"                                       GGGG   GGGG     GGGG    GGGG   GGGG   GGGGG    GGGGG  GGGGG                       GGGG            GGG                            GGGG           GGGG                        GG      GGG                      GGGGG    G    GGGG   GGGGG    GGGG   GGGG       GGG         GGGGG   GGGGG    GGGG   GGGGG   GGGG      GG                    GGGG   GGGGG     GGG                           GG      GGG       GGGG         GGGG   GGGG     GGGGG   GGGG       GGGG        GGGG   GGGGG        GGGG          GGGG            GGGGGG           GGGG                                            ",
"                                       GGGG    GGGG    GGGG    GGGG    GGGGGGGGGG     GGGGG  GGGGG                   GGGGGGGGGGGGG       GGG                        GGGGGGGGGGGGG      GGGGGGGGG                   GGGGGGGGGGG                      GGGGGGGGGG     GGGGGGGGGG     GGGGGGGGGGG       GGG          GGGGGGGGGGGG    GGGGGGGGGGGG   GGGGGGGGGGGG                     GGGGGGGGGG      GGG                           GGGGGGGGGGG       GGGGGGGGG    GGGGGGGGGGG     GGGGGGGGGGGG   GGGGGGGGGGGGG   GGGGGGGGGGGG    GGGGGGGGGGGGG     GGGGGGGGG       GGGGG            GGGG                                            ",
"                                       GGGG    GGGG    GGGG    GGGG    GGGGGGGGG      GGGG   GGGG                    GGGGGGGGGGGGG       GGG                        GGGGGGGGGGGGG       GGGGGGGG                   GGGGGGGGGGG                       GGGGGGGGG     GGGGGGGGG       GGGGGGGGGG       GGG          GGGGGGGGGGGG     GGGGGGGGGGG    GGGGGGGGGGG                     GGGGGGGGG       GGG                           GGGGGGGGGGG        GGGGGGGG     GGGGGGGGGG     GGGGGGGGGGG    GGGGGGGGGGGGG    GGGGGG GGGG    GGGGGGGGGGGGG      GGGGGGGG        GGGG            GGGG                                            ",
"                                       GGGG     GGGG   GGGG    GGGG      GGGGGG       GGGG   GGGG                    GGGGGGGGGGGGG       GGG                        GGGGGGGGGGGGG        GGGGGGG                     GGGGGGG                           GGGGGG        GGGGGG         GGGG  GGG       GGG            GGGG  GGGG      GGGGG GGGG      GGGGGGG                         GGGGGG        GGG                             GGGGGGG           GGGGGGG      GGGG  GGG     GGGG GGGGG     GGGGGGGGGGGGG     GGGG  GGGG    GGGGGGGGGGGGG       GGGGGGG        GGGG            GGGG                                            ",
"                                                                                                                                                                                                                                                                                                                                         GGGG                                                                                                                                 GGGG                                                                              GGG                                                             ",
"                                                                                                                                                                                                                                                                                                                                  G     GGGGG                                                                                                                                 GGGG                                                                             GGGG                                                             ",
"                                                                                                                                                                                                                                                                                                                                  GGGGGGGGGG                                                                                                                                  GGGG                                                                          GGGGGG                                                              ",
"                                                                                                                                                                                                                                                                                                                                  GGGGGGGGG                                                                                                                                   GGGG                                                                          GGGGGG                                                              ",
"                                                                                                                                                                                                                                                                                                                                   GGGGGGG                                                                                                                                    GGGG                                                                          GGGG                                                                ",
"                                                                                                                                                                                                                                                                                                                                                                                                                                                                                                                                                                                                                                ",
"                                                                                                                                                                                                                                                                                                                                                                                                                                                                                                                                                                                                                                ",
"                                                                                                                                                                                                                                                                                                                                                                                                                                                                                                                                                                                                                                ",
"                                                                                                                                                                                                                                                                                                                                                                                                                                                                                                                                                                                                                                ",
"                                                                                                                                                                                                                                                                                                                                                                                                                                                                                                                                                                                                                                ",
"                                                                                                                                                                                                                                                                                                                                                                                                                                                                                                                                                                                                                                ",
"                                                                                                                                                                                                                                                                                                                                                                                                                                                                                                                                                                                                                                ",
"                                                                                                                                                                                                                                                                                                                                                                                                                                                                                                                                                                                                                                ",
"                                                                                                                                                                                                                                                                                                                                                                                                                                                                                                                                                                                                                                ",
"                                                                                                                                                                                                                                                                                                                                                                                                                                                                                                                                                                                                                                ",
"                                                                                                                                                                                                                                                                                                                                                                                                                                                                                                                                                                                                                                ",
"                                                                                                                                                                                                                                                                                                                                                                                                                                                                                                                                                                                                                                ",
"                                                                                                                                                                                                                                                                                                                                                                                                                                                                                                                                                                                                                                ",
"                                                                                                                                                                                                                                                                                                                                                                                                                                                                                                                                                                                                                                ",
"                                                                                                                                                                                                                                                                                                                                                                                                                                                                                                                                                                                                                                ",
"                                                                                                                                                                                                                                                                                                                                                                                                                                                                                                                                                                                                                                ",
"                                                                                                                                                                                                                                                                                                                                                                                                                                                                                                                                                                                                                                ",
"                                                                                                                                                                                                                                                                                                                                                                                                                                                                                                                                                                                                                                ",
"                                                                                                                                                                                                                                                                                                                                                                                                                                                                                                                                                                                                                                ",
"                                                                                                                                                                                                                                                                                                                                                                                                                                                                                                                                                                                                                                ",
"                                                                                                                                                                                                                                                                                                                                                                                                                                                                                                                                                                                                                                ",
"                                                                                                                                                                                                                                                                                                                                                                                                                                                                                                                                                                                                                                ",
"                                                                                                                                                                                                                                                                                                                                                                                                                                                                                                                                                                                                                                ",
"                                                                                                                                                                                                                                                                                                                                                                                                                                                                                                                                                                                                                                ",
"                                                                                                                                                                                                                                                                                                                                                                                                                                                                                                                                                                                                                                ",
"                                                                                                                                                                                                                                                                                                                                                                                                                                                                                                                                                                                                                                ",
"                                                                                                                                                                                                                                                                                                                                                                                                                                                                                                                                                                                                                                ",
"                                                                                                                                                                                                                                                                                                                                                                                                                                                                                                                                                                                                                                ",
"                                                                                                                                                                                                                                                                                                                                                                                                                                                                                                                                                                                                                                ",
"                                                                                                                                                                                                                                                                                                                                                                                                                                                                                                                                                                                                                                "
};
