/* XPM */
static char *tuto_02[] = {
"608 120 4 1",
"  c #000000",
"G c #70DD99",
"B c #3399FF",
"R c #FF0000",
"                                                                                                                                                                                                                                                                                                                                                                                                                                                                                                                                                                                                                                ",
"                                                                                                                                                                                                                                                                                                                                                                                                                                                                                                                                                                                                                                ",
"                                                                                                                                                                                                                                                                                                                                                                                                                                                                                                                                                                                                                                ",
"                                                                                                                                                                                                                                                                                                                                                                                                                                                                                                                                                                                                                                ",
"                                                                                                                                                                                                                                                                                                                                                                                                                                                                                                                                                                                                                                ",
"                                                                                                                                                                                                                                                                                                                                                                                                                                                                                                                                                                                                                                ",
"                                                                                                                                                                                                                                                                                                                                                                                                                                                                                                                                                                                                                                ",
"                                                                                                                                                                                                                                                                                                                                                                                                                                                                                                                                                                                                                                ",
"                                                                                                                                                                                                                                                                                                                                                                                                                                                                                                                                                                                                                                ",
"                                                                                                                                                                                                                                                                                                                                                                                                                                                                                                                                                                                                                                ",
"                                                                                                                                                                                                                                                                                                                                                                                                                                                                                                                                                                                                                                ",
"                                                                                                                                                                                                                                                                                                                                                                                                                                                                                                                                                                                                                                ",
"                                                                                                                                                                                                                                                                                                                                                                                                                                                                                                                                                                                                                                ",
"                                                                                                                                                                                                                                                                                                                                                                                                                                                                                                                                                                                                                                ",
"                                                                                                                                                                                                                                                                                                                                                                                                                                                                                                                                                                                                                                ",
"                                                                                                                                                                                                                                                                                                                                                                                                                                                                                                                                                                                                                                ",
"                                                                                                                                                                                                                                                                                                                                                                                                                                                                                                                                                                                                                                ",
"                                                                                                                                                                                                                                                                                                                                                                                                                                                                                                                                                                                                                                ",
"                                                                                                                                                                                                                                                                                                                                                                                                                                                                                                                                                                                                                                ",
"                                                                                                                                                                                                                                                                                                                                                                                                                                                                                                                                                                                                                                ",
"                                                                                                                                                                                                                                                                                                                                                                                                                                                                                                                                                                                                                                ",
"                                                                                                                                                                                                                                                                                                                                                                                                                                                                                                                                                                                                                                ",
"                                                                                                                                                                                                                                                                                                                                                                                                                                                                                                                                                                                                                                ",
"                                                                                                                                                                                                                                                                                                                                                                                                                                                                                                                                                                                                                                ",
"                                                                                                                                                                                                                                                                                                                                                                                                                                                                                                                                                                                                                                ",
"                                                                                                                                                                                                                                                                                                                                                                                                                                                                                                                                                                                                                                ",
"                                                                                                                                                                                                                                                                                                                                                                                                                                                                                                                                                                                                                                ",
"                                                                                                                                                                                                                                                                                                                                                                                                                                                                                                                                                                                                                                ",
"                                            GGGG                                                                                                                                                                                                                                                                                                                                                                                                                                  GGGG                                                                                                                                          ",
"                                            GGGG                                                                                                                                                                    GGGG                                          GGGGGGGG                 GGGG                                                                                                                 GGGG                                          GGGGGGGG            GGGG                        GGGG                                                                                                              ",
"                        GGGGGGGGGGGG        GGGG                                                                                                                                                                    GGGG                                          GGGGGGGG                 GGGG                                                                                                                 GGGG                                          GGGGGGGG            GGGG                        GGGG                                                                                                              ",
"                        GGGGGGGGGGGG        GGGG                                          GGGG                                                                                                                      GGGG                                          GGGGGGGG                 GGGG                      GGGG                                                                          GGGG         GGGG                                          GGGGGGGG            GGGG                        GGGG              GGGG                                                                                            ",
"                        GGGGGGGGGGGG                                                      GGGG                                                                                                                      GGGG                                              GGGG                 GGGG                      GGGG                                                                          GGGG         GGGG                                              GGGG                                        GGGG              GGGG                                                                                            ",
"                        GGGG                                                              GGGG                                                                                                                      GGGG                                              GGGG                 GGGG                      GGGG                                                                          GGGG         GGGG                                              GGGG                                        GGGG              GGGG                                                                                            ",
"                        GGGG                                                              GGGG                                                                                                                      GGGG                                              GGGG                 GGGG                      GGGG                                                                          GGGG         GGGG                                              GGGG                                        GGGG              GGGG                                                                                            ",
"                        GGGG             GGGGGGG         GGG  GGGGG       GGGGGG      GGGGGGGGGGGGG                                  GGGG      GGGG     GGGGGG       GGGG    GGG                       GGGGGG       GGGG  GGGG         GGGGGG      GGGG    GGG        GGGG           GGGG  GGGG                  GGGGGGGGGGGGG   GGGG    GGG       GGG  GGGGG    GGGG  GGGG                    GGGGGGGGGGGGG    GGGG  GGGG        GGGGGG                          GGGG         GGGGGGG          GGGGG GGGG    GGGG  GGGG    GGGGGGGGGGGGG       GGGGGG                         GGGGGG       GGGG  GGGG                          ",
"                        GGGG             GGGGGGG         GGG GGGGGGG    GGGGGGGGGG    GGGGGGGGGGGGG                                  GGGG     GGGG    GGGGGGGGG      GGGG    GGG                     GGGGGGGGGG     GGGGGGGGGGG      GGGGGGGGG     GGGG    GGG        GGGG          GGGGGG GGGG                  GGGGGGGGGGGGG   GGGG    GGG       GGG GGGGGGG   GGGGGGGGGGG                   GGGGGGGGGGGGG    GGGGGGGGGGG     GGGGGGGGG                         GGGG         GGGGGGG         GGGGGGGGGGG    GGGGGGGGGGG   GGGGGGGGGGGGG     GGGGGGGGGG                     GGGGGGGGG      GGGGGGGGGGG                         ",
"                        GGGGGGGGGGG      GGGGGGG         GGGGGGGGGGG    GGGGGGGGGG    GGGGGGGGGGGGG                                   GGGG    GGGG    GGGGGGGGGG     GGGG    GGG                     GGGGGGGGGG     GGGGGGGGGGG      GGGGGGGGGG    GGGG    GGG        GGGG         GGGGGGGGGGGG                  GGGGGGGGGGGGG   GGGG    GGG       GGGGGGGGGGG   GGGGGGGGGGG                   GGGGGGGGGGGGG    GGGGGGGGGGG     GGGGGGGGGG                        GGGG         GGGGGGG        GGGGGGGGGGGG    GGGGGGGGGGG   GGGGGGGGGGGGG     GGGGGGGGGG                     GGGGGGGGGG     GGGGGGGGGGG                         ",
"                        GGGGGGGGGGG         GGGG         GGGGG    GG   GGGG     GG        GGGG                                        GGGG    GGGG   GGGG   GGGGG    GGGG    GGG                    GGGG     GG     GGGGG  GGGG     GGGG   GGGGG   GGGG    GGG        GGGG         GGGG   GGGGG                      GGGG        GGGG    GGG       GGGGG    GG   GGGGG  GGGG                       GGGG         GGGGG  GGGG    GGGG    GGGG                       GGGG            GGGG        GGGG   GGGGG    GGGGG  GGGG       GGGG         GGGG     GG                    GGGG   GGGGG    GGGGG  GGGG                         ",
"                        GGGGGGGGGGG         GGGG         GGGG          GGGG               GGGG                                         GGG   GGGG    GGGG    GGGG    GGGG    GGG                    GGGG            GGGG    GGGG    GGGG    GGGG   GGGG    GGG        GGGG        GGGG     GGGG                      GGGG        GGGG    GGG       GGGG          GGGG    GGGG                      GGGG         GGGG    GGGG   GGG     GGGG                       GGGG            GGGG        GGGG    GGGG    GGGG    GGGG      GGGG         GGGG                           GGGG    GGGG    GGGG    GGGG                        ",
"                        GGGG                GGGG         GGGG          GGGGGG             GGGG                                         GGGG  GGGG   GGGG     GGGG    GGGG    GGG                    GGGGGG          GGGG    GGGG   GGGG     GGGG   GGGG    GGG        GGGG        GGGG     GGGG                      GGGG        GGGG    GGG       GGGG          GGGG    GGGG                      GGGG         GGGG    GGGG  GGGG      GGG                       GGGG            GGGG       GGGG     GGGG    GGGG    GGGG      GGGG         GGGGGG                        GGGG     GGGG    GGGG    GGGG                        ",
"                        GGGG                GGGG         GGG            GGGGGGGGG         GGGG                                         GGGG  GGG    GGGG      GGG    GGGG    GGG                     GGGGGGGGG      GGGG    GGGG   GGGG      GGG   GGGG    GGG        GGGG        GGGG     GGGG                      GGGG        GGGG    GGG       GGG           GGGG    GGGG                      GGGG         GGGG    GGGG  GGGGGGGGGGGGGG                      GGGG            GGGG       GGGG     GGGG    GGGG    GGGG      GGGG          GGGGGGGGG                    GGGG      GGG    GGGG    GGGG                        ",
"                        GGGG                GGGG         GGG              GGGGGGGG        GGGG                                          GGG GGGG    GGGG      GGG    GGGG    GGG                       GGGGGGGG     GGGG    GGGG   GGGG      GGG   GGGG    GGG        GGGG        GGGG     GGGG                      GGGG        GGGG    GGG       GGG           GGGG    GGGG                      GGGG         GGGG    GGGG  GGGGGGGGGGGGGG                      GGGG            GGGG       GGGG     GGGG    GGGG    GGGG      GGGG            GGGGGGGG                   GGGG      GGG    GGGG    GGGG                        ",
"                        GGGG                GGGG         GGG                 GGGGG        GGGG                                          GGGGGGGG    GGGG     GGGG    GGGG    GGG                          GGGGG     GGGG    GGGG   GGGG     GGGG   GGGG    GGG        GGGG        GGGG     GGGG                      GGGG        GGGG    GGG       GGG           GGGG    GGGG                      GGGG         GGGG    GGGG  GGGGGGGGGGGGGG                      GGGG            GGGG       GGGG     GGGG    GGGG    GGGG      GGGG               GGGGG                   GGGG     GGGG    GGGG    GGGG                        ",
"                        GGGG                GGGG         GGG                   GGG        GGGG            GGGG                           GGGGGG      GGGG    GGGG    GGGG   GGGG                            GGG     GGGG    GGGG    GGGG    GGGG   GGGG   GGGG        GGGG        GGGG     GGGG                      GGGG        GGGG   GGGG       GGG           GGGG    GGGG                      GGGG         GGGG    GGGG   GGG                                GGGG            GGGG        GGGG    GGGG    GGGG    GGGG      GGGG                 GGG                    GGGG    GGGG    GGGG    GGGG                        ",
"                        GGGG                GGGG         GGG           GG      GGG        GGGG            GGGG                           GGGGGG      GGGG   GGGGG    GGGG   GGGG                    GG      GGG     GGGG    GGGG    GGGG   GGGGG   GGGG   GGGG        GGGG         GGGG   GGGGG                      GGGG        GGGG   GGGG       GGG           GGGG    GGGG                      GGGG         GGGG    GGGG   GGGG      GG                       GGGG            GGGG        GGGG   GGGGG    GGGG    GGGG      GGGG         GG      GGG                    GGGG   GGGGG    GGGG    GGGG                        ",
"                        GGGG            GGGGGGGGGGGGG    GGG           GGGGGGGGGGG        GGGGGGGGG       GGGG                           GGGGG        GGGGGGGGGG     GGGGGGGGGGG                    GGGGGGGGGGG     GGGG    GGGG     GGGGGGGGGG    GGGGGGGGGGG        GGGGGGGGG    GGGGGGGGGGGG                      GGGGGGGGG   GGGGGGGGGGG       GGG           GGGG    GGGG                      GGGGGGGGG    GGGG    GGGG   GGGGGGGGGGGG                       GGGGGGGGG   GGGGGGGGGGGGG   GGGGGGGGGGGG    GGGG    GGGG      GGGGGGGGG    GGGGGGGGGGG                     GGGGGGGGGG     GGGG    GGGG                        ",
"                        GGGG            GGGGGGGGGGGGG    GGG           GGGGGGGGGGG         GGGGGGGG       GGGG                            GGGG        GGGGGGGGG       GGGGGGGGGG                    GGGGGGGGGGG     GGGG    GGGG     GGGGGGGGG      GGGGGGGGGG         GGGGGGGG     GGGGGG GGGG                       GGGGGGGG    GGGGGGGGGG       GGG           GGGG    GGGG                       GGGGGGGG    GGGG    GGGG    GGGGGGGGGGG                        GGGGGGGG   GGGGGGGGGGGGG    GGGGGGGGGGG    GGGG    GGGG       GGGGGGGG    GGGGGGGGGGG                     GGGGGGGGG      GGGG    GGGG                        ",
"                        GGGG            GGGGGGGGGGGGG    GGG             GGGGGGG            GGGGGGG       GGG                             GGGG          GGGGGG         GGGG  GGG                      GGGGGGG       GGGG    GGGG       GGGGGG        GGGG  GGG          GGGGGGG      GGGG  GGGG                        GGGGGGG     GGGG  GGG       GGG           GGGG    GGGG                        GGGGGGG    GGGG    GGGG      GGGGGGG                           GGGGGGG   GGGGGGGGGGGGG     GGGGG GGGG    GGGG    GGGG        GGGGGGG      GGGGGGG                         GGGGGG       GGGG    GGGG                        ",
"                                                                                                         GGGG                             GGG                                                                                                                                                                                                                                                                                                                                                         GGGG                                                                                                                      ",
"                                                                                                         GGG                             GGGG                                                                                                                                                                                                                                                                                                                                                  G     GGGGG                                                                                                                      ",
"                                                                                                         GGG                          GGGGGG                                                                                                                                                                                                                                                                                                                                                   GGGGGGGGGG                                                                                                                       ",
"                                                                                                                                      GGGGGG                                                                                                                                                                                                                                                                                                                                                   GGGGGGGGG                                                                                                                        ",
"                                                                                                                                      GGGG                                                                                                                                                                                                                                                                                                                                                      GGGGGGG                                                                                                                         ",
"                                                                                                                                                                                                                                                                                                                                                                                                                                                                                                                                                                                                                                ",
"                                                                                                                                                                                                                                                                                                                                                                                                                                                                                                                                                                                                                                ",
"                                                                                                                                                                                                                                                                                                                                                                                                                                                                                                                                                                                                                                ",
"                                                                                                                                                                                                                                                                                                                                                                                                                                                                                                                                                                                                                                ",
"                                                                                                                                                                                                                                                                                                                                                                                                                                                                                                                                                                                                                                ",
"                                                                                                                                                                                                                                                                                                                                                                                                                                                                                                                                                                                                                                ",
"                                                                                                                                                                                                                                                                                                                                                                                                                                                                                                                                                                                                                                ",
"                                                                                                                                                                                                                                                                                                                                                                                                                                                                                                                                                                                                                                ",
"                                                                                                                                                                                                                                                                                                                                                                                                                                                                                                                                                                                                                                ",
"                                                                                                                                                                                                                                                                                                                                                                                                                                                                                                                                                                                                                                ",
"                                                                                                                                                                                                                                                                                                                                                                                                                                                                                                                                                                                                                                ",
"                                                                                                                                    GG                                                                                                                                          GGGGGG                                                                                                                                               GGGGGGGG                           GGG                                                                                                                                                     ",
"                                                                                                                                   GGG                                                                                                                                        GGGGGGGG                                                                                                                                               GGGGGGGG                            GGG                                                                                                                                                    ",
"                                                                                                                                  GGGG                                                                                                                                        GGGGGGGG                                                                                                     GGGG                                      GGGGGGGG                            GGG                                                                                                                                                    ",
"                                                                                                                                  GGG                                                                                                                                         GGGG                                                                                                         GGGG                                          GGGG                             GGG                                                                                                                                                   ",
"                                                                                                                                 GGGG                                                                                                                                         GGG                                                                                                          GGGG                                          GGGG                             GGG                                                                                                                                                   ",
"                                                                                                                                 GGG                                                                                                                                          GGG                                                                                                          GGGG                                          GGGG                             GGGG                                                                                                                                                  ",
"                                                                                                                                 GGG         GGGG GGGGG       GGG  GGGGG       GGGGGG          GGGGGG         GGGGGG                      GGG GGG  GGG                    GGGGGGGGGGGG       GGGGGG        GGG  GGGGG                        GGGGGG        GGGGGG       GGGG  GGGG     GGGGGGGGGGGGG     GGG  GGGGG       GGGGGG         GGGG            GGGGGG            GGG                                                                                                                                                  ",
"                                                                                                                                GGGG         GGGGGGGGGGG      GGG GGGGGGG    GGGGGGGGG       GGGGGGGGGG     GGGGGGGGGG                    GGGGGGGGGGGGG                   GGGGGGGGGGGG     GGGGGGGGG       GGG GGGGGGG                     GGGGGGGGG     GGGGGGGGG      GGGGGGGGGGG    GGGGGGGGGGGGG     GGG GGGGGGG    GGGGGGGGG        GGGG          GGGGGGGGGG          GGG                                                                                                                                                  ",
"                                                                                                                                GGGG         GGGGGGGGGGGG     GGGGGGGGGGG    GGGGGGGGGG      GGGGGGGGGG     GGGGGGGGGG                    GGGGGGGGGGGGG                   GGGGGGGGGGGG     GGGGGGGGGG      GGGGGGGGGGG                    GGGGGGGGGG     GGGGGGGGGG     GGGGGGGGGGG    GGGGGGGGGGGGG     GGGGGGGGGGG    GGGGGGGGGG       GGGG          GGGGGGGGGG          GGGG                                                                                                                                                 ",
"                                                                                                                                GGGG         GGGGG   GGGG     GGGGG    GG   GGGG    GGGG    GGGG     GG    GGGG     GG                    GGG  GGGG GGGG                      GGG         GGGG   GGGGG     GGGGG    GG                    GGGGG    G    GGGG   GGGGG    GGGGG  GGGG        GGGG          GGGGG    GG   GGGG   GGGGG      GGGG         GGGG     GG          GGGG                                                                                                                                                 ",
"                                                                                                                                GGGG         GGGG    GGGG     GGGG          GGG     GGGG    GGGG           GGGG                           GGG  GGG   GGG                      GGG         GGGG    GGGG     GGGG                          GGGGG          GGGG    GGGG    GGGG    GGGG       GGGG          GGGG          GGGG    GGGG      GGGG         GGGG                 GGGG                                                                                                                                                 ",
"                                                                                                                                GGG          GGGG     GGG     GGGG         GGGG      GGG    GGGGGG         GGGGGG                         GGG  GGG   GGG                      GGG        GGGG     GGGG     GGGG                          GGGG          GGGG     GGGG    GGGG    GGGG       GGGG          GGGG         GGGG     GGGG      GGGG         GGGGGG               GGGG                                                                                                                                                 ",
"                                                                                                                                GGGG         GGGG     GGG     GGG          GGGGGGGGGGGGGG    GGGGGGGGG      GGGGGGGGG                     GGG  GGG   GGG                      GGG        GGGG      GGG     GGG                           GGGG          GGGG      GGG    GGGG    GGGG       GGGG          GGG          GGGG      GGG      GGGG          GGGGGGGGG           GGGG                                                                                                                                                 ",
"                                                                                                                                GGGG         GGGG     GGG     GGG          GGGGGGGGGGGGGG      GGGGGGGG       GGGGGGGG                    GGG  GGG   GGG                      GGG        GGGG      GGG     GGG                           GGGG          GGGG      GGG    GGGG    GGGG       GGGG          GGG          GGGG      GGG      GGGG            GGGGGGGG          GGGG                                                                                                                                                 ",
"                                                                                                                                GGGG         GGGG     GGG     GGG          GGGGGGGGGGGGGG         GGGGG          GGGGG                    GGG  GGG   GGG                      GGG        GGGG     GGGG     GGG                           GGGG          GGGG     GGGG    GGGG    GGGG       GGGG          GGG          GGGG     GGGG      GGGG               GGGGG          GGGG                                                                                                                                                 ",
"                                                                                                                                GGGG         GGGG    GGGG     GGG           GGG                     GGG            GGG                    GGG  GGG   GGG                      GGG         GGGG    GGGG     GGG                           GGGGG          GGGG    GGGG    GGGG    GGGG       GGGG          GGG           GGGG    GGGG      GGGG                 GGG          GGG           GGGG                                                                                                                                   ",
"                                                                                                                                 GGG         GGGGG   GGGG     GGG           GGGG      GG    GG      GGG    GG      GGG                    GGG  GGG   GGG                      GGG         GGGG   GGGGG     GGG                            GGGGG    G    GGGG   GGGGG    GGGG    GGGG       GGGG          GGG           GGGG   GGGGG      GGGG         GG      GGG          GGG           GGGG                                                                                                                                   ",
"                                                                                                                                 GGG         GGGGGGGGGGGG     GGG           GGGGGGGGGGGG    GGGGGGGGGGG    GGGGGGGGGGG                    GGG  GGG   GGG                      GGG          GGGGGGGGGG      GGG                            GGGGGGGGGG     GGGGGGGGGG     GGGG    GGGG       GGGGGGGGG     GGG            GGGGGGGGGG       GGGGGGGGG    GGGGGGGGGGG         GGGG           GGGG                                                                                                                                   ",
"                                                                                                                                 GGGG        GGGGGGGGGGG      GGG            GGGGGGGGGGG    GGGGGGGGGGG    GGGGGGGGGGG                    GGG  GGG   GGG                      GGG          GGGGGGGGG       GGG                             GGGGGGGGG     GGGGGGGGG      GGGG    GGGG        GGGGGGGG     GGG            GGGGGGGGG         GGGGGGGG    GGGGGGGGGGG         GGG            GGGG                                                                                                                                   ",
"                                                                                                                                  GGG        GGGG GGGGG       GGG              GGGGGGG        GGGGGGG        GGGGGGG                      GGG  GGG   GGG                      GGG            GGGGGG        GGG                               GGGGGG        GGGGGG       GGGG    GGGG         GGGGGGG     GGG              GGGGGG           GGGGGGG      GGGGGGG           GGG            GGGG                                                                                                                                   ",
"                                                                                                                                  GGGG       GGGG                                                                                                                                                                                                                                                                                                                        GGG                                                                                                                                                    ",
"                                                                                                                                   GGG       GGGG                                                                                                                                                                                                                                                                                                                        GGG                                                                                                                                                    ",
"                                                                                                                                    GG       GGGG                                                                                                                                                                                                                                                                                                                       GGG                                                                                                                                                     ",
"                                                                                                                                             GGGG                                                                                                                                                                                                                                                                                                                                                                                                                                                                               ",
"                                                                                                                                             GGGG                                                                                                                                                                                                                                                                                                                                                                                                                                                                               ",
"                                                                                                                                                                                                                                                                                                                                                                                                                                                                                                                                                                                                                                ",
"                                                                                                                                                                                                                                                                                                                                                                                                                                                                                                                                                                                                                                ",
"                                                                                                                                                                                                                                                                                                                                                                                                                                                                                                                                                                                                                                ",
"                                                                                                                                                                                                                                                                                                                                                                                                                                                                                                                                                                                                                                ",
"                                                                                                                                                                                                                                                                                                                                                                                                                                                                                                                                                                                                                                ",
"                                                                                                                                                                                                                                                                                                                                                                                                                                                                                                                                                                                                                                ",
"                                                                                                                                                                                                                                                                                                                                                                                                                                                                                                                                                                                                                                ",
"                                                                                                                                                                                                                                                                                                                                                                                                                                                                                                                                                                                                                                ",
"                                                                                                                                                                                                                                                                                                                                                                                                                                                                                                                                                                                                                                ",
"                                                                                                                                                                                                                                                                                                                                                                                                                                                                                                                                                                                                                                ",
"                                                                                                                                                                                                                                                                                                                                                                                                                                                                                                                                                                                                                                ",
"                                                                                                                                                                                                                                                                                                                                                                                                                                                                                                                                                                                                                                ",
"                                                                                                                                                                                                                                                                                                                                                                                                                                                                                                                                                                                                                                ",
"                                                                                                                                                                                                                                                                                                                                                                                                                                                                                                                                                                                                                                ",
"                                                                                                                                                                                                                                                                                                                                                                                                                                                                                                                                                                                                                                ",
"                                                                                                                                                                                                                                                                                                                                                                                                                                                                                                                                                                                                                                ",
"                                                                                                                                                                                                                                                                                                                                                                                                                                                                                                                                                                                                                                ",
"                                                                                                                                                                                                                                                                                                                                                                                                                                                                                                                                                                                                                                ",
"                                                                                                                                                                                                                                                                                                                                                                                                                                                                                                                                                                                                                                ",
"                                                                                                                                                                                                                                                                                                                                                                                                                                                                                                                                                                                                                                ",
"                                                                                                                                                                                                                                                                                                                                                                                                                                                                                                                                                                                                                                ",
"                                                                                                                                                                                                                                                                                                                                                                                                                                                                                                                                                                                                                                ",
"                                                                                                                                                                                                                                                                                                                                                                                                                                                                                                                                                                                                                                ",
"                                                                                                                                                                                                                                                                                                                                                                                                                                                                                                                                                                                                                                ",
"                                                                                                                                                                                                                                                                                                                                                                                                                                                                                                                                                                                                                                ",
"                                                                                                                                                                                                                                                                                                                                                                                                                                                                                                                                                                                                                                ",
"                                                                                                                                                                                                                                                                                                                                                                                                                                                                                                                                                                                                                                ",
"                                                                                                                                                                                                                                                                                                                                                                                                                                                                                                                                                                                                                                ",
"                                                                                                                                                                                                                                                                                                                                                                                                                                                                                                                                                                                                                                ",
"                                                                                                                                                                                                                                                                                                                                                                                                                                                                                                                                                                                                                                "
};
