/* XPM */
static char *tuto_03[] = {
"608 120 4 1",
"  c #000000",
"G c #70DD99",
"B c #3399FF",
"R c #FF0000",
"                                                                                                                                                                                                                                                                                                                                                                                                                                                                                                                                                                                                                                ",
"                                                                                                                                                                                                                                                                                                                                                                                                                                                                                                                                                                                                                                ",
"                                                                                                                                                                                                                                                                                                                                                                                                                                                                                                                                                                                                                                ",
"                                                                                                                                                                                                                                                                                                                                                                                                                                                                                                                                                                                                                                ",
"                                                                                                                                                                                                                                                                                                                                                                                                                                                                                                                                                                                                                                ",
"                                                                                                                                                                                                                                                                                                                                                                                                                                                                                                                                                                                                                                ",
"                                                                                                                                                                                                                                                                                                                                                                                                                                                                                                                                                                                                                                ",
"                                                                                                                                                                                                                                                                                                                                                                                                                                                                                                                                                                                                                                ",
"                                                                                                                                                                                                                                                                                                                                                                                                                                                                                                                                                                                                                                ",
"                                                                                                                                                                                                                                                                                                                                                                                                                                                                                                                                                                                                                                ",
"                                                                                                                                                                                                                                                                                                                                                                                                                                                                                                                                                                                                                                ",
"                                                                                                                                                                                                                                                                                                                                                                                                                                                                                                                                                                                                                                ",
"                                                                                                                                                                                                                                                                                                                                                                                                                                                                                                                                                                                                                                ",
"                                                                                                                                                                                                                                                                                                                                                                                                                                                                                                                                                                                                                                ",
"                                                                                                                                                                                                                                                                                                                                                                                                                                                                                                                                                                                                                                ",
"                                                                                                                                                                                                                                                                                                                                                                                                                                                                                                                                                                                                                                ",
"                                                                                                                                                                                                                                                                                                                                                                                                                                                                                                                                                                                                                                ",
"                                                                                                                                                                                                                                                                                                                                                                                                                                                                                                                                                                                                                                ",
"                                                                                                                                                                                                                                                                                                                                                                                                                                                                                                                                                                                                                                ",
"                                                                                                                                                                                                                                                                                                                                                                                                                                                                                                                                                                                                                                ",
"                                                                                                                                                                                                                                                                                                                                                                                                                                                                                                                                                                                                                                ",
"                                                                                                                                                                                                                                                                                                                                                                                                                                                                                                                                                                                                                                ",
"                                                                                                                                                                                                                                                                                                                                                                                                                                                                                                                                                                                                                                ",
"                                                                                                                                                                                                                                                                                                                                                                                                                                                                                                                                                                                                                                ",
"                                                                                                                                                                                                                                                                                                                                                                                                                                                                                                                                                                                                                                ",
"                                                                                                                                                                                                                                                                                                                                                                                                                                                                                                                                                                                                                                ",
"                                                                                                                                                                                                                                                                                                                                                                                                                                                                                                                                                                                                                                ",
"                                                                                                                                                                                                                                                                                                                                                                                                                                                                                                                                                                                                                                ",
"                                                                                                                                                                                                                                                                                                                     GGGG                                                                                          GGGG                                                                                                                                                                                                         ",
"                                                                                                                                                                                    GGGG                                                                                                         GGGGGGGG            GGGG        GGGG                                                          GGGG                GGGG                                                                                      GGGG                                                                   GGGG                                        ",
"                                       GGGGGGGGGGG                        GGG                                                                                                       GGGG                                                                                                         GGGGGGGG            GGGG        GGGG                                                          GGGG                GGGG                                                       GGGGGGGGGGG                    GGGG                                                                   GGGG                                        ",
"                                       GGGGGGGGGGG        GGGG            GGG                                                                                                       GGGG                              GGGG            GGGG                                                       GGGGGGGG            GGGG        GGGG                                              GGGG        GGGG                GGGG                                                       GGGGGGGGGGG                    GGGG                                                                   GGGG                                        ",
"                                       GGGGGGGGGGG        GGGG            GGG                                                                                                       GGGG                              GGGG            GGGG                                                           GGGG                        GGGG                                              GGGG        GGGG                                                                           GGGGGGGGGGG                    GGGG                                                                   GGGG                                        ",
"                                           GGGG           GGGG            GGG                                                                                                       GGGG                              GGGG            GGGG                                                           GGGG                        GGGG                                              GGGG        GGGG                                                                               GGGG                       GGGG                                                                   GGGG                                        ",
"                                           GGGG           GGGG            GGG                                                                                                       GGGG                              GGGG            GGGG                                                           GGGG                        GGGG                                              GGGG        GGGG                                                                               GGGG                       GGGG                                                                   GGGG                                        ",
"                                           GGGG       GGGGGGGGGGGGG       GGG            GGGGGG                    GGG         GGGG    GGGGGGG      GGGG      GGGG                  GGGG GGGGG         GGGGGG     GGGGGGGGGGGGG   GGGGGGGGGGGGG       GGGGGG        GGG  GGGGG                       GGGG         GGGGGGG        GGGG    GGGG      GGGGGG                      GGGGGGGGGGGGG   GGGG  GGGG       GGGGGGG           GGGGGG                                          GGGG                       GGGG  GGGG         GGGGGG        GGGGGGG         GGG  GGGGG      GGGG  GGGG                                        ",
"                                           GGGG       GGGGGGGGGGGGG       GGG          GGGGGGGGGG                  GGG         GGG    GGGGGGGGGG    GGGG     GGGG                   GGGGGGGGGGG      GGGGGGGGG    GGGGGGGGGGGGG   GGGGGGGGGGGGG     GGGGGGGGG       GGG GGGGGGG                      GGGG         GGGGGGG        GGGG   GGGG     GGGGGGGGG                     GGGGGGGGGGGGG   GGGGGGGGGGG      GGGGGGG         GGGGGGGGGG                                        GGGG                       GGGGGGGGGGG      GGGGGGGGG      GGGGGGGGGG       GGG GGGGGGG    GGGGGG GGGG                                        ",
"                                           GGGG       GGGGGGGGGGGGG                    GGGGGGGGGG                  GGG         GGG    GGGGGGGGGG     GGGG    GGGG                   GGGGGGGGGGGG     GGGGGGGGGG   GGGGGGGGGGGGG   GGGGGGGGGGGGG     GGGGGGGGGG      GGGGGGGGGGG                      GGGG         GGGGGGG        GGGG  GGGG      GGGGGGGGGG                    GGGGGGGGGGGGG   GGGGGGGGGGG      GGGGGGG         GGGGGGGGGG                                        GGGG                       GGGGGGGGGGG      GGGGGGGGGG     GGGGGGGGGG       GGGGGGGGGGG   GGGGGGGGGGGG                                        ",
"                                           GGGG           GGGG                        GGGG     GG                   GGG        GGG    G      GGGG    GGGG    GGGG                   GGGGG   GGGG    GGGG    GGGG      GGGG            GGGG         GGGG    GGGG     GGGGG    GG                      GGGG            GGGG        GGGG GGGG      GGGG    GGGG                       GGGG        GGGGG  GGGG         GGGG        GGGG     GG                                        GGGG                       GGGGG  GGGG     GGGG    GGGG    G      GGGG      GGGGG    GG   GGGG   GGGGG                                        ",
"                                           GGGG           GGGG                        GGGG                          GGG  GGG   GGG           GGGG     GGG   GGGG                    GGGG    GGGG    GGG     GGGG      GGGG            GGGG         GGG     GGGG     GGGG                             GGGG            GGGG        GGGGGGGG       GGG     GGGG                       GGGG        GGGG    GGGG        GGGG        GGGG                                               GGGG                       GGGG    GGGG    GGG     GGGG           GGGG      GGGG         GGGG     GGGG                                        ",
"                                           GGGG           GGGG                        GGGGGG                        GGG  GGGG  GGG     GGGGGGGGGG     GGGG  GGGG                    GGGG     GGG   GGGG      GGG      GGGG            GGGG        GGGG      GGG     GGGG                             GGGG            GGGG        GGGGGGGG      GGGG      GGG                       GGGG        GGGG    GGGG        GGGG        GGGGGG                                             GGGG                       GGGG    GGGG   GGGG      GGG     GGGGGGGGGG      GGGG         GGGG     GGGG                                        ",
"                                           GGGG           GGGG                         GGGGGGGGG                    GGG  GGGG  GG    GGGGGGGGGGGG     GGGG  GGG                     GGGG     GGG   GGGGGGGGGGGGGG     GGGG            GGGG        GGGGGGGGGGGGGG    GGG                              GGGG            GGGG        GGGGGGGG      GGGGGGGGGGGGGG                      GGGG        GGGG    GGGG        GGGG         GGGGGGGGG                                         GGGG                       GGGG    GGGG   GGGGGGGGGGGGGG  GGGGGGGGGGGG      GGG          GGGG     GGGG                                        ",
"                                           GGGG           GGGG                           GGGGGGGG                   GGG  GGGG GGG    GGGGGGGGGGGG      GGG GGGG                     GGGG     GGG   GGGGGGGGGGGGGG     GGGG            GGGG        GGGGGGGGGGGGGG    GGG                              GGGG            GGGG        GGGGGGGGG     GGGGGGGGGGGGGG                      GGGG        GGGG    GGGG        GGGG           GGGGGGGG                                        GGGG                       GGGG    GGGG   GGGGGGGGGGGGGG  GGGGGGGGGGGG      GGG          GGGG     GGGG                                        ",
"                                           GGGG           GGGG                              GGGGG                    GG GG GG GGG   GGGGG    GGGG      GGGGGGGG                     GGGG     GGG   GGGGGGGGGGGGGG     GGGG            GGGG        GGGGGGGGGGGGGG    GGG                              GGGG            GGGG        GGGG  GGGG    GGGGGGGGGGGGGG                      GGGG        GGGG    GGGG        GGGG              GGGGG                                        GGGG                       GGGG    GGGG   GGGGGGGGGGGGGG GGGGG    GGGG      GGG          GGGG     GGGG                                        ",
"                                           GGGG           GGGG                                GGG                    GGGGG GGGGGG   GGGG     GGGG       GGGGGG                      GGGG    GGGG    GGG               GGGG            GGGG         GGG              GGG                              GGGG            GGGG        GGGG  GGGG     GGG                                GGGG        GGGG    GGGG        GGGG                GGG        GGGG                            GGGG                       GGGG    GGGG    GGG           GGGG     GGGG      GGG          GGGG     GGGG                                        ",
"                                           GGGG           GGGG                        GG      GGG                    GGGGG  GGGGG   GGGGG   GGGGG       GGGGGG                      GGGGG   GGGG    GGGG      GG      GGGG            GGGG         GGGG      GG     GGG                              GGGG            GGGG        GGGG   GGGG    GGGG      GG                       GGGG        GGGG    GGGG        GGGG        GG      GGG        GGGG                            GGGG                       GGGG    GGGG    GGGG      GG  GGGGG   GGGGG      GGG           GGGG   GGGGG                                        ",
"                                       GGGGGGGGGGG        GGGGGGGGG                   GGGGGGGGGGG                    GGGGG  GGGGG    GGGGGGGGGGGG       GGGGG                       GGGGGGGGGGGG    GGGGGGGGGGGG      GGGGGGGGG       GGGGGGGGG    GGGGGGGGGGGG     GGG                              GGGGGGGGG   GGGGGGGGGGGGG   GGGG    GGGG   GGGGGGGGGGGG                       GGGGGGGGG   GGGG    GGGG    GGGGGGGGGGGGG   GGGGGGGGGGG        GGGG                        GGGGGGGGGGG                    GGGG    GGGG    GGGGGGGGGGGG   GGGGGGGGGGGG      GGG           GGGGGGGGGGGG                                        ",
"                                       GGGGGGGGGGG         GGGGGGGG                   GGGGGGGGGGG                    GGGG   GGGG     GGGGGGGGGGGG        GGGG                       GGGGGGGGGGG      GGGGGGGGGGG       GGGGGGGG        GGGGGGGG     GGGGGGGGGGG     GGG                               GGGGGGGG   GGGGGGGGGGGGG   GGGG    GGGG    GGGGGGGGGGG                        GGGGGGGG   GGGG    GGGG    GGGGGGGGGGGGG   GGGGGGGGGGG        GGGG                        GGGGGGGGGGG                    GGGG    GGGG     GGGGGGGGGGG   GGGGGGGGGGGG      GGG            GGGGGG GGGG                                        ",
"                                       GGGGGGGGGGG          GGGGGGG                     GGGGGGG                      GGGG   GGGG       GGGG  GGGG        GGGG                       GGGG GGGGG         GGGGGGG          GGGGGGG         GGGGGGG       GGGGGGG       GGG                                GGGGGGG   GGGGGGGGGGGGG   GGGG     GGGG     GGGGGGG                           GGGGGGG   GGGG    GGGG    GGGGGGGGGGGGG     GGGGGGG          GGGG                        GGGGGGGGGGG                    GGGG    GGGG       GGGGGGG       GGGG  GGGG      GGG             GGGG  GGGG                                        ",
"                                                                                                                                                         GGG                                                                                                                                                                                                                                                                                                                                                                                                                                                                    ",
"                                                                                                                                                        GGGG                                                                                                                                                                                                                                                                                                                                                                                                                                                                    ",
"                                                                                                                                                     GGGGGG                                                                                                                                                                                                                                                                                                                                                                                                                                                                     ",
"                                                                                                                                                     GGGGGG                                                                                                                                                                                                                                                                                                                                                                                                                                                                     ",
"                                                                                                                                                     GGGG                                                                                                                                                                                                                                                                                                                                                                                                                                                                       ",
"                                                                                                                                                                                                                                                                                                                                                                                                                                                                                                                                                                                                                                ",
"                                                                                                                                                                                                                                                                                                                                                                                                                                                                                                                                                                                                                                ",
"                                                                                                                                                                                                                                                                                                                                                                                                                                                                                                                                                                                                                                ",
"                                                                                                                                                                                                                                                                                                                                                                                                                                                                                                                                                                                                                                ",
"                                                                                                                                                                                                                                                                                                                                                                                                                                                                                                                                                                                                                                ",
"                                                                                                                                                                                                                                                                                                                                                                                                                                                                                                                                                                                                                                ",
"                                                                                                                                                                                                                                                                                                                                                                                                                                                                                                                                                                                                                                ",
"                                                                                                                                                                                                                                                                                                                                                                                                                                                                                                                                                                                                                                ",
"                                                                                                                                                                                                                                                                                                                                                                                                                                                                                                                                                                                                                                ",
"                                                                                                                                                                                                                                                                                                                                                                                                                                                                                                                                                                                                                                ",
"                                                                                                                                                                                                                                                                                                                                                                                                                                                                                                                                                                                                                                ",
"                                                                                                                                                                            GGGG                                                                                          GGGG                                                                                                                        GGGGGGGG        GGGGGGGG                                        GGGG                                                                                                                                                      ",
"                                                                                                                                                                            GGGG                                                                                          GGGG                                                                                               GGGGG                    GGGGGGGG        GGGGGGGG                                        GGGG                                                              GGGG                                                                                    ",
"                                                                                                                                                                            GGGG                                              GGGG                                        GGGG                                                                                             GGGGGGGGG                  GGGGGGGG        GGGGGGGG                           GGGG         GGGG                                                              GGGG                                                                                    ",
"                                                                                                                                                                            GGGG                                              GGGG                                        GGGG                                                                                            GGGGGGGGGG                      GGGG            GGGG                           GGGG         GGGG                                                              GGGG                                                                                    ",
"                                                                                                                                                                            GGGG                                              GGGG                                        GGGG                                                                                           GGGGG    GG                      GGGG            GGGG                           GGGG         GGGG                                                              GGGG                                                                                    ",
"                                                                                                                                                                            GGGG                                              GGGG                                        GGGG                                                                                           GGGG                             GGGG            GGGG                           GGGG         GGGG                                                              GGGG                                                                                    ",
"                                                                                 GGGGGG          GGGGGG     GGG GGG  GGG        GGGGGG                        GGGGG GGGG    GGGG  GGGG         GGGGGG         GGGGGG      GGGGGGGGGGGGG       GGGGGG                      GGGG  GGGG         GGGGGG        GGG  GGGGG       GGGGGG                                      GGGG             GGGGGGG          GGGG            GGGG                       GGGGGGGGGGGGG    GGGG  GGGG        GGGGGG      GGG GGG  GGG                        GGGG                                                                                    ",
"                                                                               GGGGGGGGGG      GGGGGGGGG    GGGGGGGGGGGGG     GGGGGGGGG                      GGGGGGGGGGG    GGGGGGGGGGG      GGGGGGGGG      GGGGGGGGGG    GGGGGGGGGGGGG     GGGGGGGGGG                    GGGGGGGGGGG      GGGGGGGGG       GGG GGGGGGG    GGGGGGGGG                                     GGGG            GGGGGGGGGG        GGGG            GGGG                       GGGGGGGGGGGGG    GGGGGGGGGGG     GGGGGGGGG     GGGGGGGGGGGGG                       GGGG                                                                                    ",
"                                                                               GGGGGGGGGG      GGGGGGGGGG   GGGGGGGGGGGGG     GGGGGGGGGG                    GGGGGGGGGGGG    GGGGGGGGGGG      GGGGGGGGGG     GGGGGGGGGG    GGGGGGGGGGGGG     GGGGGGGGGG                    GGGGGGGGGGG      GGGGGGGGGG      GGGGGGGGGGG    GGGGGGGGGG                                    GGGG            GGGGGGGGGG        GGGG            GGGG                       GGGGGGGGGGGGG    GGGGGGGGGGG     GGGGGGGGGG    GGGGGGGGGGGGG                       GGGG                                                                                    ",
"                                                                              GGGG     GG     GGGG   GGGGG  GGG  GGGG GGGG   GGGG    GGGG                   GGGG   GGGGG    GGGGG  GGGG     GGGG   GGGGG   GGGG     GG        GGGG         GGGG     GG                    GGGGG  GGGG     GGGG    GGGG     GGGGG    GG   GGGG    GGGG                                   GGGG            G      GGGG       GGGG            GGGG                           GGGG         GGGGG  GGGG    GGGG    GGGG   GGG  GGGG GGGG                      GGG                                                                                     ",
"                                                                              GGGG            GGGG    GGGG  GGG  GGG   GGG   GGG     GGGG                   GGGG    GGGG    GGGG    GGGG    GGGG    GGGG   GGGG               GGGG         GGGG                           GGGG    GGGG    GGG     GGGG     GGGG          GGG     GGGG                                   GGGG                   GGGG       GGGG            GGGG                           GGGG         GGGG    GGGG   GGG     GGGG   GGG  GGG   GGG                      GGG                                                                                     ",
"                                                                              GGGGGG         GGGG     GGGG  GGG  GGG   GGG  GGGG      GGG                  GGGG     GGGG    GGGG    GGGG   GGGG     GGGG   GGGGGG             GGGG         GGGGGG                         GGGG    GGGG   GGGG      GGG     GGGG         GGGG      GGG                                   GGGG             GGGGGGGGGG       GGGG            GGGG                           GGGG         GGGG    GGGG  GGGG      GGG   GGG  GGG   GGG                      GGG                                                                                     ",
"                                                                               GGGGGGGGG     GGGG      GGG  GGG  GGG   GGG  GGGGGGGGGGGGGG                 GGGG     GGGG    GGGG    GGGG   GGGG      GGG    GGGGGGGGG         GGGG          GGGGGGGGG                     GGGG    GGGG   GGGGGGGGGGGGGG    GGG          GGGGGGGGGGGGGG                                  GGGG           GGGGGGGGGGGG       GGGG            GGGG                           GGGG         GGGG    GGGG  GGGGGGGGGGGGGG  GGG  GGG   GGG                       GG                                                                                     ",
"                                                                                 GGGGGGGG    GGGG      GGG  GGG  GGG   GGG  GGGGGGGGGGGGGG                 GGGG     GGGG    GGGG    GGGG   GGGG      GGG      GGGGGGGG        GGGG            GGGGGGGG                    GGGG    GGGG   GGGGGGGGGGGGGG    GGG          GGGGGGGGGGGGGG                                  GGGG           GGGGGGGGGGGG       GGGG            GGGG                           GGGG         GGGG    GGGG  GGGGGGGGGGGGGG  GGG  GGG   GGG                                                                                                              ",
"                                                                                    GGGGG    GGGG     GGGG  GGG  GGG   GGG  GGGGGGGGGGGGGG                 GGGG     GGGG    GGGG    GGGG   GGGG     GGGG         GGGGG        GGGG               GGGGG                    GGGG    GGGG   GGGGGGGGGGGGGG    GGG          GGGGGGGGGGGGGG                                  GGGG          GGGGG    GGGG       GGGG            GGGG                           GGGG         GGGG    GGGG  GGGGGGGGGGGGGG  GGG  GGG   GGG                                                                                                              ",
"                                                                                      GGG     GGGG    GGGG  GGG  GGG   GGG   GGG                            GGGG    GGGG    GGGG    GGGG    GGGG    GGGG           GGG        GGGG                 GGG                    GGGG    GGGG    GGG              GGG           GGG                 GGGG                        GGGG         GGGG     GGGG       GGGG            GGGG                           GGGG         GGGG    GGGG   GGG            GGG  GGG   GGG                                                                                                              ",
"                                                                              GG      GGG     GGGG   GGGGG  GGG  GGG   GGG   GGGG      GG                   GGGG   GGGGG    GGGG    GGGG    GGGG   GGGGG   GG      GGG        GGGG         GG      GGG                    GGGG    GGGG    GGGG      GG     GGG           GGGG      GG        GGGG                        GGGGG    GG  GGGGG   GGGGG       GGGG            GGGG                           GGGG         GGGG    GGGG   GGGG      GG   GGG  GGG   GGG                      GGGG                                                                                    ",
"                                                                              GGGGGGGGGGG      GGGGGGGGGG   GGG  GGG   GGG   GGGGGGGGGGGG                   GGGGGGGGGGGG    GGGG    GGGG     GGGGGGGGGG    GGGGGGGGGGG        GGGGGGGGG    GGGGGGGGGGG                    GGGG    GGGG    GGGGGGGGGGGG     GGG           GGGGGGGGGGGG        GGGG                         GGGGGGGGGG   GGGGGGGGGGGG       GGGGGGGGG       GGGGGGGGG                      GGGGGGGGG    GGGG    GGGG   GGGGGGGGGGGG   GGG  GGG   GGG                      GGGG                                                                                    ",
"                                                                              GGGGGGGGGGG      GGGGGGGGG    GGG  GGG   GGG    GGGGGGGGGGG                    GGGGGGGGGGG    GGGG    GGGG     GGGGGGGGG     GGGGGGGGGGG         GGGGGGGG    GGGGGGGGGGG                    GGGG    GGGG     GGGGGGGGGGG     GGG            GGGGGGGGGGG        GGGG                          GGGGGGGGG   GGGGGGGGGGGG        GGGGGGGG        GGGGGGGG                       GGGGGGGG    GGGG    GGGG    GGGGGGGGGGG   GGG  GGG   GGG                      GGGG                                                                                    ",
"                                                                                GGGGGGG          GGGGGG     GGG  GGG   GGG      GGGGGGG                       GGGGG GGGG    GGGG    GGGG       GGGGGG        GGGGGGG            GGGGGGG      GGGGGGG                      GGGG    GGGG       GGGGGGG       GGG              GGGGGGG          GGGG                            GGGGG       GGGG  GGGG         GGGGGGG         GGGGGGG                        GGGGGGG    GGGG    GGGG      GGGGGGG     GGG  GGG   GGG                      GGGG                                                                                    ",
"                                                                                                                                                                    GGGG                                                                                                                                                                                                                                                                                                                                                                                                                                                        ",
"                                                                                                                                                             G     GGGGG                                                                                                                                                                                                                                                                                                                                                                                                                                                        ",
"                                                                                                                                                             GGGGGGGGGG                                                                                                                                                                                                                                                                                                                                                                                                                                                         ",
"                                                                                                                                                             GGGGGGGGG                                                                                                                                                                                                                                                                                                                                                                                                                                                          ",
"                                                                                                                                                              GGGGGGG                                                                                                                                                                                                                                                                                                                                                                                                                                                           ",
"                                                                                                                                                                                                                                                                                                                                                                                                                                                                                                                                                                                                                                ",
"                                                                                                                                                                                                                                                                                                                                                                                                                                                                                                                                                                                                                                ",
"                                                                                                                                                                                                                                                                                                                                                                                                                                                                                                                                                                                                                                ",
"                                                                                                                                                                                                                                                                                                                                                                                                                                                                                                                                                                                                                                ",
"                                                                                                                                                                                                                                                                                                                                                                                                                                                                                                                                                                                                                                ",
"                                                                                                                                                                                                                                                                                                                                                                                                                                                                                                                                                                                                                                ",
"                                                                                                                                                                                                                                                                                                                                                                                                                                                                                                                                                                                                                                ",
"                                                                                                                                                                                                                                                                                                                                                                                                                                                                                                                                                                                                                                ",
"                                                                                                                                                                                                                                                                                                                                                                                                                                                                                                                                                                                                                                ",
"                                                                                                                                                                                                                                                                                                                                                                                                                                                                                                                                                                                                                                ",
"                                                                                                                                                                                                                                                                                                                                                                                                                                                                                                                                                                                                                                ",
"                                                                                                                                                                                                                                                                                                                                                                                                                                                                                                                                                                                                                                ",
"                                                                                                                                                                                                                                                                                                                                                                                                                                                                                                                                                                                                                                ",
"                                                                                                                                                                                                                                                                                                                                                                                                                                                                                                                                                                                                                                ",
"                                                                                                                                                                                                                                                                                                                                                                                                                                                                                                                                                                                                                                ",
"                                                                                                                                                                                                                                                                                                                                                                                                                                                                                                                                                                                                                                ",
"                                                                                                                                                                                                                                                                                                                                                                                                                                                                                                                                                                                                                                ",
"                                                                                                                                                                                                                                                                                                                                                                                                                                                                                                                                                                                                                                ",
"                                                                                                                                                                                                                                                                                                                                                                                                                                                                                                                                                                                                                                ",
"                                                                                                                                                                                                                                                                                                                                                                                                                                                                                                                                                                                                                                ",
"                                                                                                                                                                                                                                                                                                                                                                                                                                                                                                                                                                                                                                ",
"                                                                                                                                                                                                                                                                                                                                                                                                                                                                                                                                                                                                                                ",
"                                                                                                                                                                                                                                                                                                                                                                                                                                                                                                                                                                                                                                ",
"                                                                                                                                                                                                                                                                                                                                                                                                                                                                                                                                                                                                                                ",
"                                                                                                                                                                                                                                                                                                                                                                                                                                                                                                                                                                                                                                ",
"                                                                                                                                                                                                                                                                                                                                                                                                                                                                                                                                                                                                                                ",
"                                                                                                                                                                                                                                                                                                                                                                                                                                                                                                                                                                                                                                ",
"                                                                                                                                                                                                                                                                                                                                                                                                                                                                                                                                                                                                                                ",
"                                                                                                                                                                                                                                                                                                                                                                                                                                                                                                                                                                                                                                ",
"                                                                                                                                                                                                                                                                                                                                                                                                                                                                                                                                                                                                                                "
};
