/* XPM */
static char *tuto_04[] = {
"608 120 4 1",
"  c #000000",
"G c #70DD99",
"B c #3399FF",
"R c #FF0000",
"                                                                                                                                                                                                                                                                                                                                                                                                                                                                                                                                                                                                                                ",
"                                                                                                                                                                                                                                                                                                                                                                                                                                                                                                                                                                                                                                ",
"                                                                                                                                                                                                                                                                                                                                                                                                                                                                                                                                                                                                                                ",
"                                                                                                                                                                                                                                                                                                                                                                                                                                                                                                                                                                                                                                ",
"                                                                                                                                                                                                                                                                                                                                                                                                                                                                                                                                                                                                                                ",
"                                                                                                                                                                                                                                                                                                                                                                                                                                                                                                                                                                                                                                ",
"                                                                                                                                                                                                                                                                                                                                                                                                                                                                                                                                                                                                                                ",
"                                                                                                                                                                                                                                                                                                                                                                                                                                                                                                                                                                                                                                ",
"                                                                                                                                                                                                                                                                                                                                                                                                                                                                                                                                                                                                                                ",
"                                                                                                                                                                                                                                                                                                                                                                                                                                                                                                                                                                                                                                ",
"                                                                                                                                                                                                                                                                                                                                                                                                                                                                                                                                                                                                                                ",
"                                                                                                                                                                                                                                                                                                                                                                                                                                                                                                                                                                                                                                ",
"                                                                                                                                                                                                                                                                                                                                                                                                                                                                                                                                                                                                                                ",
"                                                                                                                                                                                                                                                                                                                                                                                                                                                                                                                                                                                                                                ",
"                                                                                                                                                                                                                                                                                                                                                                                                                                                                                                                                                                                                                                ",
"                                                                                                                                                                                                                                                                                                                                                                                                                                                                                                                                                                                                                                ",
"                                                                                                                                                                                                                                                                                                                                                                                                                                                                                                                                                                                                                                ",
"                                                                                                                                                                                                                                                                                                                                                                                                                                                                                                                                                                                                                                ",
"                                                                                                                                                                                                                                                                                                                                                                                                                                                                                                                                                                                                                                ",
"                                                                                                                                                                                                                                                                                                                                                                                                                                                                                                                                                                                                                                ",
"                                                                                                                                                                                                                                                                                                                                                                                                                                                                                                                                                                                                                                ",
"                                                                                                                                                                                                                                                                                                                                                                                                                                                                                                                                                                                                                                ",
"                                                                                                                                                                                                                                                                                                                                                                                                                                                                                                                                                                                                                                ",
"                                                                                                                                                                                                                                                                                                                                                                                                                                                                                                                                                                                                                                ",
"                                                                                                                                                                                                                                                                                                                                                                                                                                                                                                                                                                                                                                ",
"                                                                                                                                                                                                                                                                                                                                                                                                                                                                                                                                                                                                                                ",
"                                                                                                                                                                                                                                                                                                                                                                                                                                                                                                                                                                                                                                ",
"                                                                                                                                                                                                                                                                                                                                                                                                                                                                                                                                                                                                                                ",
"                                                                                                                                                                                                                                                                                                                                                                                                   GGGG                                                                                                                                                                                                                         ",
"                                                                                              GGGG                                                                                                                                                                                                                               GGGG                                                              GGGG              GGGGGG                                                                                          GGGG                                                                                                       ",
"                                           GGGGGG                                             GGGG                                                                                                                                                                                                                               GGGG                                                              GGGG            GGGGGGGG                                                                                          GGGG                                       GGG                                                             ",
"                                          GGGGGGGGG                                           GGGG                                                                                                                                                                                                                  GGGG         GGGG                                                              GGGG            GGGGGGGG                                                                                          GGGG                                       GGG            GGGG                                             ",
"                                        GGGGGGGGGGG                                           GGGG                                                                                                                                                                                                                  GGGG         GGGG                                                                              GGGG                                                                                              GGGG                                       GGG            GGGG                                             ",
"                                        GGGGG    GG                                           GGGG                                                                                                                                                                                                                  GGGG         GGGG                                                                              GGG                                                                                               GGGG                                       GGG            GGGG                                             ",
"                                       GGGGG                                                  GGGG                                                                                                                                                                                                                  GGGG         GGGG                                                                              GGG                                                                                               GGGG                                       GGG            GGGG                                             ",
"                                       GGGG               GGGGGG         GGGGGG         GGGG  GGGG                                   GGGG  GGGG         GGGGGG    GGG         GGGG                     GGGGGG          GGGGGG        GGG  GGGGG      GGGGGGG        GGG  GGGGG       GGGGGG                     GGGGGGGGGGGGG    GGGG  GGGG        GGGGGG      GGG GGG  GGG                     GGGGGGG        GGGGGGGGGGGG                  GGGG      GGGG      GGGGGG       GGGG    GGG                      GGGG  GGGG       GGGGGG      GGGG  GGGG          GGG        GGGGGGGGGGGGG                                        ",
"                                       GGGG             GGGGGGGGG      GGGGGGGGG       GGGGGG GGGG                                   GGGGGGGGGGG      GGGGGGGGG   GGG         GGG                    GGGGGGGGGG      GGGGGGGGG       GGG GGGGGGG    GGGGGGGGGG      GGG GGGGGGG    GGGGGGGGG                    GGGGGGGGGGGGG    GGGGGGGGGGG     GGGGGGGGG     GGGGGGGGGGGGG                    GGGGGGG        GGGGGGGGGGGG                  GGGG     GGGG     GGGGGGGGG      GGGG    GGG                     GGGGGG GGGG     GGGGGGGGG     GGGGGGGGGGG         GGG        GGGGGGGGGGGGG                                        ",
"                                       GGGG             GGGGGGGGGG     GGGGGGGGGG     GGGGGGGGGGGG                                   GGGGGGGGGGG      GGGGGGGGGG  GGG         GGG                    GGGGGGGGGG     GGGGGGGGGG       GGGGGGGGGGG    GGGGGGGGGG      GGGGGGGGGGG    GGGGGGGGGG                   GGGGGGGGGGGGG    GGGGGGGGGGG     GGGGGGGGGG    GGGGGGGGGGGGG                    GGGGGGG        GGGGGGGGGGGG                   GGGG    GGGG     GGGGGGGGGG     GGGG    GGG                    GGGGGGGGGGGG     GGGGGGGGGG    GGGGGGGGGGG                    GGGGGGGGGGGGG                                        ",
"                                       GGG             GGGG   GGGGG   GGGG   GGGGG    GGGG   GGGGG                                   GGGGG  GGGG     GGGG   GGGGG  GGG        GGG                   GGGG     GG     GGGGG    G       GGGGG    GG    G      GGGG     GGGGG    GG   GGGG    GGGG                      GGGG         GGGGG  GGGG    GGGG    GGGG   GGG  GGGG GGGG                      GGGG            GGG                        GGGG    GGGG    GGGG   GGGGG    GGGG    GGG                    GGGG   GGGGG    GGGG   GGGGG   GGGGG  GGGG                        GGGG                                             ",
"                                      GGGG   GGGGGG    GGGG    GGGG   GGGG    GGGG   GGGG     GGGG                                   GGGG    GGGG    GGGG    GGGG  GGG  GGG   GGG                   GGGG           GGGGG             GGGG                  GGGG     GGGG          GGG     GGGG                      GGGG         GGGG    GGGG   GGG     GGGG   GGG  GGG   GGG                      GGGG            GGG                         GGG   GGGG     GGGG    GGGG    GGGG    GGG                   GGGG     GGGG    GGGG    GGGG   GGGG    GGGG                       GGGG                                             ",
"                                       GGG   GGGGGG   GGGG     GGGG  GGGG     GGGG   GGGG     GGGG                                   GGGG    GGGG   GGGG     GGGG  GGG  GGGG  GGG                   GGGGGG         GGGG              GGGG            GGGGGGGGGG     GGGG         GGGG      GGG                      GGGG         GGGG    GGGG  GGGG      GGG   GGG  GGG   GGG                      GGGG            GGG                         GGGG  GGGG    GGGG     GGGG    GGGG    GGG                   GGGG     GGGG   GGGG     GGGG   GGGG    GGGG                       GGGG                                             ",
"                                       GGGG  GGGGGG   GGGG      GGG  GGGG      GGG   GGGG     GGGG                                   GGGG    GGGG   GGGG      GGG  GGG  GGGG  GG                     GGGGGGGGG     GGGG              GGG           GGGGGGGGGGGG     GGG          GGGGGGGGGGGGGG                     GGGG         GGGG    GGGG  GGGGGGGGGGGGGG  GGG  GGG   GGG                      GGGG            GGG                         GGGG  GGG     GGGG      GGG    GGGG    GGG                   GGGG     GGGG   GGGG      GGG   GGGG    GGGG                       GGGG                                             ",
"                                       GGGG     GGG   GGGG      GGG  GGGG      GGG   GGGG     GGGG                                   GGGG    GGGG   GGGG      GGG  GGG  GGGG GGG                       GGGGGGGG    GGGG              GGG           GGGGGGGGGGGG     GGG          GGGGGGGGGGGGGG                     GGGG         GGGG    GGGG  GGGGGGGGGGGGGG  GGG  GGG   GGG                      GGGG            GGG                          GGG GGGG     GGGG      GGG    GGGG    GGG                   GGGG     GGGG   GGGG      GGG   GGGG    GGGG                       GGGG                                             ",
"                                       GGGG     GGG   GGGG     GGGG  GGGG     GGGG   GGGG     GGGG                                   GGGG    GGGG   GGGG     GGGG   GG GG GG GGG                          GGGGG    GGGG              GGG          GGGGG    GGGG     GGG          GGGGGGGGGGGGGG                     GGGG         GGGG    GGGG  GGGGGGGGGGGGGG  GGG  GGG   GGG                      GGGG            GGG                          GGGGGGGG     GGGG     GGGG    GGGG    GGG                   GGGG     GGGG   GGGG     GGGG   GGGG    GGGG                       GGGG                                             ",
"                                       GGGGG    GGG    GGGG    GGGG   GGGG    GGGG   GGGG     GGGG        GGGG                       GGGG    GGGG    GGGG    GGGG   GGGGG GGGGGG                            GGG    GGGGG             GGG          GGGG     GGGG     GGG           GGG                               GGGG         GGGG    GGGG   GGG            GGG  GGG   GGG                      GGGG            GGG                           GGGGGG       GGGG    GGGG    GGGG   GGGG                   GGGG     GGGG    GGGG    GGGG   GGGG    GGGG                       GGGG                                             ",
"                                        GGGGG   GGG    GGGG   GGGGG   GGGG   GGGGG    GGGG   GGGGG        GGGG                       GGGG    GGGG    GGGG   GGGGG   GGGGG  GGGGG                    GG      GGG     GGGGG    G       GGG          GGGGG   GGGGG     GGG           GGGG      GG                      GGGG         GGGG    GGGG   GGGG      GG   GGG  GGG   GGG                      GGGG            GGG                           GGGGGG       GGGG   GGGGG    GGGG   GGGG                    GGGG   GGGGG    GGGG   GGGGG   GGGG    GGGG                       GGGG                                             ",
"                                         GGGGGGGGGG     GGGGGGGGGG     GGGGGGGGGG     GGGGGGGGGGGG        GGGG                       GGGG    GGGG     GGGGGGGGGG    GGGGG  GGGGG                    GGGGGGGGGGG     GGGGGGGGGG       GGG           GGGGGGGGGGGG     GGG           GGGGGGGGGGGG                      GGGGGGGGG    GGGG    GGGG   GGGGGGGGGGGG   GGG  GGG   GGG                  GGGGGGGGGGGGG       GGG                           GGGGG         GGGGGGGGGG     GGGGGGGGGGG                    GGGGGGGGGGGG     GGGGGGGGGG    GGGG    GGGG                       GGGGGGGGG                                        ",
"                                          GGGGGGGGG     GGGGGGGGG      GGGGGGGGG       GGGGGG GGGG        GGGG                       GGGG    GGGG     GGGGGGGGG     GGGG   GGGG                     GGGGGGGGGGG      GGGGGGGGG       GGG           GGGGGGGGGGGG     GGG            GGGGGGGGGGG                       GGGGGGGG    GGGG    GGGG    GGGGGGGGGGG   GGG  GGG   GGG                  GGGGGGGGGGGGG       GGG                            GGGG         GGGGGGGGG       GGGGGGGGGG                     GGGGGG GGGG     GGGGGGGGG     GGGG    GGGG                        GGGGGGGG                                        ",
"                                           GGGGGG         GGGGGG         GGGGGG         GGGG  GGGG        GGG                        GGGG    GGGG       GGGGGG      GGGG   GGGG                       GGGGGGG          GGGGGG        GGG             GGGG  GGGG     GGG              GGGGGGG                          GGGGGGG    GGGG    GGGG      GGGGGGG     GGG  GGG   GGG                  GGGGGGGGGGGGG       GGG                            GGGG           GGGGGG         GGGG  GGG                      GGGG  GGGG       GGGGGG      GGGG    GGGG                         GGGGGGG                                        ",
"                                                                                                         GGGG                                                                                                                                                                                                                                                                                                                                     GGG                                                                                                                                                                           ",
"                                                                                                         GGG                                                                                                                                                                                                                                                                                                                                     GGGG                                                                                                                                                                           ",
"                                                                                                         GGG                                                                                                                                                                                                                                                                                                                                  GGGGGG                                                                                                                                                                            ",
"                                                                                                                                                                                                                                                                                                                                                                                                                                              GGGGGG                                                                                                                                                                            ",
"                                                                                                                                                                                                                                                                                                                                                                                                                                              GGGG                                                                                                                                                                              ",
"                                                                                                                                                                                                                                                                                                                                                                                                                                                                                                                                                                                                                                ",
"                                                                                                                                                                                                                                                                                                                                                                                                                                                                                                                                                                                                                                ",
"                                                                                                                                                                                                                                                                                                                                                                                                                                                                                                                                                                                                                                ",
"                                                                                                                                                                                                                                                                                                                                                                                                                                                                                                                                                                                                                                ",
"                                                                                                                                                                                                                                                                                                                                                                                                                                                                                                                                                                                                                                ",
"                                                                                                                                                                                                                                                                                                                                                                                                                                                                                                                                                                                                                                ",
"                                                                                                                                                                                                                                                                                                                                                                                                                                                                                                                                                                                                                                ",
"                                                                                                                                                                                                                                                                                                                                                                                                                                                                                                                                                                                                                                ",
"                                                                                                                                                                                                                                                                                                                                                                                                                                                                                                                                                                                                                                ",
"                                                                                                                                                                                                                                                                                                                                                                                                                                                                                                                                                                                                                                ",
"                                                                                                                                                                                                                                                                                                                                     GGGG                                                                          GGGG                                                                          GGGG                            GGGG                                                                                           ",
"                                                                                                                                                                    GGGG                                                                                                                                                             GGGG      GGGGGGGG                                                            GGGG                                                                          GGGG                            GGGG                                                                                           ",
"                                                                                                                                                                    GGGG                                                                                                                                                             GGGG      GGGGGGGG                                                            GGGG                                                                          GGGG                            GGGG                                           GGGG                                            ",
"                                                                                         GGGG                           GGGG                                        GGGG                                                                                                                                                             GGGG      GGGGGGGG                                           GGGG             GGGG                                                                          GGGG                            GGGG                                           GGGG                                            ",
"                                                                                         GGGG                           GGGG                                        GGGG                                                                                                                                                                           GGGG                                           GGGG                                                                                                                                                                          GGGG                                            ",
"                                                                                         GGGG                           GGGG                                        GGGG                                                                                                                                                                           GGGG                                           GGGG                                                                                                                                                                          GGGG                                            ",
"                                                                                         GGGG                           GGGG                                        GGGG                                                                                                                                                                           GGGG                                           GGGG                                                                                                                                                                          GGGG                                            ",
"                                     GGG         GGGG    GGGGGGG      GGGG  GGGG     GGGGGGGGGGGGG                  GGGGGGGGGGGGG       GGGGGG                      GGGG  GGGG        GGGGGGG      GGGG      GGG      GGGGGG                         GGGGGGG      GGGG  GGGG                         GGGGGG      GGGG GGGGG       GGGGGGG          GGGG            GGGGGG       GGGG GGGGG    GGGGGGGGGGGGG     GGGGGGG            GGGGGG                         GGGGGG        GGG  GGGGG    GGGGGGG           GGGGGG        GGGGGGG          GGGGGG                           GGGG                                            ",
"                                     GGG         GGG    GGGGGGGGGG    GGGGGGGGGGG    GGGGGGGGGGGGG                  GGGGGGGGGGGGG     GGGGGGGGG                     GGGGGGGGGGG      GGGGGGGGGG    GGGG     GGGG    GGGGGGGGG                       GGGGGGGGGG    GGGGGGGGGGG                      GGGGGGGGG     GGGGGGGGGGG      GGGGGGG          GGGG          GGGGGGGGG      GGGGGGGGGGG   GGGGGGGGGGGGG     GGGGGGG          GGGGGGGGG                      GGGGGGGGG       GGG GGGGGGG   GGGGGGG         GGGGGGGGGG      GGGGGGG        GGGGGGGGGG                         GGGG                                            ",
"                                     GGG         GGG    GGGGGGGGGG    GGGGGGGGGGG    GGGGGGGGGGGGG                  GGGGGGGGGGGGG     GGGGGGGGGG                    GGGGGGGGGGG      GGGGGGGGGG     GGG     GGGG    GGGGGGGGGG                      GGGGGGGGGG    GGGGGGGGGGG                      GGGGGGGGGG    GGGGGGGGGGGG     GGGGGGG          GGGG          GGGGGGGGGG     GGGGGGGGGGGG  GGGGGGGGGGGGG     GGGGGGG         GGGGGGGGGG                     GGGGGGGGGG       GGGGGGGGGGG   GGGGGGG         GGGGGGGGGG      GGGGGGG        GGGGGGGGGG                         GGGG                                            ",
"                                      GGG        GGG    G      GGGG   GGGGG  GGGG        GGGG                           GGGG         GGGG   GGGGG                   GGGGG  GGGG      G      GGGG    GGGG    GGGG   GGGG    GGGG                     G      GGGG   GGGGG  GGGG                     GGGG    GGGG   GGGGG   GGGG        GGGG          GGGG         GGGG    GGGG    GGGGG   GGGG      GGGG             GGGG         GGGGG    G                     GGGGG    G       GGGGG    GG      GGGG        GGGG     GG         GGGG       GGGG     GG                         GGG                                             ",
"                                      GGG  GGG   GGG           GGGG   GGGG    GGGG       GGGG                           GGGG         GGGG    GGGG                   GGGG    GGGG            GGGG    GGGG    GGG    GGG     GGGG                            GGGG   GGGG    GGGG                    GGG     GGGG   GGGG    GGGG        GGGG          GGGG         GGG     GGGG    GGGG    GGGG      GGGG             GGGG        GGGGG                          GGGGG             GGGG             GGGG        GGGG                GGGG       GGGG                                GGG                                             ",
"                                      GGG  GGGG  GGG     GGGGGGGGGG   GGGG    GGGG       GGGG                           GGGG        GGGG     GGGG                   GGGG    GGGG      GGGGGGGGGG     GGG   GGGG   GGGG      GGG                      GGGGGGGGGG   GGGG    GGGG                   GGGG      GGG   GGGG     GGG        GGGG          GGGG        GGGG      GGG    GGGG     GGG      GGGG             GGGG        GGGG                           GGGG              GGGG             GGGG        GGGGGG              GGGG       GGGGGG                              GGG                                             ",
"                                      GGG  GGGG  GG    GGGGGGGGGGGG   GGGG    GGGG       GGGG                           GGGG        GGGG      GGG                   GGGG    GGGG    GGGGGGGGGGGG     GGGG  GGGG   GGGGGGGGGGGGGG                   GGGGGGGGGGGG   GGGG    GGGG                   GGGGGGGGGGGGGG  GGGG     GGG        GGGG          GGGG        GGGGGGGGGGGGGG   GGGG     GGG      GGGG             GGGG        GGGG                           GGGG              GGG              GGGG         GGGGGGGGG          GGGG        GGGGGGGGG                           GG                                             ",
"                                      GGG  GGGG GGG    GGGGGGGGGGGG   GGGG    GGGG       GGGG                           GGGG        GGGG      GGG                   GGGG    GGGG    GGGGGGGGGGGG     GGGG  GGG    GGGGGGGGGGGGGG                   GGGGGGGGGGGG   GGGG    GGGG                   GGGGGGGGGGGGGG  GGGG     GGG        GGGG          GGGG        GGGGGGGGGGGGGG   GGGG     GGG      GGGG             GGGG        GGGG                           GGGG              GGG              GGGG           GGGGGGGG         GGGG          GGGGGGGG                                                                         ",
"                                       GG GG GG GGG   GGGGG    GGGG   GGGG    GGGG       GGGG                           GGGG        GGGG     GGGG                   GGGG    GGGG   GGGGG    GGGG      GGG  GGG    GGGGGGGGGGGGGG                  GGGGG    GGGG   GGGG    GGGG                   GGGGGGGGGGGGGG  GGGG     GGG        GGGG          GGGG        GGGGGGGGGGGGGG   GGGG     GGG      GGGG             GGGG        GGGG                           GGGG              GGG              GGGG              GGGGG         GGGG             GGGGG                                                                         ",
"                                       GGGGG GGGGGG   GGGG     GGGG   GGGG    GGGG       GGGG                           GGGG         GGGG    GGGG                   GGGG    GGGG   GGGG     GGGG      GGG GGGG     GGG                            GGGG     GGGG   GGGG    GGGG                    GGG            GGGG    GGGG        GGGG          GGGG         GGG             GGGG    GGGG      GGGG             GGGG        GGGGG                          GGGGG             GGG              GGGG                GGG         GGGG               GGG                                                                         ",
"                                       GGGGG  GGGGG   GGGGG   GGGGG   GGGG    GGGG       GGGG                           GGGG         GGGG   GGGGG                   GGGG    GGGG   GGGGG   GGGGG      GGGGGGG      GGGG      GG                   GGGGG   GGGGG   GGGG    GGGG                    GGGG      GG   GGGGG   GGGG        GGGG          GGGG         GGGG      GG    GGGGG   GGGG      GGGG             GGGG         GGGGG    G                     GGGGG    G       GGG              GGGG        GG      GGG         GGGG       GG      GGG                         GGGG                                            ",
"                                       GGGGG  GGGGG    GGGGGGGGGGGG   GGGG    GGGG       GGGGGGGGG                      GGGGGGGGG     GGGGGGGGGG                    GGGG    GGGG    GGGGGGGGGGGG       GGGGGG      GGGGGGGGGGGG                    GGGGGGGGGGGG   GGGG    GGGG                    GGGGGGGGGGGG   GGGGGGGGGGGG    GGGGGGGGGGGGG     GGGGGGGGG    GGGGGGGGGGGG    GGGGGGGGGGGG      GGGGGGGGG    GGGGGGGGGGGGG    GGGGGGGGGG                     GGGGGGGGGG       GGG          GGGGGGGGGGGGG   GGGGGGGGGGG     GGGGGGGGGGGGG  GGGGGGGGGGG                         GGGG                                            ",
"                                       GGGG   GGGG     GGGGGGGGGGGG   GGGG    GGGG        GGGGGGGG                       GGGGGGGG     GGGGGGGGG                     GGGG    GGGG    GGGGGGGGGGGG       GGGGGG       GGGGGGGGGGG                    GGGGGGGGGGGG   GGGG    GGGG                     GGGGGGGGGGG   GGGGGGGGGGG     GGGGGGGGGGGGG      GGGGGGGG     GGGGGGGGGGG    GGGGGGGGGGG        GGGGGGGG    GGGGGGGGGGGGG     GGGGGGGGG                      GGGGGGGGG       GGG          GGGGGGGGGGGGG   GGGGGGGGGGG     GGGGGGGGGGGGG  GGGGGGGGGGG                         GGGG                                            ",
"                                       GGGG   GGGG       GGGG  GGGG   GGGG    GGGG         GGGGGGG                        GGGGGGG       GGGGGG                      GGGG    GGGG      GGGG  GGGG       GGGGG          GGGGGGG                        GGGG  GGGG   GGGG    GGGG                       GGGGGGG     GGGG GGGGG      GGGGGGGGGGGGG       GGGGGGG       GGGGGGG      GGGG GGGGG          GGGGGGG    GGGGGGGGGGGGG       GGGGGG                         GGGGGG        GGG          GGGGGGGGGGGGG     GGGGGGG       GGGGGGGGGGGGG    GGGGGGG                           GGGG                                            ",
"                                                                                                                                                                                                                                                                                                                 GGGG                                                           GGGG                                                                                                                                                                                                                                            ",
"                                                                                                                                                                                                                                                                                                                 GGGG                                                           GGGG                                                                                                                                                                                                                                            ",
"                                                                                                                                                                                                                                                                                                                 GGGG                                                           GGGG                                                                                                                                                                                                                                            ",
"                                                                                                                                                                                                                                                                                                                 GGGG                                                           GGGG                                                                                                                                                                                                                                            ",
"                                                                                                                                                                                                                                                                                                                 GGGG                                                           GGGG                                                                                                                                                                                                                                            ",
"                                                                                                                                                                                                                                                                                                                                                                                                                                                                                                                                                                                                                                ",
"                                                                                                                                                                                                                                                                                                                                                                                                                                                                                                                                                                                                                                ",
"                                                                                                                                                                                                                                                                                                                                                                                                                                                                                                                                                                                                                                ",
"                                                                                                                                                                                                                                                                                                                                                                                                                                                                                                                                                                                                                                ",
"                                                                                                                                                                                                                                                                                                                                                                                                                                                                                                                                                                                                                                ",
"                                                                                                                                                                                                                                                                                                                                                                                                                                                                                                                                                                                                                                ",
"                                                                                                                                                                                                                                                                                                                                                                                                                                                                                                                                                                                                                                ",
"                                                                                                                                                                                                                                                                                                                                                                                                                                                                                                                                                                                                                                ",
"                                                                                                                                                                                                                                                                                                                                                                                                                                                                                                                                                                                                                                ",
"                                                                                                                                                                                                                                                                                                                                                                                                                                                                                                                                                                                                                                ",
"                                                                                                                                                                                                                                                                                                                                                                                                                                                                                                                                                                                                                                ",
"                                                                                                                                                                                                                                                                                                                                                                                                                                                                                                                                                                                                                                ",
"                                                                                                                                                                                                                                                                                                                                                                                                                                                                                                                                                                                                                                ",
"                                                                                                                                                                                                                                                                                                                                                                                                                                                                                                                                                                                                                                ",
"                                                                                                                                                                                                                                                                                                                                                                                                                                                                                                                                                                                                                                ",
"                                                                                                                                                                                                                                                                                                                                                                                                                                                                                                                                                                                                                                ",
"                                                                                                                                                                                                                                                                                                                                                                                                                                                                                                                                                                                                                                ",
"                                                                                                                                                                                                                                                                                                                                                                                                                                                                                                                                                                                                                                ",
"                                                                                                                                                                                                                                                                                                                                                                                                                                                                                                                                                                                                                                ",
"                                                                                                                                                                                                                                                                                                                                                                                                                                                                                                                                                                                                                                ",
"                                                                                                                                                                                                                                                                                                                                                                                                                                                                                                                                                                                                                                ",
"                                                                                                                                                                                                                                                                                                                                                                                                                                                                                                                                                                                                                                ",
"                                                                                                                                                                                                                                                                                                                                                                                                                                                                                                                                                                                                                                ",
"                                                                                                                                                                                                                                                                                                                                                                                                                                                                                                                                                                                                                                ",
"                                                                                                                                                                                                                                                                                                                                                                                                                                                                                                                                                                                                                                ",
"                                                                                                                                                                                                                                                                                                                                                                                                                                                                                                                                                                                                                                ",
"                                                                                                                                                                                                                                                                                                                                                                                                                                                                                                                                                                                                                                ",
"                                                                                                                                                                                                                                                                                                                                                                                                                                                                                                                                                                                                                                ",
"                                                                                                                                                                                                                                                                                                                                                                                                                                                                                                                                                                                                                                ",
"                                                                                                                                                                                                                                                                                                                                                                                                                                                                                                                                                                                                                                "
};
