/* XPM */
static char *tuto_05[] = {
"608 120 4 1",
"  c #000000",
"G c #70DD99",
"B c #3399FF",
"R c #FF0000",
"                                                                                                                                                                                                                                                                                                                                                                                                                                                                                                                                                                                                                                ",
"                                                                                                                                                                                                                                                                                                                                                                                                                                                                                                                                                                                                                                ",
"                                                                                                                                                                                                                                                                                                                                                                                                                                                                                                                                                                                                                                ",
"                                                                                                                                                                                                                                                                                                                                                                                                                                                                                                                                                                                                                                ",
"                                                                                                                                                                                                                                                                                                                                                                                                                                                                                                                                                                                                                                ",
"                                                                                                                                                                                                                                                                                                                                                                                                                                                                                                                                                                                                                                ",
"                                                                                                                                                                                                                                                                                                                                                                                                                                                                                                                                                                                                                                ",
"                                                                                                                                                                                                                                                                                                                                                                                                                                                                                                                                                                                                                                ",
"                                                                                                                                                                                                                                                                                                                                                                                                                                                                                                                                                                                                                                ",
"                                                                                                                                                                                                                                                                                                                                                                                                                                                                                                                                                                                                                                ",
"                                                                                                                                                                                                                                                                                                                                                                                                                                                                                                                                                                                                                                ",
"                                                                                                                                                                                                                                                                                                                                                                                                                                                                                                                                                                                                                                ",
"                                                                                                                                                                                                                                                                                                                                                                                                                                                                                                                                                                                                                                ",
"                                                                                                                                                                                                                                                                                                                                                                                                                                                                                                                                                                                                                                ",
"                                                                                                                                                                                                                                                                                                                                                                                                                                                                                                                                                                                                                                ",
"                                                                                                                                                                                                                                                                                                                                                                                                                                                                                                                                                                                                                                ",
"                                                                                                                                                                                                                                                                                                                                                                                                                                                                                                                                                                                                                                ",
"                                                                                                                                                                                                                                                                                                                                                                                                                                                                                                                                                                                                                                ",
"                                                                                                                                                                                                                                                                                                                                                                                                                                                                                                                                                                                                                                ",
"                                                                                                                                                                                                                                                                                                                                                                                                                                                                                                                                                                                                                                ",
"                                                                                                                                                                                                                                                                                                                                                                                                                                                                                                                                                                                                                                ",
"                                                                                                                                                                                                                                                                                                                                                                                                                                                                                                                                                                                                                                ",
"                                                                                                                                                                                                                                                                                                                                                                                                                                                                                                                                                                                                                                ",
"                                                                                                                                                                                                                                                                                                                                                                                                                                                                                                                                                                                                                                ",
"                                                                                                                                                                                                                                                                                                                                                                                                                                                                                                                                                                                                                                ",
"                                                                                                                                                                                                                                                                                                                                                                                                                                                                                                                                                                                                                                ",
"                                                                                                                                                                                                                                                                                                                                                                                                                                                                                                                                                                                                                                ",
"                                                                                                                                                                                                                                                                                                                                                                                                                                                                                                                                                                                                                                ",
"                                                                                                                                                                                                                                                                                                                                                                                                                                                                                                                                                                                                                                ",
"                                                                                                                                                                                                                                                                                                                                                                                                                                                                                                                                                                                                                                ",
"                                                                                                                                                                                                                                                                                                                                                                                                                                                                                                                                                                                                                                ",
"                                                                                                                                                                                                                                                                                                                                                                                                                                                                                                                                                                                                                                ",
"                                                                                                                                                                                                                                                                                                                                                                                                                                                                                                                                                                                                                                ",
"                                                                                                                                                                                                                                                                                                                                                                                                                                                                                                                                                                                                                                ",
"                                                                                                                                                                                                                                                                                                                                                                                                                                                                                                                                                                                                                                ",
"                                                                                                                                                                                                                                                                                                                                                                                                                                                                                                                                                                                                                                ",
"                                                                                                                                                                                                                                                                                                                                                                                                                                                                                                                                                                                                                                ",
"                                                                                                                                                                                                                                                                                                                                                                                                                                                                                                                                                                                                                                ",
"                                                                                                                                                                                                                                                                                                                                                                                                                                                                                                                                                                                                                                ",
"                                                                                                                                                                                                                                                                                                                                                                                                                                                                                                                                                                                                                                ",
"                                                                                                                                                                                                                                                                                                                                                                                                                                                                                                                                                                                                                                ",
"                                                                                                                                                                                                                                                                                                                                                                                                                                                                                                                                                                                                                                ",
"                                                                                                                                                                                                                                                                                                                                                                                                                                                                                                                                                                                                                                ",
"                                                                                                                                                                                                                                                                                                                                                                                                                                                                                                                                                                                                                                ",
"                                                                                                                                                                                                                                                                                                                                                                                                                                                                                                                                                                                                                                ",
"                                                                                                                                                                                                                                                                                                                                                                                                                                                                                                                                                                                                                                ",
"                                                                                                                                                                                                                                                                                                                                                                                                                                                                                                                                                                                                                                ",
"                                                                                                                                                                                                                                                                                                                                                                                                                                                                                                                                                                                                                                ",
"                                                                                                                 GGGGGG            GGGGG        GGGGG        GGGGGGGGG       GGGGGGGGGGGG                  GGGGGGGGGGGGGG   GGG     GGGG   GGGGGGGGGGGG                       GGGGGG      GGG     GGGG    GGGGGGGGGGG    GGGGGGGGGGGGGG                     GGGGG       GGGG      GGG  GGGGGGGGGGGGGG  GGGGGGGGGGGGGG     GGGGG                        GGGGGGGGGGGG  GGGGG    GGGGG                       GGGG                                                                                                                  ",
"                                                                                                               GGGGGGGGGG        GGGGGGGGG      GGGGGG       GGGGGGGGGGG     GGGGGGGGGGGG                  GGGGGGGGGGGGGG   GGG     GGGG   GGGGGGGGGGGG                     GGGGGGGGGG    GGG     GGGG    GGGGGGGGGGG    GGGGGGGGGGGGGG                    GGGGGGGG     GGGG      GGG  GGGGGGGGGGGGGG  GGGGGGGGGGGGGG     GGGGGG                       GGGGGGGGGGGG  GGGGG    GGGGG                       GGGG                                                                                                                  ",
"                                                                                                              GGGGGGGGGGG       GGGGGGGGGG      GGGGGG       GGGGGGGGGGG     GGGGGGGGGGGG                  GGGGGGGGGGGGGG   GGG     GGGG   GGGGGGGGGGGG                    GGGGGGGGGGG    GGG     GGGG    GGGGGGGGGGG    GGGGGGGGGGGGGG                   GGGGGGGGGG    GGGG      GGG  GGGGGGGGGGGGGG  GGGGGGGGGGGGGG     GGGGGG                       GGGGGGGGGGGG  GGGGG   GGGGGG                       GGGG                                                                                                                  ",
"                                                                                                              GGGG    GGG      GGGGG    GG      GGGGGG       GGG    GGGGG    GGGG                               GGGG        GGG     GGGG   GGGG                            GGGG    GGG    GGG     GGGG        GGGG            GGGG                       GGGGG  GGGG    GGGG      GGG       GGGG            GGGG          GGGGGG                       GGGG          GGGGGG  GGGGGG                       GGGG                                                                                                                  ",
"                                                                                                              GGG       G      GGGG            GGGGGGG       GGG     GGGG    GGGG                               GGGG        GGG     GGGG   GGGG                            GGG       G    GGG     GGGG        GGGG            GGGG                       GGGG    GGGG   GGGG      GGG       GGGG            GGGG         GGGGGGG                       GGGG          GGGGGG  GGGGGG                       GGGG                                                                                                                  ",
"                                                                                                              GGG             GGGG             GGG GGGG      GGG     GGGG    GGGG                               GGGG        GGG     GGGG   GGGG                            GGG            GGG     GGGG        GGGG            GGGG                       GGG     GGGG   GGGG      GGG       GGGG            GGGG         GGG GGGG                      GGGG          GGGGGG  GGGGGG                       GGGG                                                                                                                  ",
"                                                                                                              GGGG            GGGG             GGG  GGG      GGG     GGGG    GGGG                               GGGG        GGG     GGGG   GGGG                            GGGG           GGG     GGGG        GGGG            GGGG                      GGGG     GGGG   GGGG      GGG       GGGG            GGGG         GGG  GGG                      GGGG          GGG GG GGGGGGG                       GGGG                                                                                                                  ",
"                                                                                                              GGGGGG          GGGG             GGG  GGG      GGG    GGGG     GGGGGGGGGGG                        GGGG        GGGGGGGGGGGG   GGGGGGGGGGG                     GGGGGG         GGGGGGGGGGGG        GGGG            GGGG                      GGGG      GGG   GGGG      GGG       GGGG            GGGG         GGG  GGG                      GGGGGGGGGGG   GGG GGGGG GGGG                       GGGG                                                                                                                  ",
"                                                                                                               GGGGGGG        GGGG            GGGG  GGG      GGGGGGGGGGG     GGGGGGGGGGG                        GGGG        GGGGGGGGGGGG   GGGGGGGGGGG                      GGGGGGG       GGGGGGGGGGGG        GGGG            GGGG                      GGGG      GGG   GGGG      GGG       GGGG            GGGG        GGGG  GGG                      GGGGGGGGGGG   GGG GGGGG GGGG                       GGG                                                                                                                   ",
"                                                                                                                GGGGGGGG      GGGG            GGG   GGGG     GGGGGGGGG       GGGGGGGGGGG                        GGGG        GGGGGGGGGGGG   GGGGGGGGGGG                       GGGGGGGG     GGGGGGGGGGGG        GGGG            GGGG                      GGGG      GGG   GGGG      GGG       GGGG            GGGG        GGG   GGGG                     GGGGGGGGGGG   GGG  GGGG GGGG                       GGG                                                                                                                   ",
"                                                                                                                  GGGGGGG     GGGG            GGG   GGGG     GGGGGGGGG       GGGG                               GGGG        GGG     GGGG   GGGG                                GGGGGGG    GGG     GGGG        GGGG            GGGG                      GGGG      GGG   GGGG      GGG       GGGG            GGGG        GGG   GGGG                     GGGG          GGG  GGGG GGGG                       GGG                                                                                                                   ",
"                                                                                                                    GGGGGG    GGGG           GGGGGGGGGGG     GGG   GGGG      GGGG                               GGGG        GGG     GGGG   GGGG                                  GGGGGG   GGG     GGGG        GGGG            GGGG                      GGGG      GGG   GGGG      GGG       GGGG            GGGG       GGGGGGGGGGG                     GGGG          GGG  GGG  GGGG                        GG                                                                                                                   ",
"                                                                                                                      GGGG    GGGG           GGGGGGGGGGG     GGG    GGGG     GGGG                               GGGG        GGG     GGGG   GGGG                                    GGGG   GGG     GGGG        GGGG            GGGG                      GGGG     GGGG   GGGG      GGG       GGGG            GGGG       GGGGGGGGGGG                     GGGG          GGG       GGGG                                                                                                                                             ",
"                                                                                                                      GGGG    GGGG           GGGGGGGGGGGG    GGG    GGGG     GGGG                               GGGG        GGG     GGGG   GGGG                                    GGGG   GGG     GGGG        GGGG            GGGG                       GGG     GGGG   GGGG     GGGG       GGGG            GGGG       GGGGGGGGGGGG                    GGGG          GGG       GGGG                                                                                                                                             ",
"                                                                                                              G       GGGG     GGGG          GGG     GGGG    GGG     GGGG    GGGG                               GGGG        GGG     GGGG   GGGG                            G       GGGG   GGG     GGGG        GGGG            GGGG                       GGGG    GGGG    GGG     GGGG       GGGG            GGGG       GGG     GGGG                    GGGG          GGG       GGGG                                                                                                                                             ",
"                                                                                                              GGG    GGGGG     GGGGG    GG  GGGG      GGG    GGG     GGGG    GGGG                               GGGG        GGG     GGGG   GGGG                            GGG    GGGGG   GGG     GGGG        GGGG            GGGG                       GGGGG  GGGG     GGGG   GGGGG       GGGG            GGGG      GGGG      GGG                    GGGG          GGG       GGGG                       GGGG                                                                                                                  ",
"                                                                                                              GGGGGGGGGGG       GGGGGGGGGG  GGGG      GGGG   GGG     GGGG    GGGGGGGGGGGG                       GGGG        GGG     GGGG   GGGGGGGGGGGG                    GGGGGGGGGGG    GGG     GGGG    GGGGGGGGGGG         GGGG                        GGGGGGGGGG     GGGGGGGGGGG        GGGG            GGGG      GGGG      GGGG                   GGGGGGGGGGGG  GGG       GGGG                       GGGG                                                                                                                  ",
"                                                                                                              GGGGGGGGGGG        GGGGGGGGG  GGGG      GGGG   GGG      GGGG   GGGGGGGGGGGG                       GGGG        GGG     GGGG   GGGGGGGGGGGG                    GGGGGGGGGGG    GGG     GGGG    GGGGGGGGGGG         GGGG                         GGGGGGGG       GGGGGGGGGG        GGGG            GGGG      GGGG      GGGG                   GGGGGGGGGGGG  GGG       GGGG                       GGGG                                                                                                                  ",
"                                                                                                                GGGGGGG            GGGGG    GGG       GGGG   GGG      GGGG   GGGGGGGGGGGG                       GGGG        GGG     GGGG   GGGGGGGGGGGG                      GGGGGGG      GGG     GGGG    GGGGGGGGGGG         GGGG                          GGGGG           GGGGGG          GGGG            GGGG      GGG       GGGG                   GGGGGGGGGGGG  GGG       GGGG                       GGGG                                                                                                                  ",
"                                                                                                                                                                                                                                                                                                                                                                                                                                                                                                                                                                                                                                ",
"                                                                                                                                                                                                                                                                                                                                                                                                                                                                                                                                                                                                                                ",
"                                                                                                                                                                                                                                                                                                                                                                                                                                                                                                                                                                                                                                ",
"                                                                                                                                                                                                                                                                                                                                                                                                                                                                                                                                                                                                                                ",
"                                                                                                                                                                                                                                                                                                                                                                                                                                                                                                                                                                                                                                ",
"                                                                                                                                                                                                                                                                                                                                                                                                                                                                                                                                                                                                                                ",
"                                                                                                                                                                                                                                                                                                                                                                                                                                                                                                                                                                                                                                ",
"                                                                                                                                                                                                                                                                                                                                                                                                                                                                                                                                                                                                                                ",
"                                                                                                                                                                                                                                                                                                                                                                                                                                                                                                                                                                                                                                ",
"                                                                                                                                                                                                                                                                                                                                                                                                                                                                                                                                                                                                                                ",
"                                                                                                                                                                                                                                                                                                                                                                                                                                                                                                                                                                                                                                ",
"                                                                                                                                                                                                                                                                                                                                                                                                                                                                                                                                                                                                                                ",
"                                                                                                                                                                                                                                                                                                                                                                                                                                                                                                                                                                                                                                ",
"                                                                                                                                                                                                                                                                                                                                                                                                                                                                                                                                                                                                                                ",
"                                                                                                                                                                                                                                                                                                                                                                                                                                                                                                                                                                                                                                ",
"                                                                                                                                                                                                                                                                                                                                                                                                                                                                                                                                                                                                                                ",
"                                                                                                                                                                                                                                                                                                                                                                                                                                                                                                                                                                                                                                ",
"                                                                                                                                                                                                                                                                                                                                                                                                                                                                                                                                                                                                                                ",
"                                                                                                                                                                                                                                                                                                                                                                                                                                                                                                                                                                                                                                ",
"                                                                                                                                                                                                                                                                                                                                                                                                                                                                                                                                                                                                                                ",
"                                                                                                                                                                                                                                                                                                                                                                                                                                                                                                                                                                                                                                ",
"                                                                                                                                                                                                                                                                                                                                                                                                                                                                                                                                                                                                                                ",
"                                                                                                                                                                                                                                                                                                                                                                                                                                                                                                                                                                                                                                ",
"                                                                                                                                                                                                                                                                                                                                                                                                                                                                                                                                                                                                                                ",
"                                                                                                                                                                                                                                                                                                                                                                                                                                                                                                                                                                                                                                ",
"                                                                                                                                                                                                                                                                                                                                                                                                                                                                                                                                                                                                                                ",
"                                                                                                                                                                                                                                                                                                                                                                                                                                                                                                                                                                                                                                ",
"                                                                                                                                                                                                                                                                                                                                                                                                                                                                                                                                                                                                                                ",
"                                                                                                                                                                                                                                                                                                                                                                                                                                                                                                                                                                                                                                ",
"                                                                                                                                                                                                                                                                                                                                                                                                                                                                                                                                                                                                                                ",
"                                                                                                                                                                                                                                                                                                                                                                                                                                                                                                                                                                                                                                ",
"                                                                                                                                                                                                                                                                                                                                                                                                                                                                                                                                                                                                                                ",
"                                                                                                                                                                                                                                                                                                                                                                                                                                                                                                                                                                                                                                ",
"                                                                                                                                                                                                                                                                                                                                                                                                                                                                                                                                                                                                                                ",
"                                                                                                                                                                                                                                                                                                                                                                                                                                                                                                                                                                                                                                ",
"                                                                                                                                                                                                                                                                                                                                                                                                                                                                                                                                                                                                                                ",
"                                                                                                                                                                                                                                                                                                                                                                                                                                                                                                                                                                                                                                ",
"                                                                                                                                                                                                                                                                                                                                                                                                                                                                                                                                                                                                                                ",
"                                                                                                                                                                                                                                                                                                                                                                                                                                                                                                                                                                                                                                ",
"                                                                                                                                                                                                                                                                                                                                                                                                                                                                                                                                                                                                                                ",
"                                                                                                                                                                                                                                                                                                                                                                                                                                                                                                                                                                                                                                ",
"                                                                                                                                                                                                                                                                                                                                                                                                                                                                                                                                                                                                                                ",
"                                                                                                                                                                                                                                                                                                                                                                                                                                                                                                                                                                                                                                ",
"                                                                                                                                                                                                                                                                                                                                                                                                                                                                                                                                                                                                                                ",
"                                                                                                                                                                                                                                                                                                                                                                                                                                                                                                                                                                                                                                ",
"                                                                                                                                                                                                                                                                                                                                                                                                                                                                                                                                                                                                                                ",
"                                                                                                                                                                                                                                                                                                                                                                                                                                                                                                                                                                                                                                ",
"                                                                                                                                                                                                                                                                                                                                                                                                                                                                                                                                                                                                                                ",
"                                                                                                                                                                                                                                                                                                                                                                                                                                                                                                                                                                                                                                ",
"                                                                                                                                                                                                                                                                                                                                                                                                                                                                                                                                                                                                                                ",
"                                                                                                                                                                                                                                                                                                                                                                                                                                                                                                                                                                                                                                ",
"                                                                                                                                                                                                                                                                                                                                                                                                                                                                                                                                                                                                                                ",
"                                                                                                                                                                                                                                                                                                                                                                                                                                                                                                                                                                                                                                "
};
