/* XPM */
static char *tuto_06[] = {
"608 120 4 1",
"  c #000000",
"G c #70DD99",
"B c #3399FF",
"R c #FF0000",
"                                                                                                                                                                                                                                                                                                                                                                                                                                                                                                                                                                                                                                ",
"                                                                                                                                                                                                                                                                                                                                                                                                                                                                                                                                                                                                                                ",
"                                                                                                                                                                                                                                                                                                                                                                                                                                                                                                                                                                                                                                ",
"                                                                                                                                                                                                                                                                                                                                                                                                                                                                                                                                                                                                                                ",
"                                                                                                                                                                                                                                                                                                                                                                                                                                                                                                                                                                                                                                ",
"                                                                                                                                                                                                                                                                                                                                                                                                                                                                                                                                                                                                                                ",
"                                                                                                                                                                                                                                                                                                                                                                                                                                                                                                                                                                                                                                ",
"                                                                                                                                                                                                                                                                                                                                                                                                                                                                                                                                                                                                                                ",
"                                                                                                                                                                                                                                                                                                                                                                                                                                                                                                                                                                                                                                ",
"                                                                                                                                                                                                                                                                                                                                                                                                                                                                                                                                                                                                                                ",
"                                                                                                                                                                                                                                                                                                                                                                                                                                                                                                                                                                                                                                ",
"                                                                                                                                                                                                                                                                                                                                                                                                                                                                                                                                                                                                                                ",
"                                                                                                                                                                                                                                                                                                                                                                                                                                                                                                                                                                                                                                ",
"                                                                                                                                                                                                                                                                                                                                                                                                                                                                                                                                                                                                                                ",
"                   GG       GG                    GG                                                      GGG                                        GG                                                          GGG                                      GG       GG                                 GG                                    GG                                                                      GG                         GG                   GG                                                               GG                           GG                    BB     BBB                              ",
"            GGGGGG GG       GG                    GG                                                       GG                    GG                  GG                                                  GGG     G     GG                           GG    GG       GG                          GG     GG                                    GG                                        GG                            GG                         GG                   GG                   GG   GG                        GG           GG                     GG    GG                    BB      BB                              ",
"              G    GG                                                                                      GG                    GG                  GG                                                  GGG     G     GG                           GG    GG                                   GG     GG                                                                              GG                                                       GG                   GG                    GG  G                         GG           GG                     GG    GG                    BB      BB                              ",
"              G    GGGGG  GGGG     GGG          GGGG    GGG           G   GG  GGG   GG GG   GGGGG          GG    GGGG    GGG    GGGGG          GGGG  GGGGG  GGGG    GGGGG   GGGG   GGG                   GGG   GGGGG  GGGGG   GGG     GGGGG        GGGGG  GGGGG  GGGG     GGG                 GGGGG   GGGGG   GGG    GGGGG  GGG           GGGG    GGG          GGGGG    GGG          GGGGG  GG GG   GGGGG  GGGGG  GGGG   GGGGG   GGGG          GGGGG  GGGG    GGGG  GG GG                 GG GG   GGG   GG GG          GGGGG  GGGG   GG GG    GGG          GGGGG  GGGGG   GGG           BBBBB   BB    BB BB    BBB              ",
"              G    GG GG    GG    GG  G           GG   GG  G          GG  G  GG GG  GG GG   GG             GG        G  GG  G    GG            G     GG GG      G   GG GG   G     GG  G                  G GG    G     GG    GG  G    GG            GG    GG GG    GG    GG  G                 GG     GG GG  GG  G   GG    GG  G            GG   GG  G         GG GG   GG GG          GG    GG GG   GG     GG GG    GG   GG GG  GG GG          GG GG      G   G     GGGG                   GGG   GG GG  GG GG           GG        G  GGGG    GG  G          GG    GG GG  GG  G          BB BB   BB    BB BB   BB  B             ",
"              G    GG  G    GG    GG              GG   GG             GG GG  G   GG GG GG   GG             GG        G  GG       GG           GG     GG  G      G   GG  G  GG     G   GG                GG GG    G     GG    G   GG   GG            GG    GG  G    GG    GG                    GG     GG  G  G   GG  GG    G   GG           GG   GG            GG  G   G   GG         GG    GG GG   GG     GG  G    GG   GG  G  G   G          GG  GG     G  GG     GGGG                   GGG   G   GG GG GG           GG        G  GGGG    G   GG         GG    GG  G  G   GG         BB  BB  BB    BB BB   B   BB            ",
"              G    GG  G    GG     GGGG           GG    GGGG           G GG  G   GG GG GG   G              GG    GGGGG   GGGG    GG           GG     GG  G  GGGGG   GG  G  GG     GGGGGG                GGGGG    G     GG    GGGGGG   G             GG    GG  G    GG     GGGG                 GG     GG  G  GGGGGG  G     GGGGGG           GG    GGGG         GG  G   G   GG         GG    GG GG   G      GG  G    GG   GG  G  G   G          GG  GG GGGGG  GG     GGGG                    GG   G   GG GG GG           GG    GGGGG  GGGG    GGGGGG         GG    GG  G  GGGGGG         BB  BB  BB    BB BB   BBBBBB            ",
"              G    GG  G    GG       GG           GG      GG           GGG   G   GG GG GG   G              GG    GG  GG    GG    GG           GG     GG  G  GG  GG  GG  G  GG     G                     G   G    G     GG    G        G             GG    GG  G    GG       GG                 GG     GG  G  G       G     G                GG      GG         GG  G   G   GG         GG    GG GG   G      GG  G    GG   GG  G  G   G          GG  GG GG  GG GG     GG GG                   G    G   GG GG GG           GG    GG  GG GG GG   G              GG    GG  G  G              BB  BB  BB    BB BB   B                 ",
"              G    GG  G    GG    G  GG           GG   G  GG           GGG   GG GG  GG GG   G              GG    GG GGG G  GG    GG            G     GG  G  GG GGG  GG  G   G     GG       GG           G   GG   G     GG    GG       G             GG    GG  G    GG    G  GG    GG           GG     GG  G  GG      G     GG               GG   G  GG         GG  G   GG GG          GG    GG GG   G      GG  G    GG   GG  G  GG GG          GG  G  GG GGG  G     GG GG     GG            G    GG GG  GG GG           GG    GG GGG GG GG   GG             GG    GG  G  GG             BB  B   BB    BB BB   BB                ",
"              G    GG  G  GGGGGG   GGG          GGGGGG  GGG             GG    GGG    GGGG   G               GGG  GGGGGG  GGG      GGG          GGGG  GG  G  GGGGGG  GG  G   GGGG   GGGG    GG          GG   GG   G      GGG   GGGG    G              GGG  GG  G  GGGGGG   GGG     GG            GGG   GG  G   GGGG   G      GGGG          GGGGGG  GGG          GG  G    GGG            GGG   GGGG   G      GG  G  GGGGGG GG  G   GGGG          GGGGG  GGGGGG  GGGG  GG  GG    GG            G     GGG    GGGG            GGG  GGGGGG GG  GG   GGGG           GGG  GG  G   GGGG          BBBBB    BBB   BBBB    BBBB             ",
"                                                                        G                                                                                                                                                                                                        GG                                                                                                                                                 G                                                                                                                                                                                           ",
"                                                                       GG                                                                                                                                                                                                        GG                                                                                                                                                GG                                                                                                                                                                                           ",
"                                                                      GG                                                                                                                                                                                                                                                                                                                                                         GGG                                                                                                                                                                                            ",
"                                                                                                                                                                                                                                                                                                                                                                                                                                                                                                                                                                                                                                ",
"                                                                                                                                                                                                                                                                                                                                                                                                                                                                                                                                                                                                                                ",
"                                                                                                                                                                                                                                                                                                                                                                                                                                                                                                                                                                                                                                ",
"                                                                                                                                                                                                                                                                                                                                                                                                                                                                                                                                                                                                                                ",
"                                                                                                                                                                                                                                                                                                                                                                                                                                                                                                                                                                                                                                ",
"                                                                                                                                                                                                                                                                                                                                                                                                                                                                                                                                                                                                                                ",
"                            BB   BBB     BBB                                 GG                                                                                 G                                                                   GG                                            GG                                                     GG                 G                            G         GG             GGG      GG                                       GG                                                                                                                                                          ",
"                            BB    BB      BB                           GG    GG                            GG                                                   G                                                                   GG                                            GG                                                     GG                 G                            G         GG              GG      GG                                       GG              GG                                                                                           GG             GG                              ",
"                                  BB      BB                           GG    GG                            GG                                                   G                                                                   GG                                                                                                   GG                 G                            G         GG              GG                                               GG              GG                                                                                           GG             GG                              ",
"                   BBBBB  BBBB    BB      BB                          GGGGG  GGGGG   GGG           GGG    GGGGG   GGG    GGGGG G   GG          GGG   GGGGG   GGGG   GGG                  G   GG  GGG   GG GG         GG    G GGGG   GG GG    GGG          GG GG  GGGGG          GGGG   GGGGG         G   GG   GGG   GG GG   GGGGG        GGGGG    GGG    GGGG         GGGG    GGGGG   GGGG         GGGGG   GGG     GG    GGGG    GGG   G   GG  GGG          GG    G GGGGG  GGGG    GGGGG   GGG   G   GG  GGG    GGGGG         G   GG  GGG   GG GG         GG    G GGGG   GGGGG  GGGGG          GGGGG   GGG                      ",
"                   BB BB    BB    BB      BB                           GG    GG GG  GG  G         GG  G    GG    GG GG   GG    GG  G          GG  G  GG GG  GG GG  GG  G                 GG  G  GG GG  GG GG         GG    G     G  GGGG    GG  G         GG GG  GG GG            GG   GG GG         GG  G   GG GG  GG GG   GG           GG GG   GG  G  GG GG             G   GG GG  GG GG         GG GG  GG  G    GG      GG   GG  G  GG  G  GG  G         GG    G GG GG      G    GG    GG  G  GG  G  GG  G   GG            GG  G  GG GG  GG GG         GG    G     G  GG GG   GG             GG    GG GG                     ",
"                   BB  BB   BB    BB      BB            GGG            GG    GG  G  G   GG        GG       GG    G   GG  GG    GG GG          G   GG GG  G  G   G  GG                    GG GG  G   GG GG GG         GG G GG     G  GGGG    G   GG        GG GG  GG  GG           GG   GG  G         GG GG   G   GG GG GG   GG           GG  GG  G   GG G   G             G   GG  G  G   G         GG  GG G   GG   GG      GG   G   GG GG GG  G   GG        GG G GG GG  G      G    GG    G   GG GG GG  G   GG  GG            GG GG  G   GG GG GG         GG G GG     G  GG  G   GG             GG    G   GG                    ",
"                   BB  BB   BB    BB      BB            GGG            GG    GG  G  GGGGGG         GGGG    GG    G   GG  G      G GG          GGGGGG GG  G  G   G   GGGG                  G GG  G   GG GG GG          G GGGG GGGGG  GGGG    GGGGGG        GG GG  GG  GG           GG   GG  G          G GG   G   GG GG GG   G            GG  GG  GGGGGG G   G         GGGGG   GG  G  G   G         GG  GG GGGGGG   GG      GG   GGGGGG  G GG  GGGGGG         G GGGG GG  G  GGGGG    GG    GGGGGG  G GG  GGGGGG  G              G GG  G   GG GG GG          G GGGG GGGGG  GG  G   GG             GG    G   GG                    ",
"                   BB  BB   BB    BB      BB                           GG    GG  G  G                GG    GG    G   GG  G      GGG           G      GG  G  G   G     GG                  GGG   G   GG GG GG          GGGGG  GG  GG GG GG   G             GG GG  GG  GG           GG   GG  G          GGG    G   GG GG GG   G            GG  GG  G      G   G         GG  GG  GG  G  G   G         GG  GG G        GG      GG   G       GGG   G              GGGGG  GG  G  GG  GG   GG    G       GGG   G       G              GGG   G   GG GG GG          GGGGG  GG  GG GG  G   GG             GG    G   GG                    ",
"                   BB  B    BB    BB      BB                           GG    GG  G  GG            G  GG    GG    GG GG   G      GGG           GG     GG  G  GG GG  G  GG     GG           GGG   GG GG  GG GG          GG GG  GG GGG GG GG   GG            GG GG  GG  G            GG   GG  G          GGG    GG GG  GG GG   G            GG  G   GG     GG GG         GG GGG  GG  G  GG GG         GG  G  GG       GG      GG   GG      GGG   GG             GG GG  GG  G  GG GGG   GG    GG      GGG   GG      G              GGG   GG GG  GG GG          GG GG  GG GGG GG  G   GG             GG    GG GG                     ",
"                   BBBBB  BBBBBB   BBB     BBB                          GGG  GG  G   GGGG          GGG      GGG   GGG    G       GG            GGGG  GG  G   GGGG   GGG      GG            GG    GGG    GGGG          GG GG  GGGGGG GG  GG   GGGG          GGGG  GGGGG          GGGGGG GG  G           GG     GGG    GGGG   G            GGGGG    GGGG   GGGG         GGGGGG  GG  G   GGGG         GGGGG   GGGG     GGG  GGGGGG  GGGG   GGG    GGGG          GG GG  GG  G  GGGGGG    GGG   GGGG   GGG    GGGG   G               GG    GGG    GGGG          GG GG  GGGGGG GG  G    GGG            GGG   GGG                      ",
"                   BB                                                                                                            G                                          GG             G                                                                     GG                                    G                                                                                                                                                                                                                        G                                                                                               ",
"                   BB                                                                                                           GG                                          GG            GG                                                                     GG                                   GG                                                                                                                                                                                                                       GG                                                                                               ",
"                   BB                                                                                                          GG                                                        GG                                                                      GG                                  GG                                                                                                                                                                                                                       GG                                                                                                ",
"                                                                                                                                                                                                                                                                                                                                                                                                                                                                                                                                                                                                                                ",
"                                                                                                                                                                                                                                                                                                                                                                                                                                                                                                                                                                                                                                ",
"                                                                                                                                                                                                                                                                                                                                                                                                                                                                                                                                                                                                                                ",
"                                                                                                                                                                                                                                                                                                                                                                                                                                                                                                                                                                                                                                ",
"                                                                                                                                                                                                                                                                                                                                                                                                                                                                                                                                                                                                                                ",
"                                                                                                                                                                                                                                                                                                                                                                                                                                                                                                                                                                                                                                ",
"                   GG            GGG       GG                                                                                  GG                           GG                                      R                   RR   RRR    RRR                                                                                             GG                                            G                GGG                       G                            G                               GG                                                        GG                              G                                           ",
"                   GG             GG       GG                                      GG   GG                        GG           GG                     GG    GG                                      R                   RR    RR     RR                                                               GG                            GG                 GG    G                    G                 GG                       G                            G         GGGGG                 GG                                                        GG                              G                                           ",
"                   GG             GG                                                GG  G                         GG           GG                     GG    GG                                      R                         RR     RR                                                               GG                                               GG    G                    G                 GG                       G                            G           G                   GG                                                        GG                              G                                           ",
"                   GGGGG   GGG    GG     GGGG    GGG   G   GG  GGG                  GG GG   GGG   GG GG          GGGGG  GGGG   GG GG    GGG          GGGGG  GGGGG   GGG            RRRRR  RRR    RRRR          RRRRR  RRRR    RR     RR                          G   GG  GGG    GG GG          GGG   GGGGG   GGGG   G   GG        GGGG   GGGGG         GG G  G  GGG   GGGGG    GGGG   GGG    GGGGG  GG    GGGG    GGGGG   GGGG         GGGG   GGGGG    GGGG           G             GGG   GGGGG   GGG  GG    G         G   GG  GGG   GG GG          GGGGG   GGG  GG    G         GGGG    GGG    GGG   GGGGG                     ",
"                   GG GG  GG  G   GG       GG   GG  G  GG  G  GG  G                  GGG   GG GG  GG GG           GG        G  GGGG    GG  G          GG    GG GG  GG  G           RR    RR  R  RR RR          RR RR    RR    RR     RR                          GG  G  GG GG   GG GG         GG  G   GG         G  GG  G           GG   GG GG         GG GGGG GG GG  GG GG   GG GG  GG  G   GG     GG        G   GG GG  GG GG             G  GG GG   GG GG           G            GG  G  GG GG  GG GG GG    G         GG  G  GG GG  GG GG          GG GG  GG GG GG    G        GG GG   GG  G  GG  G  GG GG                     ",
"                   GG  GG G   GG  GG       GG   G   GG GG GG  G   GG                 GGG   G   GG GG GG           GG        G  GGGG    G   GG         GG    GG  G  G   GG          RR    R   RR R   R          RR  RR   RR    RR     RR             GGG          GG GG  G   GG  GG GG         GG      GG         G  GG GG           GG   GG  G          GGGGGG G   GG GG  G   G   G  G   GG  GG     GG        G   GG  G  G   G             G  GG  G   G   G           G            GG     GG  G  G   GGGG G GG         GG GG  G   GG GG GG          GG  G  G   GGGG G GG        G   G   G   GG G   GG GG  GG                    ",
"                   GG  GG GGGGGG  GG       GG   GGGGGG  G GG  GGGGGG                  GG   G   GG GG GG           GG    GGGGG  GGGG    GGGGGG         GG    GG  G  GGGGGG          R     RRRRRR R   R          RR  RR   RR    RR     RR             GGG           G GG  G   GG  GG GG          GGGG   GG     GGGGG   G GG           GG   GG  G          GG GGG G   GG GG  G   G   G  GGGGGG  G      GG    GGGGG   GG  G  G   G         GGGGG  GG  G   G   G           G             GGGG  GG  G  G   GG G GGGG          G GG  G   GG GG GG          GG  G  G   GG G GGGG        G   G   GGGGGG GGGGGG GG  GG                    ",
"                   GG  GG G       GG       GG   G       GGG   G                       G    G   GG GG GG           GG    GG  GG GG GG   G              GG    GG  G  G               R     R      R   R          RR  RR   RR    RR     RR                           GGG   G   GG  GG GG            GG   GG     GG  GG  GGG            GG   GG  G          GG GG  G   GG GG  G   G   G  G       G      GG    GG  GG  GG  G  G   G         GG  GG GG  G   G   G           G               GG  GG  G  G   GG GGGGG           GGG   G   GG GG GG          GG  G  G   GG GGGGG         G   G   G      G      GG  GG                    ",
"                   GG  G  GG      GG       GG   GG      GGG   GG        GG            G    GG GG  GG GG           GG    GG GGG GG GG   GG             GG    GG  G  GG              R     RR     RR RR          RR  R    RR    RR     RR                           GGG   GG GG   GG GG         G  GG   GG     GG GGG  GGG            GG   GG  G          GG GG  GG GG  GG  G   GG GG  GG      G      GG    GG GGG  GG  G  GG GG         GG GGG GG  G   GG GG           G            G  GG  GG  G  GG GG  GG GG           GGG   GG GG  GG GG          GG  G  GG GG  GG GG         GG GG   GG     GG     GG  G                     ",
"                   GGGGG   GGGG    GGG   GGGGGG  GGGG   GGG    GGGG     GG            G     GGG    GGGG            GGG  GGGGGG GG  GG   GGGG           GGG  GG  G   GGGG           R      RRRR   RRRR          RRRRR  RRRRRR   RRR    RRR                          GG    GGG     GGGG          GGG     GGG   GGGGGG   GG          GGGGGG GG  G          GG  G   GGG   GG  G    GGGG   GGGG   G       GGG  GGGGGG  GG  G   GGGG         GGGGGG GG  G    GGGG         GGGGG           GGG   GG  G   GGG   GG GG            GG    GGG    GGGG          GG  G   GGG   GG GG          GGGG    GGGG   GGGG  GGGGG                     ",
"                                                                                                                                                                                                               RR                                                  G                                                  G                                                                                                                                                                                                  G                                                                            GG                        ",
"                                                                                                                                                                                                               RR                                                 GG                                                 GG                                                                                                                                                                                                 GG                                                                            GG                        ",
"                                                                                                                                                                                                               RR                                                GG                                                 GG                                                                                                                                                                                                 GG                                                                             GG                        ",
"                                                                                                                                                                                                                                                                                                                                                                                                                                                                                                                                                                                                                                ",
"                                                                                                                                                                                                                                                                                                                                                                                                                                                                                                                                                                                                                                ",
"                                                                                                                                                                                                                                                                                                                                                                                                                                                                                                                                                                                                                                ",
"                                                                                                                                                                                                                                                                                                                                                                                                                                                                                                                                                                                                                                ",
"                                                                                                                                                                                                                                                                                                                                                                                                                                                                                                                                                                                                                                ",
"                                                                                                                                                                                                                                                                                                                                                                                                                                                                                                                                                                                                                                ",
"                                                                                                                                                                                                                                            GG                                  GG      GG       GG                 GG             GGG                                                                                                                                                                                                                                                                                          ",
"                                                                                                                                                                                                                                      GG    GG                                  GG      GG       GG    GG           GG              GG                                                                                                                                                                                                                                                                                          ",
"                                                                                                                                                                                                                                      GG    GG                                  GG      GG             GG           GG              GG                                                                                                                                                                                                                                                                                          ",
"                                                                                                                                                                                                                                     GGGGG  GGGGG   GGG            GGGGG GGGG   GGGGG   GGGGG  GGGG   GGGGG         GGGGG    GGG    GG     GGG            GGGG   GGG    GGG    GGG                                                                                                                                                                                                                                              ",
"                                                                                                                                                                                                                                      GG    GG GG  GG  G           GG        G  GG GG   GG GG    GG    GG           GG GG   GG GG   GG    GG  G          GG GG  GG GG  GG  G  GG  G                                                                                                                                                                                                                                             ",
"                                                                                                                                                                                                                                      GG    GG  G  G   GG          GG        G  GG  GG  GG  GG   GG    GG           GG  G   G   GG  GG    G   GG         G   G  G   GG G   GG GG                                                                                                                                                                                                                                                ",
"                                                                                                                                                                                                                                      GG    GG  G  GGGGGG          G     GGGGG  GG  GG  GG  GG   GG    GG           GG  G   G   GG  GG    GGGGGG         G   G  G   GG GGGGGG  GGGG                                                                                                                                                                                                                                             ",
"                                                                                                                                                                                                                                      GG    GG  G  G               G     GG  GG GG  GG  GG  GG   GG    GG           GG  G   G   GG  GG    G              G   G  G   GG G         GG                                                                                                                                                                                                                                             ",
"                                                                                                                                                                                                                                      GG    GG  G  GG              G     GG GGG GG  G   GG  G    GG    GG           GG  G   GG GG   GG    GG             GG GG  GG GG  GG     G  GG    GG                                                                                                                                                                                                                                       ",
"                                                                                                                                                                                                                                       GGG  GG  G   GGGG           G     GGGGGG GGGGG   GGGGG  GGGGGG   GGG         GG  G    GGG     GGG   GGGG           GGGG   GGG    GGGG   GGG     GG                                                                                                                                                                                                                                       ",
"                                                                                                                                                                                                                                                                                                                                                             G                                                                                                                                                                                                                                                                  ",
"                                                                                                                                                                                                                                                                                                                                                            GG                                                                                                                                                                                                                                                                  ",
"                                                                                                                                                                                                                                                                                                                                                          GGG                                                                                                                                                                                                                                                                   ",
"                                                                                                                                                                                                                                                                                                                                                                                                                                                                                                                                                                                                                                ",
"                                                                                                                                                                                                                                                                                                                                                                                                                                                                                                                                                                                                                                ",
"                                                                                                                                                                                                                                                                                                                                                                                                                                                                                                                                                                                                                                ",
"                                                                                                                                                                                                                                                                                                                                                                                                                                                                                                                                                                                                                                ",
"                                                                                                                                                                                                                                                                                                                                                                                                                                                                                                                                                                                                                                ",
"                                                                                                                                                                                                                                                                                                                                                                                                                                                                                                                                                                                                                                ",
"                                                                                                                                                  GG                                         GGG     GGG                                                 GGG    GGG                   GG                           GG                         GG                                                GG                                                 GG       GG                                                                                                                                                                  ",
"                                                                                                              GGGG                                GG                                          GG      GG           GGGGG    G                            G      G                     GG                           GG                   GG    GG                    GG                    GG    GG                                           GG    GG       GG                                                                                                                                                                  ",
"                                                                                                              GG GG                               GG                                          GG      GG             G      G                            G      G                                                                       GG    GG                    GG                    GG    GG                                           GG    GG                                                                                                                                                                           ",
"                                                                                                              GG  G   GGG  GGGGGG    GGG  GGGGGG  GGGGG   GGG     GGGGG               GGGG    GG      GG             G      G    GGGGGG          GGG   GGGGG  GGGGG    GGG    GGGGG GGGG   GGGGG   GGGG          GGGG    GGG           GGGGG  GGGGG   GGG          GGGGG    GGGGG GG GG  GGGGG  GGGGG                        GGGGG   GGG    GGGGG  GGGGG  GGGG   GGGGG    GGGG        GGGGGG   GGG    GGGGG   GGG                                                                                                               ",
"                                                                                                              GG GG  GG  G GG G GG  GG  G GG G GG GG GG  GG  G    GG                      G   GG      GG             G           GG G GG        GG GG    G      G     GG  G   GG      GG   GG GG  GG GG            GG   GG  G           GG    GG GG  GG  G          GG      GG    GG GG   GG    GG GG                        GG GG  GG GG    GG    GG GG    GG   GG GG   GG GG        GG G GG GG GG   GG     GG  G                                                                                                              ",
"                                                                                                              GGGG   G   GGGG G GG  G   GGGG G GG GG  GG G   GG   GG                      G   GG      GG             G           GG G GG        G   GG   G      G     G   GG  GG      GG   GG  G  G   G            GG   GG              GG    GG  G  G   GG         GG      GG    GG GG   GG    GG  G           GGG          GG  G  G   GG   GG    GG  G    GG   GG  G   G   G        GG G GG G   GG  GG     G   GG                                                                                                             ",
"                                                                                                              GG GG  GGGGGGGG G GG  GGGGGGGG G GG GG  GG GGGGGG   G                   GGGGG   GG      GG             G           GG G GG        G   GG   G      G     GGGGGG  G       GG   GG  G  G   G            GG    GGGG           GG    GG  G  GGGGGG         GG      G     GG GG   GG    GG  G           GGG          GG  G  G   GG   GG    GG  G    GG   GG  G   G   G        GG G GG G   GG  G      GGGGGG                                                                                                             ",
"                                                                                                              GG GG  G     GG G GG  G     GG G GG GG  GG G        G                   GG  GG  GG      GG             G           GG G GG        G   GG   G      G     G       G       GG   GG  G  G   G            GG      GG           GG    GG  G  G              GG      G     GG GG   GG    GG  G                        GG  G  G   GG   GG    GG  G    GG   GG  G   G   G        GG G GG G   GG  G      G                                                                                                                  ",
"                                                                                                              GG  GG GG    GG G GG  GG    GG G GG GG  G  GG       G       GG          GG GGG  GG      GG             G           GG G GG        GG GG    G      G     GG      G       GG   GG  G  GG GG            GG   G  GG           GG    GG  G  GG             GG      G     GG GG   GG    GG  G                        GG  G  GG GG    GG    GG  G    GG   GG  G   GG GG        GG G GG GG GG   G      GG                                                                                                                 ",
"                                                                                                              GG  GG  GGGG GG G GG   GGGG GG G GG GGGGG   GGGG    G       GG          GGGGGG   GGG     GGG         GGGGG         GG G GG         GGG     G      G      GGGG   G     GGGGGG GG  G   GGGG          GGGGGG  GGG             GGG  GG  G   GGGG           GGG    G      GGGG    GGG  GG  G                        GG  G   GGG      GGG  GG  G  GGGGGG GG  G    GGGG        GG G GG  GGG    G       GGGG                                                                                                              ",
"                                                                                                                                                                         GG                                                                                                                           G                                                                                                                                                                      G                                                                                                                                                  ",
"                                                                                                                                                                         GG                                                                                                                          GG                                                                                                                                                                     GG                                                                                                                                                  ",
"                                                                                                                                                                                                                                                                                                   GGG                                                                                                                                                                    GGG                                                                                                                                                   ",
"                                                                                                                                                                                                                                                                                                                                                                                                                                                                                                                                                                                                                                ",
"                                                                                                                                                                                                                                                                                                                                                                                                                                                                                                                                                                                                                                ",
"                                                                                                                                                                                                                                                                                                                                                                                                                                                                                                                                                                                                                                ",
"                                                                                                                                                                                                                                                                                                                                                                                                                                                                                                                                                                                                                                ",
"                                                                                                                                                                                                                                                                                                                                                                                                                                                                                                                                                                                                                                ",
"                                                                                                                                                                                                                                                                                                                                                                                                                                                                                                                                                                                                                                ",
"                                                                                                                                                                                                                                                                                                                                                                                                                                                                                                                                                                                                                                ",
"                                                                                                                                                                                                                                                                                                                                                                                                                                                                                                                                                                                                                                ",
"                                                                                                                                                                                                                                                                                                                                                                                                                                                                                                                                                                                                                                ",
"                                                                                                                                                                                                                                                                                                                                                                                                                                                                                                                                                                                                                                ",
"                                                                                                                                                                                                                                                                                                                                                                                                                                                                                                                                                                                                                                ",
"                                                                                                                                                                                                                                                                                                                                                                                                                                                                                                                                                                                                                                ",
"                                                                                                                                                                                                                                                                                                                                                                                                                                                                                                                                                                                                                                ",
"                                                                                                                                                                                                                                                                                                                                                                                                                                                                                                                                                                                                                                ",
"                                                                                                                                                                                                                                                                                                                                                                                                                                                                                                                                                                                                                                ",
"                                                                                                                                                                                                                                                                                                                                                                                                                                                                                                                                                                                                                                ",
"                                                                                                                                                                                                                                                                                                                                                                                                                                                                                                                                                                                                                                "
};
