/* XPM */
static char * new_wall_xpm[] = {
"64 64 735 2",
"  	c #7F9AA1",
". 	c #7B989E",
"+ 	c #7C99A1",
"@ 	c #7E9BA1",
"# 	c #7C999F",
"$ 	c #7F9CA2",
"% 	c #7C9BA0",
"& 	c #75969B",
"* 	c #7B99A1",
"= 	c #7899A2",
"- 	c #7A9BA2",
"; 	c #7B9CA3",
"> 	c #78969E",
", 	c #7A98A0",
"' 	c #7896A0",
") 	c #759499",
"! 	c #7798A1",
"~ 	c #78949F",
"{ 	c #78959D",
"] 	c #74959E",
"^ 	c #7B969F",
"/ 	c #7B98A0",
"( 	c #79949B",
"_ 	c #7A979F",
": 	c #7E9CA4",
"< 	c #79979F",
"[ 	c #76979E",
"} 	c #79989D",
"| 	c #77949C",
"1 	c #79969E",
"2 	c #77959D",
"3 	c #76949E",
"4 	c #7D9AA2",
"5 	c #7D9BA5",
"6 	c #7A999E",
"7 	c #7A9BA4",
"8 	c #76949C",
"9 	c #7F9EA3",
"0 	c #4B6C7B",
"a 	c #4C707E",
"b 	c #4E6F7E",
"c 	c #4C707C",
"d 	c #4A707D",
"e 	c #4D717F",
"f 	c #486C7A",
"g 	c #4E707A",
"h 	c #4C6D7C",
"i 	c #4B6B78",
"j 	c #4F6F7C",
"k 	c #4D6F7B",
"l 	c #4F6F7E",
"m 	c #517180",
"n 	c #50707D",
"o 	c #4D6A78",
"p 	c #4D6D78",
"q 	c #4F6F7A",
"r 	c #4E6E7B",
"s 	c #51737D",
"t 	c #4C6E7A",
"u 	c #4A6E7A",
"v 	c #4B6D77",
"w 	c #486C78",
"x 	c #4F717B",
"y 	c #4F717D",
"z 	c #4D6E7D",
"A 	c #4E707C",
"B 	c #50727E",
"C 	c #4D6D7C",
"D 	c #496D79",
"E 	c #476B77",
"F 	c #4B6D79",
"G 	c #486D76",
"H 	c #4A6C76",
"I 	c #4D6D7A",
"J 	c #4C6E78",
"K 	c #4F707F",
"L 	c #4D717D",
"M 	c #132B37",
"N 	c #16303D",
"O 	c #1C3240",
"P 	c #1A303B",
"Q 	c #1B2E3C",
"R 	c #162E3A",
"S 	c #1A303D",
"T 	c #19343F",
"U 	c #15303B",
"V 	c #142C36",
"W 	c #152D37",
"X 	c #162C37",
"Y 	c #132934",
"Z 	c #152B36",
"` 	c #182C37",
" .	c #172D38",
"..	c #132C33",
"+.	c #18303A",
"@.	c #172F39",
"#.	c #16313A",
"$.	c #19313B",
"%.	c #192F3A",
"&.	c #153039",
"*.	c #1A323C",
"=.	c #1A3139",
"-.	c #162E38",
";.	c #172E36",
">.	c #183138",
",.	c #182E39",
"'.	c #1A2E39",
").	c #1D313A",
"!.	c #1C303B",
"~.	c #1E303C",
"{.	c #1B2F3A",
"].	c #192D38",
"^.	c #1B313E",
"/.	c #1B333F",
"(.	c #1E3441",
"_.	c #293946",
":.	c #324651",
"<.	c #384A54",
"[.	c #364852",
"}.	c #344650",
"|.	c #354753",
"1.	c #374A51",
"2.	c #3B4F5A",
"3.	c #3B4D57",
"4.	c #374A58",
"5.	c #354552",
"6.	c #334752",
"7.	c #334654",
"8.	c #344652",
"9.	c #374955",
"0.	c #253340",
"a.	c #2E404C",
"b.	c #2D3F4B",
"c.	c #30424C",
"d.	c #2D414C",
"e.	c #32444E",
"f.	c #384A56",
"g.	c #32464F",
"h.	c #354954",
"i.	c #364A53",
"j.	c #354952",
"k.	c #354751",
"l.	c #374953",
"m.	c #364854",
"n.	c #3A4A57",
"o.	c #364751",
"p.	c #364A51",
"q.	c #374852",
"r.	c #35484F",
"s.	c #384953",
"t.	c #394C53",
"u.	c #2B3942",
"v.	c #33454F",
"w.	c #3A4C58",
"x.	c #3C4E5A",
"y.	c #394A54",
"z.	c #32424F",
"A.	c #33444E",
"B.	c #445A65",
"C.	c #425D68",
"D.	c #415C67",
"E.	c #435E69",
"F.	c #455C6A",
"G.	c #3F5966",
"H.	c #445F68",
"I.	c #44606C",
"J.	c #445E6B",
"K.	c #475E6C",
"L.	c #465C6A",
"M.	c #263242",
"N.	c #435B67",
"O.	c #425C69",
"P.	c #455D69",
"Q.	c #425E6A",
"R.	c #435F6A",
"S.	c #415B68",
"T.	c #435D6A",
"U.	c #45606B",
"V.	c #445F6A",
"W.	c #455F6C",
"X.	c #465D6B",
"Y.	c #435D6C",
"Z.	c #465E6A",
"`.	c #475F6B",
" +	c #46606D",
".+	c #24323F",
"++	c #455B68",
"@+	c #48606A",
"#+	c #445863",
"$+	c #435664",
"%+	c #384C57",
"&+	c #364957",
"*+	c #3A4D5B",
"=+	c #394D58",
"-+	c #394C5A",
";+	c #384B59",
">+	c #3A4D5C",
",+	c #384959",
"'+	c #485E6B",
")+	c #283643",
"!+	c #3B4E5C",
"~+	c #394956",
"{+	c #3A4E57",
"]+	c #374B56",
"^+	c #384E5B",
"/+	c #3A4E59",
"(+	c #394B57",
"_+	c #3A4C5A",
":+	c #3C4F5D",
"<+	c #394F5A",
"[+	c #3D515C",
"}+	c #3D4F5B",
"|+	c #3C505B",
"1+	c #364C5A",
"2+	c #445A67",
"3+	c #334B57",
"4+	c #394F5C",
"5+	c #3E505E",
"6+	c #3B4D5B",
"7+	c #3E515F",
"8+	c #527480",
"9+	c #51737F",
"0+	c #4D737E",
"a+	c #50727C",
"b+	c #537382",
"c+	c #537581",
"d+	c #557582",
"e+	c #3C5162",
"f+	c #425865",
"g+	c #293744",
"h+	c #5F818D",
"i+	c #314755",
"j+	c #52707B",
"k+	c #537881",
"l+	c #537783",
"m+	c #51717C",
"n+	c #547680",
"o+	c #4E7280",
"p+	c #507480",
"q+	c #52747E",
"r+	c #517581",
"s+	c #537483",
"t+	c #547682",
"u+	c #4D727B",
"v+	c #587480",
"w+	c #314754",
"x+	c #5B7D89",
"y+	c #232F3F",
"z+	c #2F4753",
"A+	c #36495A",
"B+	c #557580",
"C+	c #50707F",
"D+	c #517281",
"E+	c #557783",
"F+	c #597782",
"G+	c #507482",
"H+	c #527281",
"I+	c #587885",
"J+	c #57737F",
"K+	c #24303E",
"L+	c #597D89",
"M+	c #567683",
"N+	c #577784",
"O+	c #52727F",
"P+	c #54747F",
"Q+	c #4F7081",
"R+	c #537380",
"S+	c #4F7381",
"T+	c #527382",
"U+	c #517283",
"V+	c #51717E",
"W+	c #53717C",
"X+	c #5C7A85",
"Y+	c #60808B",
"Z+	c #293541",
"`+	c #7995A0",
" @	c #54727D",
".@	c #5C7886",
"+@	c #53707E",
"@@	c #547483",
"#@	c #53737E",
"$@	c #53757F",
"%@	c #52747D",
"&@	c #54707B",
"*@	c #50757E",
"=@	c #4F737F",
"-@	c #567884",
";@	c #547181",
">@	c #567685",
",@	c #52727D",
"'@	c #77959F",
")@	c #5A7E8A",
"!@	c #547481",
"~@	c #557280",
"{@	c #60828C",
"]@	c #26323E",
"^@	c #72909B",
"/@	c #4F7077",
"(@	c #516F7A",
"_@	c #4E727E",
":@	c #72909A",
"<@	c #1F2F3C",
"[@	c #597F8C",
"}@	c #507180",
"|@	c #517082",
"1@	c #5D818D",
"2@	c #23313C",
"3@	c #7595A0",
"4@	c #4D6F79",
"5@	c #506E79",
"6@	c #506F81",
"7@	c #73949D",
"8@	c #23313E",
"9@	c #5A7F88",
"0@	c #283641",
"a@	c #71919C",
"b@	c #4F7582",
"c@	c #547584",
"d@	c #7597A0",
"e@	c #233340",
"f@	c #5C828D",
"g@	c #2A3845",
"h@	c #73959E",
"i@	c #4C717A",
"j@	c #527384",
"k@	c #517583",
"l@	c #75969F",
"m@	c #22323F",
"n@	c #5A7E8C",
"o@	c #5B818A",
"p@	c #7597A1",
"q@	c #7997A1",
"r@	c #202E3B",
"s@	c #507182",
"t@	c #5D7E8D",
"u@	c #6F9099",
"v@	c #526F7D",
"w@	c #5A808B",
"x@	c #4E6F80",
"y@	c #5E848D",
"z@	c #273540",
"A@	c #71939C",
"B@	c #4E7079",
"C@	c #4E6E79",
"D@	c #212F3C",
"E@	c #5B818E",
"F@	c #507484",
"G@	c #5B818C",
"H@	c #2B3743",
"I@	c #7496A0",
"J@	c #506E78",
"K@	c #527684",
"L@	c #526F7F",
"M@	c #507184",
"N@	c #76949F",
"O@	c #4F6D77",
"P@	c #537284",
"Q@	c #537080",
"R@	c #22303D",
"S@	c #527183",
"T@	c #5E808C",
"U@	c #2B3946",
"V@	c #4D7282",
"W@	c #537082",
"X@	c #55737E",
"Y@	c #77969B",
"Z@	c #577F8B",
"`@	c #5B7F8B",
" #	c #2B3745",
".#	c #79949F",
"+#	c #51727B",
"@#	c #537485",
"##	c #537286",
"$#	c #54727C",
"%#	c #273542",
"&#	c #58808A",
"*#	c #253542",
"=#	c #72939A",
"-#	c #243141",
";#	c #587F8E",
">#	c #293543",
",#	c #4D7380",
"'#	c #75919D",
")#	c #22303B",
"!#	c #4F6E80",
"~#	c #5E828E",
"{#	c #2C3C49",
"]#	c #7896A1",
"^#	c #50717A",
"/#	c #21313E",
"(#	c #5A828E",
"_#	c #273744",
":#	c #7898A3",
"<#	c #4E6F78",
"[#	c #75969D",
"}#	c #5E8491",
"|#	c #61838F",
"1#	c #273945",
"2#	c #7B9BA6",
"3#	c #4C6D76",
"4#	c #516E7C",
"5#	c #50707B",
"6#	c #709198",
"7#	c #1F2F3E",
"8#	c #5C818A",
"9#	c #263844",
"0#	c #263842",
"a#	c #799BA4",
"b#	c #507585",
"c#	c #213140",
"d#	c #5B8090",
"e#	c #23343E",
"f#	c #7C98A4",
"g#	c #4F6D78",
"h#	c #5A7F8F",
"i#	c #2A3B45",
"j#	c #7A98A3",
"k#	c #4C6C77",
"l#	c #75919C",
"m#	c #263441",
"n#	c #2A3644",
"o#	c #7D99A5",
"p#	c #506C78",
"q#	c #73939E",
"r#	c #21323C",
"s#	c #5C808E",
"t#	c #1F2D3A",
"u#	c #7A96A2",
"v#	c #4E6E7D",
"w#	c #73919B",
"x#	c #5A808D",
"y#	c #5E7F8E",
"z#	c #516F79",
"A#	c #20303D",
"B#	c #618291",
"C#	c #26343F",
"D#	c #7B97A3",
"E#	c #51737C",
"F#	c #24353F",
"G#	c #5D818F",
"H#	c #557584",
"I#	c #7894A0",
"J#	c #53747D",
"K#	c #73969C",
"L#	c #24323D",
"M#	c #5B7F8D",
"N#	c #4E7481",
"O#	c #5E8290",
"P#	c #22333B",
"Q#	c #4E7177",
"R#	c #4F747D",
"S#	c #263741",
"T#	c #263940",
"U#	c #7C9AA5",
"V#	c #4C727D",
"W#	c #71929B",
"X#	c #22333D",
"Y#	c #507683",
"Z#	c #5F838F",
"`#	c #253741",
" $	c #547982",
".$	c #4F717A",
"+$	c #70919A",
"@$	c #20313B",
"#$	c #61818C",
"$$	c #20323E",
"%$	c #7E9AA8",
"&$	c #74909B",
"*$	c #54717F",
"=$	c #5E7E8B",
"-$	c #223440",
";$	c #223241",
">$	c #557282",
",$	c #5F7F8C",
"'$	c #78939E",
")$	c #4F7079",
"!$	c #4C7080",
"~$	c #78959B",
"{$	c #567280",
"]$	c #557081",
"^$	c #54707E",
"/$	c #4B6F7D",
"($	c #5C7E88",
"_$	c #5F7B86",
":$	c #5C7884",
"<$	c #547183",
"[$	c #56727E",
"}$	c #1F2D38",
"|$	c #809CA7",
"1$	c #75929A",
"2$	c #5C7E87",
"3$	c #253B46",
"4$	c #4A6B74",
"5$	c #2C4450",
"6$	c #5C7C89",
"7$	c #7B96A1",
"8$	c #527682",
"9$	c #76939B",
"0$	c #243441",
"a$	c #63858F",
"b$	c #5E838C",
"c$	c #60808D",
"d$	c #61818E",
"e$	c #61838D",
"f$	c #5D7F88",
"g$	c #5E808A",
"h$	c #5F818B",
"i$	c #61828B",
"j$	c #5C808C",
"k$	c #60828E",
"l$	c #638591",
"m$	c #608490",
"n$	c #628490",
"o$	c #608190",
"p$	c #638390",
"q$	c #668693",
"r$	c #293B47",
"s$	c #7E99A4",
"t$	c #53717B",
"u$	c #2D3F49",
"v$	c #253640",
"w$	c #243640",
"x$	c #24353D",
"y$	c #21343B",
"z$	c #243843",
"A$	c #23363D",
"B$	c #24383F",
"C$	c #22343E",
"D$	c #263A45",
"E$	c #20343D",
"F$	c #21333D",
"G$	c #1F313B",
"H$	c #21333F",
"I$	c #23343C",
"J$	c #1E2F39",
"K$	c #20323C",
"L$	c #273943",
"M$	c #51747A",
"N$	c #829AA4",
"O$	c #7B969D",
"P$	c #75939D",
"Q$	c #719299",
"R$	c #739199",
"S$	c #76959A",
"T$	c #769399",
"U$	c #749199",
"V$	c #718E94",
"W$	c #739098",
"X$	c #738E97",
"Y$	c #74929A",
"Z$	c #77939F",
"`$	c #72939C",
" %	c #7A98A2",
".%	c #83A1AB",
"+%	c #1F333A",
"@%	c #829FA7",
"#%	c #54727A",
"$%	c #557781",
"%%	c #506D7B",
"&%	c #74929C",
"*%	c #64828D",
"=%	c #4C6C79",
"-%	c #4F6C7A",
";%	c #516E7E",
">%	c #6C8C97",
",%	c #4E737C",
"'%	c #5F7F8A",
")%	c #546F7A",
"!%	c #587583",
"~%	c #546F80",
"{%	c #536E7F",
"]%	c #56747F",
"^%	c #557685",
"/%	c #5A7B84",
"(%	c #56707F",
"_%	c #70909B",
":%	c #1C2A33",
"<%	c #7B99A4",
"[%	c #52737C",
"}%	c #76929D",
"|%	c #5D7E87",
"1%	c #2C424F",
"2%	c #637F8A",
"3%	c #243B49",
"4%	c #5E7E89",
"5%	c #202E39",
"6%	c #54707C",
"7%	c #1D2E38",
"8%	c #577786",
"9%	c #587A86",
"0%	c #5D7F89",
"a%	c #1D2B34",
"b%	c #7795A0",
"c%	c #597B84",
"d%	c #1C2A35",
"e%	c #7993A0",
"f%	c #536F7B",
"g%	c #4A6E7C",
"h%	c #7A96A1",
"i%	c #567381",
"j%	c #1F303A",
"k%	c #597E87",
"l%	c #62828D",
"m%	c #52707A",
"n%	c #678590",
"o%	c #77939E",
"p%	c #62848E",
"q%	c #1D3037",
"r%	c #7B99A3",
"s%	c #55717D",
"t%	c #526E7C",
"u%	c #5A7C86",
"v%	c #5F848C",
"w%	c #182B32",
"x%	c #4C6A75",
"y%	c #2F4553",
"z%	c #7997A2",
"A%	c #5D7F8B",
"B%	c #1C2E38",
"C%	c #233E49",
"D%	c #64828C",
"E%	c #5F808F",
"F%	c #5C7E8A",
"G%	c #73919C",
"H%	c #1C2D37",
"I%	c #5A7E8E",
"J%	c #618190",
"K%	c #5D7E8F",
"L%	c #5F7F8E",
"M%	c #5F818A",
"N%	c #192A34",
"O%	c #738F9A",
"P%	c #5C7987",
"Q%	c #60818A",
"R%	c #5F7D87",
"S%	c #0A202B",
"T%	c #0C222D",
"U%	c #112836",
"V%	c #102735",
"W%	c #132937",
"X%	c #0F2634",
"Y%	c #102B36",
"Z%	c #112735",
"`%	c #0D2531",
" &	c #0D2330",
".&	c #112732",
"+&	c #102834",
"@&	c #112935",
"#&	c #132839",
"$&	c #112B38",
"%&	c #112C37",
"&&	c #132A38",
"*&	c #122835",
"=&	c #122937",
"-&	c #0E2835",
";&	c #0F2533",
">&	c #102634",
",&	c #102633",
"'&	c #0D2432",
")&	c #0E2533",
"!&	c #102536",
"~&	c #122836",
"{&	c #122A36",
"]&	c #0C2732",
"^&	c #0F2733",
"/&	c #0F2636",
"(&	c #0F2435",
"_&	c #132635",
":&	c #0D2331",
"<&	c #0C2430",
"[&	c #0E212F",
"}&	c #102331",
"|&	c #1F313F",
"1&	c #273A49",
"2&	c #263747",
"3&	c #283B49",
"4&	c #2C3F50",
"5&	c #2B3E4D",
"6&	c #2E3F4F",
"7&	c #2F3F4F",
"8&	c #2A3B4B",
"9&	c #2F414F",
"0&	c #2D3E4E",
"a&	c #2A3D4E",
"b&	c #2A3C4A",
"c&	c #233A48",
"d&	c #253C4A",
"e&	c #2B414F",
"f&	c #2C4152",
"g&	c #293E4F",
"h&	c #293F4D",
"i&	c #2A404E",
"j&	c #283E4C",
"k&	c #2E4150",
"l&	c #2A3D4B",
"m&	c #2D404E",
"n&	c #2C3F4E",
"o&	c #293A4A",
"p&	c #2D3F4D",
"q&	c #2D4051",
"r&	c #293C4A",
"s&	c #2E4452",
"t&	c #324355",
"u&	c #28394B",
"v&	c #283E49",
"w&	c #223748",
"x&	c #263948",
"y&	c #314455",
"z&	c #2D404F",
"A&	c #2F4050",
"B&	c #304352",
"C&	c #293B49",
"D&	c #7E9AA5",
"E&	c #7797A2",
"F&	c #7294A0",
"G&	c #75939E",
"H&	c #7797A4",
"I&	c #74949F",
"J&	c #7696A3",
"K&	c #74929D",
"L&	c #71939F",
"M&	c #7393A0",
"N&	c #74969F",
"O&	c #72949E",
"P&	c #7595A2",
"Q&	c #7597A3",
"R&	c #70929C",
"S&	c #71939D",
"T&	c #7794A2",
"U&	c #73959F",
"V&	c #70959E",
"W&	c #7697A0",
"X&	c #4E6D7F",
"Y&	c #517285",
"Z&	c #526F81",
"  . + @ # $ % # & * = - ; > , ' ) ! ~ { ] ^ , / * ( _ : * < [ : < ~ } . _ , | + { < 1 2 3 _ 4 / < 5 % 6 , @ 7 1 * < / + 8 * > 9 ",
"0 a b a c d e c f g h 0 i j k l m n i o n l p q i r s t b u u h t v i t w x y z A B t k C D E F G H I z y J K m h r A z C y L r ",
"M N O P Q R S T U R V W X Y Z Y ` X X P X  ...+.@.#.+.$.$.%.&.+.*.=.=.X  .-.P ;. .%.>.,.'.).!.,.$.;.%.,.-.~. . .,.X ,.{.].^./.(.",
"_.:.<.[.}.|.1.2.3.4.5.6.7.8.9.0.a.b.c.d.e.}.f.g.h.|.i.j.f.k.[.l.k.|.k.m.n.o.p.[.q.k.m.k.k.r.s.t.u.m.l.}.e.v.m.q.l.w.x.q.y.[.z.A.",
"B.C.D.C.E.F.G.C.H.I.J.F.K.E.L.M.N.O.P.C.O.Q.R.J.S.T.T.U.I.F.V.W.X.Y.W.X.Z.E.F.`.H.O.T.F. +F.K.U..+++E.F.V.E.T.O.J.J.E.V.U.@+#+$+",
"%+&+&+f.*+f.=+-+4.;+>+w.,+4.'+)+Z.!+~+{+&+]+^+!+%+/+(+!+4._+:+>+;+!+>+x.-+{+{+<+[+(+}+|+:+;+1+2+0.K.3+4+5+6+-+[+|+=+-+-+;+=+7+2.",
"8+9+8+0+a+A x 8+b+9+c+d+e+f++ g+h+i+j+k+c+l+L m+n+B o+p+A q+9+y r+s+t+k+y o+p+8+B q+8+u+s v+w+x+y+_ z+A+B+8+C+D+L y p+c+x L E+F+",
"B p+G+o+9+8+9+D+n m m H+I+J+, K+L+M+m+N+O+P+q+Q+O+9+g b+R+8+o+S+T+9+t+c+U+E+c+t+R+M+V+9+O+W+X+Y+Z+`+ @.@+@j @@#@n V+9+$@R+%@8+&@",
"G+G+p+*@=@-@B s+H+;@>@D+O+,@'@M.)@b+@@O+b+T+=@9+E+@@T+T+U+H+S+S+=@D+V+9+D+q+T+D+c+O+9+V+b+!@~@{@]@^@/@O+O+y m H+V+H+m H+H+q+H+(@",
"_@T+m c+b+T+c+8+G+b+s+r+8+j :@<@[@8+}@T+T+}@C+m C+|@D+D+s+c+m }@m }@D+8+T+D+D+D+}@K D+H+H+O+P+1@2@3@4@V+G+D+H+D+8+m T+s+H+9+9+5@",
"U+S+6@D+b+b+T+8+c+D+O+D+9+q 7@8@9@t+b+|@H+m 8+C+D+}@G+}@K D+9+9+D+T+K +@}@U+}@m D+D+}@D+C+D+m 1@0@a@g 9+}@D+D+D+b@D+c@D+H+H+T+x ",
"8+_@H+D+O+8+s 8+D+D+D+D+S+q d@e@L+!@H+b+C+D+D+C+D+p+8+o+}@D+}@#@D+S+}@D+}@D+B S+}@D+D+}@}@D+b+f@g@h@i@8+}@}@D+D+D+s O+b+H+D+D+V+",
"c S+j@T+G+D+k@T+s+9+9+D+R+B l@m@n@V+D+m m m K T+}@D+8+}@}@=@}@T+}@D+B A y d+D+}@m }@K m m =@B o@0.p@J c+m _@}@}@T+9+B H+m 9+}@W+",
"c+O+T+b U+9+D+T+8+G+D+}@S+q q@r@)@c+T+}@}@D+D+D+D+D+b+}@D+K D+T+}@D+D+s@9+O+9+T+T+H+}@8+e V+R+t@g@u@4@S+}@D+}@}@K H+D+H+D+O+j@,@",
"-@t+b+9+D+D+S+9+D+D+D+D+H+v@3 .+w@O+x@o+}@}@p+8+}@K G+S+H+T+}@D+T+6@B C+T+9+G+}@D+D+B D+D+D+R+y@z@A@B@!@o+}@b+m m O+}@l }@}@C+,@",
"c+L }@D+D+G+D+D+H+}@b+b+9+C@~ D@E@,@}@}@D+H+S+}@o+D+F@D+D+D+D+}@m m b D+}@s+D+m D+}@K }@D+}@!@G@H@I@J@B D+}@U+m $@!@H+}@s@s+H+m+",
"K@R+}@D+D+@@m D+C+H+D+6@L@n '@e@E@t+Q+}@}@D+}@O+9+}@H+D+K A M@C+6@s+l D+s@s@S+D+}@}@D+m }@}@!@f@g@N@O@m+H+l m y k@s+R+T+s+b@K a+",
"d+V+b+D+9+m ;@P@m T+Q@H+P@q '@R@[@8+|@}@T+V+e D+}@;@D+H+S@H+|@@@}@C+|@m b+H+H+D+}@H+D+T+m H+@@T@U@`+q ,@H+j@H+b+@@8+G+p+m T+L m+",
"R+D+H+H+G+H+V@o+D+}@W@,@X@(@Y@e@Z@}@K }@}@D+D+C+H+o+D+s@U+m H+m m m K }@m K D+8+}@}@}@m m H+H+`@ #.#+# @C+C+m b @#B H+H+b+S+y y ",
"q T+H+K ##D+o+o+H+H+D+9+H+$#3 %#&#p+b+}@}@D+D+m s@H+;@C+H+}@H+m m n }@D+D+}@q+q+}@}@}@m }@D+9+1@*#! +#m+m B c+m R+p+D+c@D+D+e !@",
"!@H+H+o+D+G+D+H+}@D+H+D+b++#=#-#;#8+S@6@U+|@D+m U+H+H+H+}@m H+C+}@}@D+}@O+T+D+H+K }@m C+S@m b+T@>#3@/@P+H+D+_@}@8+T+D+m U+@@_@B ",
"9+O+T+K ,#o+S+D+D+D+D+9+!@+#'#)#Z@S+H+D+H+m }@s@C+!#b+}@m }@K B }@m D+T+B D+D+T+K Q@}@}@}@C+b+~#{#]#^#,@D+}@D+T+j@t+}@C+D+T+B O+",
"V+R+D+G+G+D+T+}@}@T+!@S+D+m+8 /#(#K m D+}@}@}@K }@K D+B K T+b }@y D+D+}@}@}@}@}@}@}@K m }@B K f@_#:#<#9+T+o+}@}@K T+K D+D+D+y B ",
"E+}@H+T+D+T+s+D+D+D+D+T+}@q [#.+}#D+D+m }@}@}@D+}@D+D+D+D+}@D+}@}@}@}@}@}@D+}@C+b+C+m K }@o+o+|#1#2#3#a+9+}@}@C+}@R+4#b+m m K B ",
"p+T+D+D+8+o+=@D+D+D+D+D+H+5#6#7#E@}@D+m D+}@H+}@G+D+D+D+D+D+S+K D+m m m K Q+}@H+D+s@}@b }@}@c@8#9#l@+#8+D+}@T+H+K 8+y S@b+}@H+_@",
"R+q+D+D+D+}@D+s+D+D+D+D+O+C@u@r@f@b D+}@D+D+}@D+G+D+}@D+8+}@T+T+9+m D+D+D+}@}@U+9+D+D+D+T+D+d+8#0#a#R+%@j@D+s@m }@H+C+K C+D+s@$@",
"b#a+K o+D+D+b+}@}@S+S+m O+p :@c#d#Q+D+K D+D+V+D+D+D+D+D+D+j m D+C+S@H+H+|@Q@}@D+m K D+D+D+L 8+8#e#f#I @@m H+D+H+D+H+6@9+D+m V+k ",
"A }@}@D+}@U+D+m }@D+s@W@x g#~ c#h#B C+D+T+D+D+}@9+D+D+C+C+}@D+;@H+6@L@D+e H+D+m }@m D+H+U+o+F@)@i#j#j S@j@D+S+m H+D+D+H+H+D+9+k ",
"L }@s@K G+H+|@6@6@6@b+C+j k#l#m#f@j O+}@H+D+}@}@D+S+C+6@!#l ;@s@m m m H+H+D+H+H+}@}@D+D+D+C+D+1@n#o#p#C+W@m m S@H+H+H+C+D+H+l V+",
"R+B b }@S+C+H+m }@b+m ;@8+5@q#r#s#8+H+}@H+H+S+C+D+C+m m s@|@H+}@T+D+D+D+m |@H+D+T+}@}@s+U+H+U+s#t#u#4#U+C+b+H+D+D+D+S+U+}@m m ,@",
"B c+|@b }@H+H+H+H+H+l }@v#W+w#.+x#B S@D+D+D+H+D+H+Q@H+C+C+m |@|@H+H+T+D+D+T+S+D+D+D+C+m K }@|@y#e#u#z#m+m D+H+D+}@H+H+}@m }@C+O+",
"e H+n }@C+!#l D+S+K D+D+8+<#8 A#h#B U+9+U+m s@D+D+H+H+!#T+K }@b+T+D+D+D+H+D+D+D+D+H+D+D+}@S+D+B#C#D#E#8+D+m D+D+}@D+T+x@o+H+}@n ",
"T+O+m D+}@H+m C+T+}@K D+R+,@8 F#G##@H#O+b+m b+}@m H+D+,@H+D+H+C+S+D+D+D+D+H+m H+m D+D+m e K D+y#e#I#^#8+F@D+D+D+o+D+D+}@m }@o+O+",
"T+9+m e G+b+e H+m }@T+l J#q K#L#M#A b+m O+9+9+D+D+b+H+S+H+D+,#D+}@m }@D+D+H+D+H+}@D+K N#K m p+O#P#]#Q#x 8+}@N#D+9+U+D+H+T+}@s@O+",
"p+D+}@}@D+D+a D+}@9+D+S+R+C@w#2@[@y m H+O+!@o+U+D+D+D+D+D+8+R#}@D+D+}@D+D+D+D+H+D+|@o+}@H+U+c |#S#! /@x D+D+G+H+D+U+D+D+D+K 9+m+",
"=@C+}@}@B }@K }@K }@D+n q+g :@A#`@n C+V+T+}@m }@9+s+D+9+D+o+,#}@}@C+m D+s+D+D+H+K K S+o+T+D+S+8#T#U#g 9+Q@R+b+,#V#D+b D+m }@}@m+",
"0+}@D+D+}@}@}@D+T+=@c+V+n C@W#X#M#V+b+c+T+D+D+D+D+T+D+S+D+G+b@Y#}@D+U+H+m D+K m }@}@D+D+D+D+K Z#`#]#+#8+m }@}@H+m K }@}@H+C+S+X@",
" $}@K C+D+K }@Q+D+D+8+V+.$&@+$2@M#+@m R#_@V+D+D+D+D+D+D+H+p+S+F@9+U+H+m H+D+}@H+D+T+}@D+K }@T+x+~.' q A }@}@m m j m A K s@}@}@Q@",
"L V+s@T+s+y C+}@}@K c+C+r (@3 @$n@P+H+O+O+n b+S@D+D+D+C+m R+!@;@@@H+T+E+H+H+H+D+D+D+D+D+}@m s+#$$$%$q }@C+m D+@@C+B O+}@H+m D+W+",
"_@T+|@R+S+H+6@C+C+m n m V+(@&$.+L+O+*$O+H+O+s+9+}@|@l }@l Q+B B C+m C+b+C+D+D+T+D+D+D+S+D+}@c+=$-$I#5@C+K C+C+s@D+C+m }@m *$9+j+",
"r+B R+D+}@H+R+P+H+V+}@O+9+(@l#;$n@B O+D+}@O+H+m m S@>$C+;@y 8+m }@}@!#=@D+C+o+k@b@U+m }@m H+@@,$@$'$)$H+C+}@m s@H+O+}@}@m ,@V+V+",
"p+}@}@!$@@H+n C+s+T+m }@T+5#~$0.x+P+B m+W+n s V+>$|@;@*$Q@;@{$]$D+V+4#O+V+K V+b+^$*$9+G+O+c+m ,$F#D#m+b+6@D+C+l D+H+}@m V+R+O+ @",
"o+K 6@/$o+K D+R+C+H+}@S+O+C@8 S#($_$:$j+v@V+K V+O+H+D+O+V+V+9+V+*$+@9+O+b+9+H+H+O+<$x R#C+m+[$T@}$|$^#D+m S+j@D+H+H+D+}@K R+8++@",
"_@y m o+}@n m K }@C+C+}@R+a+1$F#2$3$j+4$,@O+=@B =@O+8+p+=@E#9+s *@s E#r+}@e e o+S+!#O+D+A g#5$6$e#7$j+S@}@}@}@s@D+D+}@}@9+}@O++@",
"8$y m o+}@H+y Q+H+B }@U+m a+9$0$a$b$c$#$c$|#d$T@e$f$g$h$|#8#i$#$j$k$l$e$l$k$m$n$n$T@o$h+k$c$p$q$r$s$t$|@H+D+}@m r+V+k }@}@O+}@+@",
"p+9+}@U+L 8+_@T+}@T+8+V+H+q '@A#u$`#v$S#v$X#w$C#0#x$y$z$A$B$w$C$/#D$~.E$F$G$H$$$I$J$@$K$X#T#`#L$E$|$M$p+T+o+s@H+8+m 8+O+H+V+}@I ",
"_@V+}@p+p+9+V+}@S+}@b+s H+x { e@N$O$`+_ P$Q$R$P$~ 1$9$9$S$, < 1$T$R$U$V$W$X$9${ | l#{ Y$Z$`$ %.%+%@%#%$@O+9+}@H+$%T+B V+j ,@9+%%",
"e L D+O+R+B y n D+D+D+O+9+r &%F#*%g#I I =%C@-%4#(@(@g#%%-%;%5@5@z#(@O@C@r (@p k#q g#(@^#5#5#5#>%e#.#t$R+R+B }@m !@#@B 9+V+X@}@*$",
",%R#n m+O+n ;@H+}@K K O+O+K 1 A#'%)%v+d+@@V+O+X@C+~@d+!@b+m Q@!%*$~%;@{%^$4#n V+O+m ]%R+^%/%(%_%:%<%5@H+V+,@m H+O+8+B V+W+R+R+R+",
"L 9+8+#@[%O+O+m m m H+v@L@5#}%X#|%1%j+#@5#m+$@,@g q+B q+m+O+m+s q+n O+!@m V+s D+a+,@q+X@#@2%3%4%5%<%)$;@n O+6%>$;@+@D+m ~@V+D+5#",
"A $@,@V+#@n n C+m m m m m 5@I#7%=$,@O+O+d+c+c+8%O+R+*$y +@}@9+r j+V+n n m V+m K T+*$m+O+,@!@9%0%a%b%(@v@n n +@Q@*$m H+m H+O+B *$",
"B O+,@[%R++@,@C+H+m V+s H+.$}%e#c%,@O+8+O+V+b+;@K m Q@O+;@,@b+}@m }@m }@m D+D+H+}@O+V+,@q+B B e$d%e%f%b+V+O+W+Q@s O+B m H+n y R+",
"g%j+B m+V+W+n n m C+m ,@;@j+q@r#x+O+B H+#@b+,@S@D+m D+~@H+O+H+H+T+T+K D+m D+}@Q@n m }@H+}@O+8+{@7%h%(@!@V+O++#m O+;@8+O+V+m a+i%",
"}@m+O+ @j v@m+m m m V+m @@)$l#j%k%b+O+H+H+m V+m K K m e Q@V+Q@H+Q+m C+o+S+}@}@m }@m B +@U+m >@l%F#.#m%X@O+V+ @O+O+A R+O+O+,@5#V+",
"h ,@O+W+ @,@,@H+*$m W+n R+a+2 F$T@~@O+O+D+6@=@O+m D+V+H+O+V+9+m e D+K U+H+O+9+B n W+B m m }@!@n%x$s$$#O+R+m 9+b+k O+[%,@#@m+P+^$",
"v#}@m +#,@,@O+V+m n m V+R+j > j%($!@O+*$m }@B m V+H+}@9+s R+l m }@}@}@R+V+m+,@O+O+,@}@}@D+R+c+l%v${ z#;@m |@H+O+V+9+m+ @O+,@,@V+",
"k D+}@E#m+m+M$V+8+s q+D+O+$@o%*#4%i%~@,@H+m }@o+m }@K 9+}@D+8+O+D+V+V+s O+,@B  @,@[%m+,@K D+d+p%q%r%5#Q@T+m }@V+}@V+,@s%O+O+,@t%",
"r 9+R#O+O+[%[%s O+,@O+O+,@E#7$J$u%,@O+9+V+V+n _@a+q +#8++#[%q+S+s B H+,@O+m+n  @m+n O+V+B O+P+v%w%, (@g R#9+n +@J#j+ @^#m+,@m+x%",
",@n+5#5#r q q 4#q (@^#t$j+y%z%)#A%R+O+Q@O+R++@v@W+%%j+5#C@W+g C@9+V+O+V+O+W+v@x m+^$*$*$V+}@M+p%B%w#C%j+v@5#W++@ @W+t$m+ @j+X@-%",
"D%e$d$T@Y+j$E%k$h+d$h+`@F%#@G%H%T@#$,$h+T@d$|#o$#$A%h$E%1@1@1@I%M#E%J%h+K%h+Y+J%A%'%h+L%L%4%F%M%N%O%d+P%=$T@L%L%E@)@h+1@O#d$Q%R%",
"S%T%M M M U%V%W%X%Y%Z%`% &`%.&j%+&@&U%#&U%$&%&&&*&U%=&-&;&V%>&;&,&'&)&X%!&)&+&U%X%~&@&{&@&+&]&-&G$^&;&U%/&X%(&!&_&~&*&,&:&<&[&}&",
"|&1&2&3&4&5&6&7&8&9&0&1&5&a&b&c&d&e&f&g&h&i&j&k&l&m&n&6&o&p&3&q&r&5&2&k&1&r&i&m&s&t&u&v&8&m&8&8&r&b&w&x&6&8&7&n&k&y&z&A&B&C&1&b.",
"D&:#E&3@F&q#G&H&]#I&J&K&N@I@L&M&N&I@O&7@M&L&N&H&F&P&Q&M&P&M&I&P&P&P&L&q#L&R&I&q#P&h@S&q#q#q#N@P&I&b%3@I&P&I&P&T&U&S&V&3@q#W&]#8 ",
"j s+D+X&Y&C+l l O+m Y&K 6@m O+m s@V+C+V+b+H+b s@m 6@m |@C+b+}@S@Q+D+|@T+6@6@}@Q+}@!#6@b m C+V+Z&m |@l H+C+}@}@6@}@m D+R+O+S@c+(@"};
