/* XPM */
static char * matrix_xpm[] = {
"64 64 9 1",
"A	c #70DD99",
"B	c #000000",
"C	c #2C0049",
"D	c #07FBF8",
"E	c #DDDEFA",
"F	c #241BFD",
"G	c #A8E6F1",
"H	c #E9BCF8",
"I	c #43000D",
"AAAAAAAAAAAAAAAAAAAAAAAAAAAAAAAAAAAAAAAAAAAAAAAAAAAAAAAAAAAAAAAA",
"ABBBBBBBBBBBBBBBBBBBBBBBBBBBBBBBBBBBBBBBBBBBBBBBBBBBBBBBBBBBBBBA",
"ABBBBBBBBBBBBBBBBBBBBBBBBBBBBBBBBBBBBBBBBBBBBBBBBBBBBBBBBBBBBBBA",
"ABBBBBBBBBBBBBBBBBBBBBBBBBBBBBBBBBBBBBBBBBBBBBBBBBBBBBBBBBBBBBBA",
"ABBBBBBBBBBBBBBBBBBBBBBBBBBBBBBBBBBBBBBBBBBBBBBBBBBBBBBBBBBBBBBA",
"ABBBBBBBBBBBBBBBBBBBBBBBBBBBBBBBBBBBBBBBBBBBBBBBBBBBBBBBBBBBBBBA",
"ABBBBBBBBBBBBBBBBBBBBBBBBBBBBBBBBBBBBBBBBBBBBBBBBBBBBBBBBBBBBBBA",
"ABBBBBBBBBBBBBBBBBBBBBBBBBBBBBBBBBBBBBBBBBBBBBBBBBBBBBBBBBBBBBBA",
"ABBBBBBBBBBBBBBBBBBBBBBBBBBBBBBBBBBBBBBBBBBBBBBBBBBBBBBBBBBBBBBA",
"ABBBBBBBBBBBBBBBBBBBBBBBBBBBBBBBBBBBBBBBBBBBBBBBBBBBBBBBBBBBBBBA",
"ABBBBBBBBBBBBBBBBBBBBBBBBBBBBBBBBBBBBBBBBBBBBBBBBBBBBBBBBBBBBBBA",
"ABBBBBBBBBBBBBBBBBBBBBBBBCDDDDDDDDDDDDCCBBBBBBBBBBBBBBBBBBBBBBBA",
"ABBBBBBBBBBBBBBBBBBBBBBBBCDDDDDDDDDDDDCCBBBBBBBBBBBBBBBBBBBBBBBA",
"ABBBBBBBBBBBBBBBBBBBBBBDDDDDDDDDDDDDDDDDDBBBBBBBBBBBBBBBBBBBBBBA",
"ABBBBBBBBBBBBBBBBBBBEEFDDEDDDDDDDDDDDDEEDFFEBBBBBBBBBBBBBBBBBBBA",
"ABBBBBBBBBBBBBBBBBBBEEFDDEDDDDDDDDDDDDEEDFFEBBBBBBBBBBBBBBBBBBBA",
"ABBBBBBBBBBBBBBBBBBEFFFFFDGGDDDDDDDDDGDDFFFFEEBBBBBBBBBBBBBBBBBA",
"ABBBBBBBBBBBBBBBBEEEFFFFFFEEHDDDDDDHHEFFFFFFEEEBBBBBBBBBBBBBBBBA",
"ABBBBBBBBBBBBBBBBEEEFFFFFFEEHDDDDDDHHEFFFFFFEEEBBBBBBBBBBBBBBBBA",
"ABBBBBBBBBBBBBBBGGGEEEFFFEGGEDDDDDDEEGEEFFFEEEGGGBBBBBBBBBBBBBBA",
"ABBBBBBBBBBBBBDDDEEEEEEEEEEEEDDDDDDEEEEEEEEEEEEDDDBBBBBBBBBBBBBA",
"ABBBBBBBBBBBBBDDDEEEEEEEEEEEEDDDDDDEEEEEEEEEEEEDDDBBBBBBBBBBBBBA",
"ABBBBBBBBBBBBBDDDEEEEEEEEEEEEDDDDDDEEEEEEEEEEEEDDDBBBBBBBBBBBBBA",
"ABBBBBBBBBBBBDDDDEEEEEEEEEEEEDDDDDDEEEEEEEEEEEEDDDDDBBBBBBBBBBBA",
"ABBBBBBBBBBBBDDDDEEEEEEEEEEEEDDDDDDEEEEEEEEEEEEDDDDDBBBBBBBBBBBA",
"ABBBBBBBBBBBBDDDDEEGEEEEEEEEHDDDDDDHHEEEEEEEGGEDDDDDBBBBBBBBBBBA",
"ABBBBBBBBBBDDDDDDDDEEEEEEEGGDDDDDDDDDGGGEEEEEEDDDDDDDBBBBBBBBBBA",
"ABBBBBBBBBBDDDDDDDDEEEEEEEGGDDDDDDDDDGGGEEEEEEDDDDDDDBBBBBBBBBBA",
"ABBBBBBBBBBDDDDDDDDDEEEEEEDDDDDDDDDDDDEEEEEEDDDDDDDDDBBBBBBBBBBA",
"ABBBBBBBBBBDDDDDDDDDDDDDDDDDDDDDDDDDDDDDDDDDDDDDDDDDDBBBBBBBBBBA",
"ABBBBBBBBBBDDDDDDDDDDDDDDDDDDDDDDDDDDDDDDDDDDDDDDDDDDBBBBBBBBBBA",
"ABBBBBBBBBBDDDDDDDDDDDDDDDDDDDDDDDDDDDDDDDDDDDDDDDDDDBBBBBBBBBBA",
"ABBBBBBBBBBDDDDDDDDDDDDDDDDDDDDDDDDDDDDDDDDDDDDDDDDDDBBBBBBBBBBA",
"ABBBBBBBBBBDDDDDDDDDDDDDDDDDDDDDDDDDDDDDDDDDDDDDDDDDDBBBBBBBBBBA",
"ABBBBBBBBBBDDDDDDDDDDDDDDDDDDDDDDDDDDDDDDDDDDDDDDDDDDBBBBBBBBBBA",
"ABBBBBBBBBBDDDDDDDDDDDDDDDDDDDDDDDDDDDDDDDDDDDDDDDDDDBBBBBBBBBBA",
"ABBBBBBBBBBDDDDDDDDDDDDDDDDDDDDDDDDDDDDDDDDDDDDDDDDDDBBBBBBBBBBA",
"ABBBBBBBBBBDDDDDDDDDDDDDDDDDDDDDDDDDDDDDDDDDDDDDDDDDDBBBBBBBBBBA",
"ABBBBBBBBBBDDDDDDDDDDDDDDDDDDDDDDDDDDDDDDDDDDDDDDDDDDBBBBBBBBBBA",
"ABBBBBBBBBBDDDDDDDDDDDDDDDDDDDDDDDDDDDDDDDDDDDDDDDDDDBBBBBBBBBBA",
"ABBBBBBBBBBDDDDDDDDDDDDDDDDDDDDDDDDDDDDDDDDDDDDDDDDDDBBBBBBBBBBA",
"ABBBBBBBBBBDDDDDDDDDDDDDDDDDDDDDDDDDDDDDDDDDDDDDDDDDDBBBBBBBBBBA",
"ABBBBBBBBBBDDDDDDDDDDDDDDDDDDDDDDDDDDDDDDDDDDDDDDDDDDBBBBBBBBBBA",
"ABBBBBBBBBBDDDDDDDDDDDDDDDDDDDDDDDDDDDDDDDDDDDDDDDDDDBBBBBBBBBBA",
"ABBBBBBBBBBDDDDDDDDDDDDDDDDDDDDDDDDDDDDDDDDDDDDDDDDDDBBBBBBBBBBA",
"ABBBBBBBBBBDDDDDDDDDDDDDDDDDDDDDDDDDDDDDDDDDDDDDDDDDDBBBBBBBBBBA",
"ABBBBBBBBBBDDDDDDDDDDDDDDDDDDDDDDDDDDDDDDDDDDDDDDDDDDBBBBBBBBBBA",
"ABBBBBBBBBBDDDDDDBBBDDDDDDDDDBBBBBBDDDDDDDDDBBBDDDDDDBBBBBBBBBBA",
"ABBBBBBBBBBDDDDDDBBBDDDDDDDDDBBBBBBDDDDDDDDDBBBDDDDDDBBBBBBBBBBA",
"ABBBBBBBBBBDDDDDBBBBBBDDDDDDDBBBBBBDDDDDDDDBBBBBBDDDDBBBBBBBBBBA",
"ABBBBBBBBBBDDDBBBBBBBBBDDDDDDIIBBBIDDDDDDBBBBBBBBBDDDBBBBBBBBBBA",
"ABBBBBBBBBBDDDBBBBBBBBBDDDDDDIIBBBIDDDDDDBBBBBBBBBDDDBBBBBBBBBBA",
"ABBBBBBBBBBDDBBBBBBBBBBBBDDDDBBBBBBDDDDDBBBBBBBBBBBBDBBBBBBBBBBA",
"ABBBBBBBBBBBBBBBBBBBBBBBBBBBBBBBBBBBBBBBBBBBBBBBBBBBBBBBBBBBBBBA",
"ABBBBBBBBBBBBBBBBBBBBBBBBBBBBBBBBBBBBBBBBBBBBBBBBBBBBBBBBBBBBBBA",
"ABBBBBBBBBBBBBBBIBBBBBBBBBBBBBBBBBBBBBBBBBBBBBBIIBBBBBBBBBBBBBBA",
"ABBBBBBBBBBBBBBBBBBBBBBBBBBBBBBBBBBBBBBBBBBBBBBBBBBBBBBBBBBBBBBA",
"ABBBBBBBBBBBBBBBBBBBBBBBBBBBBBBBBBBBBBBBBBBBBBBBBBBBBBBBBBBBBBBA",
"ABBBBBBBBBBBBBBBBBBBBBBBBBBBBBBBBBBBBBBBBBBBBBBBBBBBBBBBBBBBBBBA",
"ABBBBBBBBBBBBBBBBBBBBBBBBBBBBBBBBBBBBBBBBBBBBBBBBBBBBBBBBBBBBBBA",
"ABBBBBBBBBBBBBBBBBBBBBBBBBBBBBBBBBBBBBBBBBBBBBBBBBBBBBBBBBBBBBBA",
"ABBBBBBBBBBBBBBBBBBBBBBBBBBBBBBBBBBBBBBBBBBBBBBBBBBBBBBBBBBBBBBA",
"ABBBBBBBBBBBBBBBBBBBBBBBBBBBBBBBBBBBBBBBBBBBBBBBBBBBBBBBBBBBBBBA",
"AAAAAAAAAAAAAAAAAAAAAAAAAAAAAAAAAAAAAAAAAAAAAAAAAAAAAAAAAAAAAAAA"
};
