/* XPM */
static char * matrix_xpm[] = {
"64 64 9 1",
"A	c #70DD99",
"B	c #000000",
"C	c #2C0049",
"D	c #07FAF8",
"E	c #DDDEFA",
"F	c #241BFD",
"G	c #0046FF",
"H	c #A8E6F1",
"I	c #E9BCF8",
"AAAAAAAAAAAAAAAAAAAAAAAAAAAAAAAAAAAAAAAAAAAAAAAAAAAAAAAAAAAAAAAA",
"ABBBBBBBBBBBBBBBBBBBBBBBBBBBBBBBBBBBBBBBBBBBBBBBBBBBBBBBBBBBBBBA",
"ABBBBBBBBBBBBBBBBBBBBBBBBBBBBBBBBBBBBBBBBBBBBBBBBBBBBBBBBBBBBBBA",
"ABBBBBBBBBBBBBBBBBBBBBBBBBBBBBBBBBBBBBBBBBBBBBBBBBBBBBBBBBBBBBBA",
"ABBBBBBBBBBBBBBBBBBBBBBBBBBBBBBBBBBBBBBBBBBBBBBBBBBBBBBBBBBBBBBA",
"ABBBBBBBBBBBBBBBBBBBBBBBBBBBBBBBBBBBBBBBBBBBBBBBBBBBBBBBBBBBBBBA",
"ABBBBBBBBBBBBBBBBBBBBBBBBBBBBBBBBBBBBBBBBBBBBBBBBBBBBBBBBBBBBBBA",
"ABBBBBBBBBBBBBBBBBBBBBBBBBBBBBBBBBBBBBBBBBBBBBBBBBBBBBBBBBBBBBBA",
"ABBBBBBBBBBBBBBBBBBBBBBBBBBBBBBBBBBBBBBBBBBBBBBBBBBBBBBBBBBBBBBA",
"ABBBBBBBBBBBBBBBBBBBBBBBBBBBBBBBBBBBBBBBBBBBBBBBBBBBBBBBBBBBBBBA",
"ABBBBBBBBBBBBBBBBBBBBBBBBBBBBBBBBBBBBBBBBBBBBBBBBBBBBBBBBBBBBBBA",
"ABBBBBBBBBBBBBBBBBBBBBBBBCDDDDDDDDDDDDCCBBBBBBBBBBBBBBBBBBBBBBBA",
"ABBBBBBBBBBBBBBBBBBBBBBBBCDDDDDDDDDDDDCCBBBBBBBBBBBBBBBBBBBBBBBA",
"ABBBBBBBBBBBBBBBBBBBBBBDDDDDDDDDDDDDDDDDDBBBBBBBBBBBBBBBBBBBBBBA",
"ABBBBBBBBBBBBBBBBBBBEEFDDEDDDDDDDDDDDDEEDFFEBBBBBBBBBBBBBBBBBBBA",
"ABBBBBBBBBBBBBBBBBBBEEFDDEDDDDDDDDDDDDEEDFFEBBBBBBBBBBBBBBBBBBBA",
"ABBBBBBBBBBBBBBBBBBEFFFFFGHHDDDDDDDDDHGGFFFFEEBBBBBBBBBBBBBBBBBA",
"ABBBBBBBBBBBBBBBBEEEFFFFFFEEIDDDDDDIIEFFFFFFEEEBBBBBBBBBBBBBBBBA",
"ABBBBBBBBBBBBBBBBEEEFFFFFFEEIDDDDDDIIEFFFFFFEEEBBBBBBBBBBBBBBBBA",
"ABBBBBBBBBBBBBBBHHHEEEFFFEHHEDDDDDDEEHEEFFFEEEHHHBBBBBBBBBBBBBBA",
"ABBBBBBBBBBBBBDDDEEEEEEEEEEEEDDDDDDEEEEEEEEEEEEDDDBBBBBBBBBBBBBA",
"ABBBBBBBBBBBBBDDDEEEEEEEEEEEEDDDDDDEEEEEEEEEEEEDDDBBBBBBBBBBBBBA",
"ABBBBBBBBBBBBBDDDEEEEEEEEEEEEDDDDDDEEEEEEEEEEEEDDDBBBBBBBBBBBBBA",
"ABBBBBBBBBBBBDDDDEEEEEEEEEEEEDDDDDDEEEEEEEEEEEEDDDDDBBBBBBBBBBBA",
"ABBBBBBBBBBBBDDDDEEEEEEEEEEEEDDDDDDEEEEEEEEEEEEDDDDDBBBBBBBBBBBA",
"ABBBBBBBBBBBBDDDDEEHEEEEEEEEIDDDDDDIIEEEEEEEHHEDDDDDBBBBBBBBBBBA",
"ABBBBBBBBBBDDDDDDDDEEEEEEEHHDDDDDDDDDHHHEEEEEEDDDDDDDBBBBBBBBBBA",
"ABBBBBBBBBBDDDDDDDDEEEEEEEHHDDDDDDDDDHHHEEEEEEDDDDDDDBBBBBBBBBBA",
"ABBBBBBBBBBDDDDDDDDDEEEEEEDDDDDDDDDDDDEEEEEEDDDDDDDDDBBBBBBBBBBA",
"ABBBBBBBBBBDDDDDDDDDDDDDDDDDDDDDDDDDDDDDDDDDDDDDDDDDDBBBBBBBBBBA",
"ABBBBBBBBBBDDDDDDDDDDDDDDDDDDDDDDDDDDDDDDDDDDDDDDDDDDBBBBBBBBBBA",
"ABBBBBBBBBBDDDDDDDDDDDDDDDDDDDDDDDDDDDDDDDDDDDDDDDDDDBBBBBBBBBBA",
"ABBBBBBBBBBDDDDDDDDDDDDDDDDDDDDDDDDDDDDDDDDDDDDDDDDDDBBBBBBBBBBA",
"ABBBBBBBBBBDDDDDDDDDDDDDDDDDDDDDDDDDDDDDDDDDDDDDDDDDDBBBBBBBBBBA",
"ABBBBBBBBBBDDDDDDDDDDDDDDDDDDDDDDDDDDDDDDDDDDDDDDDDDDBBBBBBBBBBA",
"ABBBBBBBBBBDDDDDDDDDDDDDDDDDDDDDDDDDDDDDDDDDDDDDDDDDDBBBBBBBBBBA",
"ABBBBBBBBBBDDDDDDDDDDDDDDDDDDDDDDDDDDDDDDDDDDDDDDDDDDBBBBBBBBBBA",
"ABBBBBBBBBBDDDDDDDDDDDDDDDDDDDDDDDDDDDDDDDDDDDDDDDDDDBBBBBBBBBBA",
"ABBBBBBBBBBDDDDDDDDDDDDDDDDDDDDDDDDDDDDDDDDDDDDDDDDDDBBBBBBBBBBA",
"ABBBBBBBBBBDDDDDDDDDDDDDDDDDDDDDDDDDDDDDDDDDDDDDDDDDDBBBBBBBBBBA",
"ABBBBBBBBBBDDDDDDDDDDDDDDDDDDDDDDDDDDDDDDDDDDDDDDDDDDBBBBBBBBBBA",
"ABBBBBBBBBBDDDDDDDDDDDDDDDDDDDDDDDDDDDDDDDDDDDDDDDDDDBBBBBBBBBBA",
"ABBBBBBBBBBDDDDDDDDDDDDDDDDDDDDDDDDDDDDDDDDDDDDDDDDDDBBBBBBBBBBA",
"ABBBBBBBBBBDDDDDDDDDDDDDDDDDDDDDDDDDDDDDDDDDDDDDDDDDDBBBBBBBBBBA",
"ABBBBBBBBBBDDDDDDDDDDDDDDDDDDDDDDDDDDDDDDDDDDDDDDDDDDBBBBBBBBBBA",
"ABBBBBBBBBBDDDDDDDDDDDDDDDDDDDDDDDDDDDDDDDDDDDDDDDDDDBBBBBBBBBBA",
"ABBBBBBBBBBDDDDDDDDDDDDDDDDDDDDDDDDDDDDDDDDDDDDDDDDDDBBBBBBBBBBA",
"ABBBBBBBBBBDDDDDDDDDDDDDDDDDDDDDDDDDDDDDDDDDDDDDDDDDDBBBBBBBBBBA",
"ABBBBBBBBBBDDDDDDDDDDDDDDDDDDDDDDDDDDDDDDDDDDDDDDDDDDBBBBBBBBBBA",
"ABBBBBBBBBBDDDDDDDDDDDDDDDDDDDDDDDDDDDDDDDDDDDDDDDDDDBBBBBBBBBBA",
"ABBBBBBBBBBBBDDDDDDDDDDDDBDDDDDDDDDDDDBBDDDDDDDDDDDDBBBBBBBBBBBA",
"ABBBBBBBBBBBBDDDDDDDDDDDDBDDDDDDDDDDDDBBDDDDDDDDDDDDBBBBBBBBBBBA",
"ABBBBBBBBBBBBBDDDDDDDDDBBBBBDDDDDDDDDBBBBDDDDDDDDDBBBBBBBBBBBBBA",
"ABBBBBBBBBBBBBBBBBBBBBBBBDBBBBBBBBBBBBDDBBBBBBBBBBBBBBBBBBBBBBBA",
"ABBBBBBBBBBBBBBBBBBBBBBBBDBBBBBBBBBBBBDDBBBBBBBBBBBBBBBBBBBBBBBA",
"ABBBBBBBBBBBBBBBBBBBBBBBBBBBBBBBBBBBBBBBBBBBBBBBBBBBBBBBBBBBBBBA",
"ABBBBBBBBBBBBBBBBBBBBBBBBBBBBBBBBBBBBBBBBBBBBBBBBBBBBBBBBBBBBBBA",
"ABBBBBBBBBBBBBBBBBBBBBBBBBBBBBBBBBBBBBBBBBBBBBBBBBBBBBBBBBBBBBBA",
"ABBBBBBBBBBBBBBBBBBBBBBBBBBBBBBBBBBBBBBBBBBBBBBBBBBBBBBBBBBBBBBA",
"ABBBBBBBBBBBBBBBBBBBBBBBBBBBBBBBBBBBBBBBBBBBBBBBBBBBBBBBBBBBBBBA",
"ABBBBBBBBBBBBBBBBBBBBBBBBBBBBBBBBBBBBBBBBBBBBBBBBBBBBBBBBBBBBBBA",
"ABBBBBBBBBBBBBBBBBBBBBBBBBBBBBBBBBBBBBBBBBBBBBBBBBBBBBBBBBBBBBBA",
"ABBBBBBBBBBBBBBBBBBBBBBBBBBBBBBBBBBBBBBBBBBBBBBBBBBBBBBBBBBBBBBA",
"AAAAAAAAAAAAAAAAAAAAAAAAAAAAAAAAAAAAAAAAAAAAAAAAAAAAAAAAAAAAAAAA"
};
